-----BEGIN PGP PUBLIC KEY BLOCK-----

mQINBFZIov0BEACXh461+OM+cIbYZR0wvwD+tdYKwdpKU8syvABFNWxmGpXrlnod
ue00rDoWqTAgubB/h+OrfOXj5akB20zBcTbzET/lxf/iTcsk1bXwTJx+D56b6IHE
vLVM4POy0ujnPv4rfa3vXyyc7+EbpbPHKyv6FVeIqWmI6HMehALFfkz0FmgJsU+Q
gCQTk+AJL6x5QRZsiQG/cAilbOe50b2EyYE/7U+aINy3d2NjDiiB7fNgfBQSKcuK
evHHf04fV9K87i4JW4JnxH+rK3RvMiY9sugu8C/QlUugW9m540zF8PDLGYfWWAGh
qiFAXMPMAM/qMeLDKlgXFuGIXKgpvc6mGttE9QHLYwcXheIG3rv5KWV6y8KuuVhK
fRZn+WpIkchfBMQ+WjdGqrX4NOyn0+ZBzq3MPQ1hnLr9wGjEaZuTKahGeKSUL8cB
zWKnVSNRHpst7STyYxSw/Edea7ZpYhmKi3RwXFLs2y44VxPwflGGrJNOJYgmYmnX
cc4zh4Ewxys9eUd9PcTMfi7E4Kq/ooI2SIYB36qxdWyx1pT+9hJJov9aAU6MMQCO
V7EMjvF9qYLxW0NyAQXaCW+zl51BuVY7ivAXkvbaN4dZ2OcB7KlSkQpigsu81Ykk
kqeMTc8+MBt+slPy3sOKvgOGDevKXE7RlnVoOA6TOPAVLVvHKPcJu/M5VwARAQAB
tEFKYWtvYiBVbnRlcnd1cnphY2hlciAoZ29jcnlwdGZzIHNpZ25pbmcga2V5KSA8
amFrb2J1bnRAZ21haWwuY29tPokCPgQTAQIAKAUCVkii/QIbAwUJEswDAAYLCQgH
AwIGFQgCCQoLBBYCAwECHgECF4AACgkQiV9bwSOgJ0AM7Q//RGtvcyNoIWY44mHh
ufcpZWemIu/5YiwkvDzIRKYwmnFBFWZejsE2cpzBHYGp3WMyJ7Xs/M44k8qyM3Us
z9S52b2SbLmDSvygWDapSeq3BLq9F9F3jrXw6gsVn/ruvMtrAxtkJklfG3x1it2A
xVjgEur0gDXxh+X5+/0BVCVSsJVHWkc4XRKZeJhJEJBAQtN120HcLbkKewyWLuS9
t3mJpPAD6OAcbUbr/RS51c4h5kFC16LX2La/tfddZOW6A35zthbktw1jRPijj/dY
19sQmlMxAMAUAjfz4AvuD1hCKRQxEY9YAf57Ma/VndJUUbU1VGpnLSUe52HTcyv5
ppJ7Dl4pNi4bZXG/kEP53aKhANoMC7zhgCAxPM9yLMCkZPh2JyESxYVt9hMrJelx
Z45jfTuwjl1ItPQna1xzOWLPqNcQ3zMyRH3Jld2NSQWvq4hcVQo/BfKWAUpsVucg
vBo+pNlrF9kw7HyeT3h6K/vUs0fZ2XsfvYlotNTnYpoPxKU34eLKsepmrSKUgcT1
Ue15AGIoAIGgz7m0unmmPo6aGD+MDuJr6Lq7LojM/myRHn77iCwHVK3X2Hfac3gn
lJOoYeIS+UeT0JYEHD9oGykbCGbXWjlOisVUxk6d96KyZBtiIUl6bi080JnLHVDK
86QXzUonnpfMiZghqFq54yNA204=
=Xj3J
-----END PGP PUBLIC KEY BLOCK-----
