-----BEGIN PGP PUBLIC KEY BLOCK-----
Comment: 35B1 7DF5 7525 77CA 0C54  1CEB 94BF DF44 84AD 142F
Comment: Andreas K. Huettel (at work) <andreas.huettel@maximilia
Comment: Andreas K. Huettel (at work) <andreas.huettel@physik.un
Comment: Andreas K. Huettel (at work) <andreas.huettel@physik.un
Comment: Andreas K. Huettel (at work) <andreas.huettel@ur.de>
Comment: Andreas K. Huettel (at work) <dilfridge@gentoo.org>
Comment: Andreas K. Huettel (at work) <huettel@gmail.com>
Comment: Andreas K. Huettel (at work) <mail@akhuettel.de>
Comment: Andreas K. Huettel <akhuettel@cpan.org>
Comment: Andreas K. Huettel <akhuettel@web.de>
Comment: Andreas K. Huettel <andreas@akhuettel.de>
Comment: Dr. Andreas Klaus Hüttel <mail@akhuettel.de>

xsFNBFFgfvQBEACXekK2FieZi/3p+/AO2xV7oZX5xpqUah0mR9PbWOeIMqYnc66o
WGJDD3Ps2RIf27x6Yaio5fshjcJzrQ8ijDzerNEc4ippDrMcEL9TWi5MQ6HgsO2i
PivdGSWoZivSxj/FSDQROTMaPK5BaEBDwc9h3CmGi6fxOlHk45tFpV7jPjOkKXeQ
3ZD4htoxrr3KATdzdJr4GC/eZR7U8/HmenR4yOEQDG+a3K+wF80mOuU8kpRafl9V
xNDjvjwPNX5Wa4EfqtYMSeVABiUq5X9L9ZRFqzR9dQFU/qnOlWlr5zP1k4QbzDrs
eE8pE0Cxs6xLIzV/aqLKJyoTMUR4/opC9F9gbetqeDpKEIZnaZlmljEQiEJiSmaO
gUliztzaqOu8EO2mbFHu/0UIleWnAzJIGXMajI//mbPTM6/FZjrhRf6I1s2JaccG
sjCAPV0VEgxEEY6icm39bUW3gxfKMbzQjannFeO8t3WgS5RuuCDdRJq67aBOeCu6
2KD5lkMiLX4Fb7s5ZaUjttjDNPQjbaueIfkvpYEFWPs7ACxlKjuMW2OKu8Smz1eZ
VgErQMkgCYRhdTDiQZXSXa1ieKR+YvMj49q0gQIUVunSMUK84ueKZQqIf+pb3A+z
tJpbi6NNdu/uh/hD6/2E8viUKBTOREbHMyrOImnNOsSvSe6B7JhOkv9yvwARAQAB
zT9BbmRyZWFzIEsuIEh1ZXR0ZWwgKGF0IHdvcmspIDxhbmRyZWFzLmh1ZXR0ZWxA
bWF4aW1pbGlhbmV1bS5kZT7CwZQEEwEKAD4CGwMFCwkIBwMFFQoJCAsFFgMCAQAC
HgECF4AWIQQ1sX31dSV3ygxUHOuUv99EhK0ULwUCZ6p9QAUJGgxlOQAKCRCUv99E
hK0UL0m+D/4zaeG+N7bPhZGLhR9JrcdB/m9PDx/dRKNJBgN/1pF+pTkv7UX0WHMq
tzWdceX/LorfpVqi5s4oOJXX5DfAYZd5m75NQZEKJMp+ejbg/n1c5lXevSBshVNR
9JVubbTPvNITuynGcO9qDfHDerg6I6zEofdisobwFea55wj5KzY/apcp5VzmY+OI
TbeXCwlrPwu05wsYptolUTb1v+q9q7ThF74TycBl9dhGI+jldn8NsHBygN5IUpYP
+Ihl+SyqFK+5GgEdPR5TOzSexR86GvHET9ITHqVeuvOW3mgjahBgwqJQz2jtSZsk
PT9u+22ykM4lFDffxmLulT61/GsBK4rVmBHD4yme/Nvi2L9R2esMhWtor9FFFAvn
TJ8BWc649HBpN0gQeyRc3LD/oISZZLsGnuZuAraAJPAyR1HKGkSGn1LXkjvqwu35
slBBtjgBO56GmEWwb4x7loakunBI9XJo2ehbDi6XZrf3pJ1zatGmWsW8ELx9jMhH
2EW0H4ALmmuEV/Iap+lI8dEZESjbBq7eUV+8HXKOSMKMtcvl+qsfIUb/8co+ZHgC
jPy5kkZXE4gDgV84KD2EPBOojot5g7je7tJwiTapkn8D+Ayi3gBO1Z5yW6qu4Nre
vesIGPABpH0HbOI1P1tWGDqox6K9p8sKBNXLGzXAUwxDBpqzLn8p7MLBlAQTAQoA
PgIbAwULCQgHAwUVCgkICwUWAwIBAAIeAQIXgBYhBDWxffV1JXfKDFQc65S/30SE
rRQvBQJmEZKBBQkYc3qLAAoJEJS/30SErRQvpqQP/0kyV9KJR3n13GvwcuvtIDDZ
coEbPqYmqXTmXVUX+qe3Z6xuDcW1IHQg+91ePfnCtwQ2fGQxnGcXnLQLhDT1IqcJ
rld8175VwooTvNOJ9MAeGKxDEY7P2LWXtP5JUTfvoqoUC0obcmUwE6ZZd79xQ/ux
fVLfNUlLevTGCZfvBrFdxZ0EbEUG2m58HTMqjQO3DQ6KveedjyEnEj0/I76xvnpM
kjGpRJNloyJarMUerZYvwaFI8y13imE7vpbMOn0EmnBDuVSLfWgAmvrbVH2qdDlx
ATn9D10rj6KZQ1NaUxqmUCONJM0X95e69JSE67E6Mp7JC5pKo4L1HCz74T/gI1sL
4Lpkcds0f20q+d+zjnkhP6ZDLNsu5iPvFHR7aaguHekIPxc6DW+SR05E52caWHWH
SImujhlg+PtlN5ruZW6+Wg/YS92yKa460WpoJEGqQo1n2duwWJ1hxzVqCyLKRQZ3
oqvnxVe9RXubXC8NEkby29bXoq41xpiZw/rxI6MR3oIhFia4Irs/SzmeYZjzgokA
g9hja/cl4vnevD+245cNFOgpzce/A8mYlpywEBLOMZ/ckYAJJ5cRQUZeTz3PQmLb
UZlucLRc7znZzePsgX0KeFdQToCUvvYQEAyqCJg7glXHXvyd8UwZ4e3GluYIgLlp
JIdWzw1IPSq9Fns2Ti9awsGUBBMBCgA+AhsDBQsJCAcDBRUKCQgLBRYDAgEAAh4B
AheAFiEENbF99XUld8oMVBzrlL/fRIStFC8FAmMc3KAFCRV+xJ8ACgkQlL/fRISt
FC+N4w/9Fhw63b47GfeUDxsVNEaX8hHlH/rxzTIzdpib/TVzDayHHtBDyvJB6XHE
xQ4q4x8UCTcGEcBj8rhOvX92sSOKbdSx+Xc7BEdk5Lct98L4xPwt+numoq4tz+1/
iamdlg29WqHAdmCASx/hQXFVdeA2DIv6ZRsaCnS8xMEIUFeL/i4ZuOJjqWqNprY+
gL/yzXGNN8bwh1GjbJYmNpgroK7/b0sIFdluxGUpkMJTi/gvjgl0NcaavZMLzyjP
jAlWoa6OGjUwOL/BTfLRbkezVnIDdxcMtrOu2YA9oBLAJBJ4JVTu4ILo2rfg3J5/
j8VN6enyaRTYA4H0loJ2XTRuQCvzIBq7QgpE6azIV4W3mzkN9kCsZASK29A7C614
Xbd0IPLuzCDFQCdqB6GzyohP+XI04/IBA5UcY6+et6yscQARrzmBgyPm+qxBdPY4
k/qGTsXIBzaugaDMz/0uquA+PJticfD/bJjmM/VU7owml3tf49ES/jpW47mgG6Pt
NpJgOrjLBNX2KJr+XlwS1PrH3NJxsb5qLN192WxrKu0z09Yk1no3MqXX63pV6l9Y
DyF5QrxUGivOMDn69peZIk01wV59S589dlcRTrDIP7wSrDs+cVixwhM4xm/zRH9v
FofLPX1PIMXybLD3eISysuAh4CGnNCWOCEjDMHiP8qxGy+AuZOPCwZQEEwEKAD4C
GwMFCwkIBwMFFQoJCAsFFgMCAQACHgECF4AWIQQ1sX31dSV3ygxUHOuUv99EhK0U
LwUCYi58rQUJFJBkrgAKCRCUv99EhK0UL3O/EACE8ESdBncO7x0jZyQdNK/lG8cC
H9WAKBKD86AdItC/HeZJlNZRghaJX6y3cioX0jnZspHRlBYRUc19a1sJ2A/T4d/s
nAcgtStwQJO7P3p3O+IFRLAroMCP9Iao1kvo6chSVUCA+AqgQqYJ9XaVNphR5ivR
JPoNCHPGH5bt0OWWejZwWZSgn8/cjqaKCeMO5Wo9oDSgCiuCRrGLcX2Ao+efGoQK
jse3AWTfLCps/yEuL4QD1Lc0iKUQnHhgaaVcnocjeIp+XmP44an6MICCDkKZOE73
6M9XqFxbU3+dZL144cx3lDtol8qoWQrrqkNgFd55tJ5eK7e+9MESz8eXSzKpcGRA
S5xMZRNBuQKSk/vzFol68aML6qTsC9ORRQ9xsBZ1bdhiIXsuXpMzq/qgD9Gh5HOP
LRu0EEubcD0Dyp7mrrmJ68KLXoM/x7UcvliDq8t5qPxMIngfLstBIBxfeX93+rxr
SROqpa/RycHAXCsxs5dZ3UjGV0lQ1NuhepplkmuIMq2WRyMd3nvoRLOWfibQG/KL
u5rvWLQ8rNiqnmZ2V0MI6qyRt6lBAMIpu1KR6HVOALGOm7247kTo5mjGfdq0ThmB
YuF5pk/mmwMNMoa9foApPVq3iZ0MBOEqPebCIWrQ41peK2evxQCgzNtD2yycZ24/
2AKOVZztzLjZ9ENXsMLBlAQTAQoAPgIbAwULCQgHAwUVCgkICwUWAwIBAAIeAQIX
gBYhBDWxffV1JXfKDFQc65S/30SErRQvBQJgX09GBQkSwTdQAAoJEJS/30SErRQv
iOAP/Ax0Jmkngri9DeAuhLJoeab/CvKefsOeM8OMqBFIcOS8aP/Qu3hpc0EsVRgZ
rdpqUF8zojnoT0RjUVukZgbEcizNhGJw9Ctfvko0Pz9ysVKZv/wIYeOKWABEGe2k
AC7ShyMU0ap6BLSshHotv1qkQaoIau7p4u4VCUMaNzvzYHPmE4CcEQI7nUptE50b
R6FR+yR0aoOoAU4xsedmLuWLUKKXpop8t9Wo4eZz8JXN/xTLcgjmc3TVUS/ofE+g
Lpa3bnPyZak4Q9nnwmfjAzyKK2anNdZtHW2Ge6RHo3NvERF97xakjsq7BcrxsKuh
S2cXa9yFBLdSpdX/xXgF2r30k7BVLkIfo/+/ALv4OprH6gWl6V4kCjk4LsQfG2MP
+sf0NLruxYdrNFQrzXEMn22lk74QB5jy9xLi6kl+Dfqe6BW4xnY9K4D2gCfPJAMe
RFbCi90uTvLIDUB2ZiaRDj9HjUOZzZyXSbliLZmNjMgo791INcxuC4ewoAlggDfr
upN9lvmGZw6LUS6pBfcURLqStcU+HTGabvHlCEekJVlx9rOpOvFyO3mo7DARPSuw
byP12NunZVF+nWyxprdJWrBk+vq7VJ5R4cFHc/8s0HeHvJWsjiVWLy30JAqX4ng1
HXlXb7UOdJifkLtTYaExyLKRJcxxFfUPPGyI7kcohpt87KMgwsGUBBMBCAA+AhsD
BQsJCAcDBRUKCQgLBRYDAgEAAh4BAheAFiEENbF99XUld8oMVBzrlL/fRIStFC8F
Al5hk9IFCRDDe9gACgkQlL/fRIStFC+XPQ/+NHgDTjrAYf9iUSliFy45gRbl+81G
BG3ajh2uEH7M9ZzEjmE+DSiEWoOm1AJ0/oATjKbs7W8hEDB35KebAhsyGDgfCvLV
iktzYNthUfQMKecVBvbIXuKluyyi3PbMcva+zCnxmxxrHBA6+JNqdZsrDbkuXqV6
YOwXGNDr+qKn8G52GMs17sCCfdAvNaUmf/7DOpUMLvyhwO1sedHU8smpQPoxJgEh
oNGeybSshpgdLf7LBVCzUO6aSccj0O7WPKD4+9BwzRMX55cytHLDfIFHLRUtxixY
IXX2na+8fzK/azDAz9bnozFDObWGtcMBV7Cghe3HAR0pSqe89apdagJ9v0cplpxZ
obeIkiXWQwGWRZeMVUx7+gwcC05EuNyiozVdWQ4irb89ruwZN5VOy5kzO1HIvk5s
+nRJh8Buu1LSzThtrQvjE+NJehQUUmx7oNPIEnIrrKzeI+qaEklp132N+FNFxZry
vts6XnRQzgTcwLuhFpb/tbd7kRCYA3870s/dQcqlxSKZl9ZiAis4NE7DBEYXDj28
3S3yRmndfJl+VO5uXqDDRetBZnGK3TDE0UJkcZGp/q3DvvN8wSYfkf7LuBSKJJDa
vmzg+JlqqA+olnYPmyMnuHx+GrzJFBmj3VjcN9ugQitYltNnuDzj5nWA78P5R61k
HYvrE14d18MToVPCwZQEEwEIAD4CGwMFCwkIBwMFFQoJCAsFFgMCAQACHgECF4AW
IQQ1sX31dSV3ygxUHOuUv99EhK0ULwUCXj67gQUJEoHXBwAKCRCUv99EhK0ULxMH
D/9uc0VaU70X85uqEtHj0tTwvOeOr/+iAWfAqkfs6rT/OR8BfJp7kGbQS+mwt0iS
pDQ2dQbFUgwhDxwUyTPmvXz4F92jhcPtg9tWdFsx21lfmaToHt6bxuIWfa0IQSEG
StCSCytdZckRgMIwkcRcf/ca0T7I/s7546MOKp9ACy7CawXAjYvcfVQjvs6mjhZ4
AEiTT7/xlKg6o+th0+N51oAQPqtfhf4LEUZ5GANxr3m1ry5jB+JZ3ZyIyBJGAXzW
eo3RKhkrtvvN6S5oG/PMiCEo4O9KNmafa319Y6RBKWTd/zuieW7re4Bkifk2SaKA
MopyrFSORSAaI2G4HS4h2aI7JGdTupgYP/etCSIBB5rraeOUpvWBoQ5RtKsojVC3
foORjjb3a+Dr8/W+jzJm+Iqmy2/AgSBUYRwrOqMvvYK5BAsNwhCKsTVqRv/Kf3gN
9aviYNqPYcCgzZYAn1hIJlWWdhqxlB6HABGpKRNWQt1R6XgufYt9CAnL9TFZeueC
IUedxk029UzIhMe5yHVTd/eshbuSNdGBeb2yOKV4VAHJcOIqQvbz3Ym8jlCP6wdP
I9GEkEpOM+G3bfYMuUUU34LkIEMlyPeSEVDhLtIi2xCShG0Ze79II2RpeRY8S8hg
tqIM43belQeD8KpVcJ7zahlJCmqAekeOi09/y2oejZWzosLBlAQTAQgAPgIbAwUL
CQgHAwUVCgkICwUWAwIBAAIeAQIXgBYhBDWxffV1JXfKDFQc65S/30SErRQvBQJa
DhtZBQkOUTbWAAoJEJS/30SErRQv2iQP/1gw/AoElxHqEoZF/rd7Ihszu8nd7NBU
JOTyHg98ZOX9HnKTUmSZhGocAXHhBaxqHd4NzUWwy8hBxSrtBrTHFh36a+/bmYSb
MEoNzkRiKevtbFWZ97opoKado4BEhVXmRNYjB3EtNJjovvtKtGumgEfcElovgxZ3
dYhijCpbU3cwKSMXj01h5kC7J9yUf0AZk2T7/w03lTY07gi1wR8I+UBaHVfpUQSw
YqZ5Bm6fFANasMsLpEouvoeK0w3uJ9MEWPHcFELb9NkVsE51TYNPYqCW/MnoQwFV
54c+lnJwFZm0g2s6dSK1OuR9a2kC7X7JolqW0Lv039YI4oVr+tfci1pCFt/68IEh
ABJUhBQHpd9gsFr0eGxEMKwXEEL1aF3LMZqQTJd2fwWQ/H0wX0aPWT0FyQinrLee
idlpiZd8WhWEqrB6tR5VbmMsg5ZHYQLSRLVktPNd/fMSwLVh2zXcVwAoX3dIgwoF
YbEX7H2r4rTu/BE+LdvKLtCdNkpsvQDqSJATjgLOtuSk/lO8RL+58ThRXNiUj1uJ
RP3UsntWJSRp/q5lvNCfrqhuUUy7sboNqRhIZ+wo2S6h2290vknE9sssdQ9S5fJI
E9Q75yqJdphE2vXXBBhXP3EuwPkyrAw1fWpebwIRhDvTOol0AavKJz5EeFb6v4Tn
Th4uYTjS6eCawsGUBBMBCAAnAhsDBQsJCAcDBRUKCQgLBRYDAgEAAh4BAheABQJU
sXbSBQkI9JJWACEJEJS/30SErRQvFiEENbF99XUld8oMVBzrlL/fRIStFC+wCQ/+
NyqVosPQXy4iclllFHxvmkWCUub1CQ2d+2y0hYVePiBANIkkiEv+yxxb5DQgrzxk
5mbT/ichOTDKi4b+QnWjUs1cf/mTOvKdZZ1tuO3ZXFBB8yRw8rEuLbNmrBW4vXaG
Pab+/Bjb8c/LTTaVntL6DZdZJBzx7y/XrBarhYq4F86M9yBEi2MXYhmK3LQd4QnJ
cy9rT82oN/RhaNv7BiHEJho421VvS3JSQdM/2VpXgAwzmBtPUNEqBDpEGNxBz4d3
XzVTHFf6Ufau5FdFg2aoFTmDRzayrF8fZ+tkfRLP+MSU5rGZU/8rtFbBqXcoWWfB
JuX5wlUY7AY++IdE40z7UPgCXNhTg5BzCFbd6FWNuVjad5yKk2EDnBWqqkNZraHI
+jwDNH4alLqBLeTwcF0zTEv8JsT8Zwwyx7b2uKj9Lm0Cq6psQoRFRua3FcJdkoa3
AXQDqzl9+hHzwy+Zj34/Dh8Kc8mMNv+oy7C7EUeqzsVI7iFUSOk9NVds0J7NglDO
efau/mG6Hi1CiB4F32UX/fn+yfDDdD3OydnBSJ4AY8F7HhyiveLFmgosKagoYheW
72G6jlRiuqSPvS0voz3YUYHxsODGUo7lHLm0jwe7T9/YWmtiS4Y3KmlqvrAAa8xh
sm+vsNIh0Fkt53BU+Kul0xRbH4wDNIaHQyMXTsTVMCDCwZQEEwEIACcFAlFggWMC
GwMFCQWjmoAFCwkIBwMFFQoJCAsFFgMCAQACHgECF4AAIQkQlL/fRIStFC8WIQQ1
sX31dSV3ygxUHOuUv99EhK0UL9YGD/45ew7S5QU/zyjJoj1l+uCh8d0ZWKNzun1H
rH5HpAJ6BQRIjgt8tKd7PIeDagTcAgz2O+qjZpD6Tx1OebYXPm2fedtPrrqRDCdU
Kqro8aYxnLVVDaOi//U250QNbIZH33PHFxqcHpqGO0iigem8Clw4fOCXEOrP7t1U
02M/I6udJwY8LDxnFWwBupY8Ewdx4gQbcpC+U4WnpljY2VVnygA2sw+MsBbxFHIO
FzOOaEl+Ls3K9kqHkLRXvO5F1Th+g0KSW2KO+KG317U2V9R6gFbOM7Us2S283kIq
nnu1+flDQB7ZwvG59Ae2hCsRUf24IbpZ8Ft4aarB4wQj9CIFAr9epTioo+X0nzL9
oXuixrnYjuwJcGNgNSRzB4W2+0MBi19+1C0zp/mEajJtWxLdVc32sgGsAutrfEaZ
thEXsG4pG2x6B9A8LEga2VM12pYh/vNp0/SJu6SSl5VwEzaqipxMgTG1txXJmUbe
hyiONIyr37qLJUXZyXY/ZEkcmcrkPKfWc1OJxtPY0ygfZ6F5/iezMQEpLOPQbsin
PrDsIOUxa1LcnwLVvSFn3fG5oR828fG4NWc3M+9L2ymkyFPlIsulmCue4M/kZAMk
7S4NO4JiYxbmGI48bw1xjQlyXf+YlYfgF2aGRVPquWFfkxTznGZ8MQf3wDvmJoAF
F1CbiArW+c0+QW5kcmVhcyBLLiBIdWV0dGVsIChhdCB3b3JrKSA8YW5kcmVhcy5o
dWV0dGVsQHBoeXNpay51bmktci5kZT7CwZQEEwEKAD4CGwMFCwkIBwMFFQoJCAsF
FgMCAQACHgECF4AWIQQ1sX31dSV3ygxUHOuUv99EhK0ULwUCZ6p9RQUJGgxlOQAK
CRCUv99EhK0UL3H6EACClhGgX7etSdDdz/MesVhvPJHex8lLJ9CBjPXMNI6OEwo6
HRFIDWPSNMb8ANvG7KN7yR/OCwrVOvYm66JtQ7WOlg8y4NZqtC+C1bsnpGfuL8+8
mH2Pfl4iC0PjvrirZtyNTIjQGiDvBlMVRhxdWmPWT9AoJc8NqDV3MOjGaTLAothS
Ip2FofOy8gTZeQbv0+IMq5Daru3ffph2HXmRH9m5uWhExoTIzpvWKjrth6GzKL3X
5CNNzbIHhZEcw5KH2eDJh8bsZxTNNDF0EJVuwPV3bDA+U8SZHXKjYYY/tkUVPPDh
67RQqW+pERCTI2qpujPJ2qiS/zPetAPudYkuQ+bp+PiIrbG52Ct5dRVYrBlWy6BN
nyBcuI9hREtl0g4kBhFny2EinmLf/eFDCh6S/06okyEYfppQ9HBtsM3dBO9aR6eP
MrRB0grpdz5ESxukARpxZs8vdGHOrMMvnQBtx44xf/7v8uUELMZTlkpdxDnUyMw9
KCsi4vHiAf2+HqRVqG6rVmGi1y7hbudj0C9fj0adYk8hMoeuEz2aDu5sAa0Oo5EH
plcQx/Ev3uEWrCnITi0wpaCDmZ35bR5mktNte6uEBGTUqAOnCz0VVVs2Mditi4ZU
XuI18gTqmxjTdKZcJ4ZDCVHUM18c1Ghq3eV1uLX/JOvMv3N7HKzj604gSiNjTMLB
lAQTAQoAPgIbAwULCQgHAwUVCgkICwUWAwIBAAIeAQIXgBYhBDWxffV1JXfKDFQc
65S/30SErRQvBQJmEZKFBQkYc3qLAAoJEJS/30SErRQvlE8P/Aw6uSNd5K0eGw3l
BiJz2WUdlw1mftszQTTk6KDK0P6aK3s0JRzXM8L1jOhCMlBNNlqVbP17x7rdb32Y
918J8V2EQqEz11bk4tSCDBqtUeVUnRZ3efjYvs7ySnHKPwg1Fv3nrm5b+uz8wLyv
5a05DP5d7DAlLPsBHVLJ+eV+Nn4XWMdyD5KTFubJggcxSA8j1f6S41sxAvPCpeLY
5SyDfSYsvyPyzFrC1fYlVvSA7Q/fsZJhW7lk/aupiTL5CtqvQt2XHaZcLDhJ9tdo
AKXDtZkzsVzi5N2/NeBNv9gnzDxChodmBIo5HWD6wziYkX2WZjWOGVHvsbbRlpXo
GwDDfmvwxy57e5v0iv0dtHPKDrEGMJcSXbPVp/AfOSpHieYQYYwAAm/1oujk1xsy
LaAOgT/HzQyY1rQAtw2Mf5N0OqpvbzSyejeTj2dbyLpmwMyMvIUw7IkJb+CSuZ8o
6oG4ArS3rDaF33qMVvxdtRn9tta8CSR69yrZyMyLCP5KSVZmX+8xNWLR0pVCe2V4
XZy6v2bvyjeSy1lL08f7OR2yRL16ZOymWpAfBfsist2Tfe4BjuGpCJWdHO1+hsts
AVgP8CBmUb1zyUEEcDnqJy78lVLggftKcuqPf9UqrJYagu7CeoZVAUjg3nX9cCHN
3AxFVpMo8ptMk5X4T99aAXI5b0/mwsGUBBMBCgA+AhsDBQsJCAcDBRUKCQgLBRYD
AgEAAh4BAheAFiEENbF99XUld8oMVBzrlL/fRIStFC8FAmMc3KQFCRV+xJ8ACgkQ
lL/fRIStFC+lvxAAlu+eOieNMaPoJ03EAh7SZVtMIX9j8epzrIl8noQHIGj+ucrb
uts7PNT8ZOjWr0HSIZVwx9BE/3Kv+u5azpSyp9rape9PTTps6QXgH7u/cYYhdLJ4
uSz2xcwaa4BGichNisdPr/YROEuyNN9XUXZBygTUHYJPWv+LwBHHc5B+kmlH0jXQ
qjI6BcGGL0uAR3L/AwwYFaZOHcNeL3KW7fEaMvqWWsb/omnEvul8f6LXR13oJHVZ
Pl+IfsdRR39T8a6Xy0Jef994yYnR5/hw+ohdzqLrp6lQ6IHZ50MgrIj5xnxTW3iG
m6pn3wo6rXqVEUTxKdRk2W6VjglygCS14X/qdoeiwKoQXFpawPSlGaDEqrC6YRG7
US/noHgcBoloDrbRRhtaih8RHKsAzLXBo+nf2Q5MkKn8dift36Psl3cXzOCJuMc+
OoNJ7kRPKm9KSR1Yi376fDP6kTLe0fNeIIdO72PMLe7ozJjrUKRfG53ic16v6qCT
Gk+SCldmfrW17p5hdQyVD2dCzpbLLBNJqVl9wT/8mOS1fguoTCJxZfUOeTz442vN
zysgKpTB4ok3hc+Sra5nATC8kOBC42RD9PgtmZIaE62TiB1rHfhPDWyo2HIEEKFS
vVbZZSOVdwWnKzkwBVnXZgkXMR1kXq8f8xp7e4EohQxV7SjOx2uHIV0Qn7bCwZQE
EwEKAD4CGwMFCwkIBwMFFQoJCAsFFgMCAQACHgECF4AWIQQ1sX31dSV3ygxUHOuU
v99EhK0ULwUCYi58sgUJFJBkrgAKCRCUv99EhK0UL2huD/sG/vqwUmVfQ/AkN0fr
kb5d6/K+P+BgOMiljDS+N4pOUirxjqz2/mVOipzq5YsyZ+jDEeYPppEolMrUeefc
aUcwDfwxUr/9gMiAcTGddXzV3KEFMz33ikPGk1M1LDrVnNkSVLaKW/i8CtqVQD1a
FeC/2m0SZjnqeYs00Ivwa2OT93cISbq0mqp1zjybkNsoKxqCLK/NDiL3MNO56ESn
YH5Ss899g0MiIfhtc+xNUIyqUL4qsseQLaXXsq/vWn/VAEwCmzAOpwQEFUgql8NK
I76jY1Guo5vEVKigLH2wluLNRuYAOBIkSS8d0+sSHVO5iLHs+4YlWp886RVqEu1d
UDd5F1m7gFxnFe+LuAvhH6C9iTTml+apdPW2/8kq8hHR0F+BRGafNUYNHRWlCaXL
hkUjziacXPo4h+hQAudGypnjqSkrPO4HOxvZPZQeqPjKM6h4BSvU1aD2keXrMHYA
YB94vsSfqg7YZSqUyE65aPvE9gYX0i1t97UvAUyIZO56A3bOU838Tq5VvOagSkDT
XbuGoz9qcnRWCGsoOmA/zxTGRbJJOIWCtvcvNRP4DZv9IxsY4xQLxqncglwT6Vvr
OtpY6CggsS2Lyh4d3Xo8jKfejEcGV90PuIrrXF4rxabEy3/GQThrx7RJk3iNjOV6
mIBAffrQJKaBr1hhbH6dfmh0wsLBlAQTAQoAPgIbAwULCQgHAwUVCgkICwUWAwIB
AAIeAQIXgBYhBDWxffV1JXfKDFQc65S/30SErRQvBQJgX09KBQkSwTdQAAoJEJS/
30SErRQv6ZoP/A7v5v4p5+gA8ejuIT04Z62cOoi75M3U6nV/sDVgJkmybixHqfUd
T7lwX/4C5Q3QJMAu7quuD+GJmLVAgSyeQeeCsX0O/ybrlXKAdOtau6rrXaCFrGRn
VQvG2y+T7gFhdaw9W9STptpAK/7n9Fc/93PADWhwaAqxPMNcInuCCRwNcKzCcrR+
i3D/kr/CsId38wbB9Atd9lC2+xR+fsgl98yQCFlvuKBXMRKxNZYS0JdR2AiFO76P
ooSSoW4jXP9aHNdQ0f7RNN4p0LERMrS95r3lGhJmWks46/ElJGxlbHVzM4/9TZ/J
8Lb1wfPOyo7nwWdcm91hD+KEPbhsUmuJO4m8x/snmR942mFcYjLOrnxJ0V1rtz7B
aiJdV1zCT5R9wbgnRpOzBciZQgKD7bT0h+/HDa5H3VEL+sDPIin5o9vwqVkBhHKL
3LdNOfz3n1F+0WNzWFQyDKDZvQMkXRYd1qp9gQTMlkXRWBVtsFuokutVB/yTvGqL
wJabdK3sWcLFpSNDHqbgot2/M68W9bErOcTCgWJiEYKMLLotnfofPjlvTOZJkRkY
DL7sIR2yI2ZujhtOwMnGQogykBfHXPZhI7Ovn6hkmHr+mpsaSR3MPOQk8YaEsEPp
AnMAZ26XYTl6mpLWMLu268VMjfkUqtMOTWir/nkXbi32dF5+Jug6rQp5wsGUBBMB
CAA+AhsDBQsJCAcDBRUKCQgLBRYDAgEAAh4BAheAFiEENbF99XUld8oMVBzrlL/f
RIStFC8FAl5hk9IFCRDDe9gACgkQlL/fRIStFC8+mA/9Go8N4FDxae6hFQukD+kQ
pxJBnwrjIpNFw6TOwUXe+CWBVJHmuBChjdNMPegaLapk2LolZy8ArUFSWNozHJLQ
7CAEhtrw66pAb8wAegtwsSbVcxBASPcn/2b82DFCMKzsiBhknGJB9l2OoWxKargH
e/z/XWiOWDJCG68kjqTHrPIZIDbGseAQi7IeOLQAozxe6HcB8Yc5CC8HkKMsawem
iggUopsxhrtqi07hATw29eNxMZLVWsjTPJLVFzqn1v93g+IwPdgyDgctET4+ru85
0WUUeEAyQtUtM6Lt0G6ygZftaCKn8S0mfwfhmwOcdvoq5l/DsjiH7E251KfERCM2
OsPR7kb9bqLo40pDL2Lujjntl/r9BZkj7CHhOQWxlWmcOkrAVLQ3L+PXSj4T2Db5
UPk9BjlHkqEDoaiKjwtahZ2m118Zg2s/VYULwYfMG6sJCI35Gou3HFSJrLQFVru4
WGdqC+Bg2y985owAN+Xds98hM/I94n+35io6KyLVUxXpICA1FMNN5yqUPWim3D0h
kGZvXligDoAUKxfjZbRYn/NJ5YGAo9WTKIqyb6cPvDWSiRux6alUVu21Rww2YGxJ
ytDuaA+x4MHa3r49VbHhLM6x395cqIwvu3xfUywt0RGo1qoy4KDH4MD0FsRh+S45
AWOAjAD/IsvkRolOouJMSCjCwZQEEwEIAD4CGwMFCwkIBwMFFQoJCAsFFgMCAQAC
HgECF4AWIQQ1sX31dSV3ygxUHOuUv99EhK0ULwUCXj67gQUJEoHXBwAKCRCUv99E
hK0UL/WND/9sx4/lazTzKwQfb16bKPbCRgjsP+JuNiifQmLjYjDeYWnlpszJND1h
B1aYOAqK1mvJyz45LuoOQvLFeZtBoM6TEEVQlyMGvgpu/6bqQlT8qk/jFL1rm4GH
th54oflIXdEX93uPBk0+YZEPIngSp0EPriHtRN8Wzg79L2CZk6C5dh6jQ6sCSy5T
ljdiIuwq8PXp8OJWIYbVNw5SWZg4sIpz+YrQQY5TESHQeL57Sq2j8vggyla04hoh
tI5hnUJXCVeNnjPNciRWHD9PbwD0QCu7Ar7In+itqObpig/MS9RIuczfITjIDURV
TnUJFfvy+gG6YNrfdkA5gtKluVnbXnivmkGierQYGe3UOgizkeUAprxllSP1Bc/P
PO8lOoWrh9eaEdSyBHHJLZUnONSQ/vwuL0/WN8cRdbnAHOl8ONAnKr224w/fc5S4
W7vzvVwj93O0DxmT+1DgD3Nd+jd6oZ3+KMLSUq5rdSnZq+hXrkp8mI8C3AIyeol/
VObHWcnAKhciTiiqeYwaDrD2nnLl80a/+mRFgJWG8vwkFs/wYYIC8HrGulk9lPq8
z5ioMqwprqKwp5lBSowa5eM960ikvi6sxvg7uJ7chgGYmdDGUnfjchsLX09jEhQf
ztSckcAF3ymvyCeIsrV8tM/PKf5YIuQ01S8kZH2aFIEbGDtPOXAeRsLBlAQTAQgA
PgIbAwULCQgHAwUVCgkICwUWAwIBAAIeAQIXgBYhBDWxffV1JXfKDFQc65S/30SE
rRQvBQJaDhtZBQkOUTbWAAoJEJS/30SErRQvpPAP/AoRh7d8CP6AtfHhGDf/yBJY
OvU1RyX5F4/0RAXFFj/wR4Xa0yQzH7ZttjkOpfwrmVx6Kkms0jKmwdIDm8f/zOTd
/5C9gLaqqSf//4/mi1t29D14ew1RClDJs4Jxq1Jl84ig8nEZAqynost81G5z5Wj/
7ZR9pzm/vG+BiGcCpbdxXGIqa04SaY8uAbczPMXKz66+Y9LXgjUF9+Hl8q7PTq+j
gww2u/TdS9d4eMdVJDjYRoIGVRZDpPg+pmsi3QDlKWGt2xk4DdXKn1WcMrhTRtBB
ENXaR1c/Frhd7eUskopp+ocGil5ZNS44+HVUMvbeNhH7U4sikoxl3f7HB4OjQq+u
TO7Upf47P3wKObGMDLvLL/Mp3OF/ByC8ykBkX4ZsoNCEyI1VAgpY0WvQfrRXi9fw
p7oz/xrrpbB0jOneP3fleGoGD0Yu8mafRt6bs14CN84DulPcOtWKM6IWb6GbLOFV
nMOCIoNT/39OOLS27ReZN1Tk7RWzhNM+RtMp0TFq84sOK81M6R50nLgNKgakjQ2j
IkFQfqgKOgtaRd2eaqwfP41cJ+W4s0IiqC+PjWGWB9dwul5IUq00H2xlI2YgCTmN
UvZCWus5Rg7K68xFSOOPc0WX3UMRA//I3lXH0TE7x5FLO0j3hTxGwZ1WXlnSCVVy
h1oSSGHzoFgmHCfs+XPfwsGUBBMBCAAnAhsDBQsJCAcDBRUKCQgLBRYDAgEAAh4B
AheABQJUsXbSBQkI9JJWACEJEJS/30SErRQvFiEENbF99XUld8oMVBzrlL/fRISt
FC/i+Q/7BWKvxXiEL9HPBkN3ggfuypK9e7yfaYZYVD850HRMIMMsu8XduGQgRw2R
spcdYnoJjFBcBzX64f6ujv5bjsi6FQRNoIeZZyp4WTbmTt0Z1QprVTna5Rm7N5BI
Rw2reP2Ppzf3nzdbYMgK657mgyGoGJedXn9Hdugl6iDFI1D3vUiSZuMNO8AQ8qoM
I1vPtARkb8NF0jeOC9U4tGdvjlHEXlZ6Q9UVolN/AOauZLMh6VjkbQAq3IRIEQku
MXfT6Z0q5NkYQPjg1tQBJx2bukf6ITy7k00Q/gNl7SiwrbTow5/0nuJKDDYWoP32
KECn1g3lqf9bphubeuhzOM5yxghSOC3CtktcDjHxHpIHUmmSYy5I4QMOYnJvgWSZ
lsw2SJYpnBwts8OLElnmOan3v4grUKch3H1l9x+tvSbp2lmXy9BakEOLbKjO3U5Z
ubNgJGbbG6Zu5Ox1IC1yPc8ZG2545UkyuBoHWo6iRmZJC+8W406TXvALZXs1RVM8
OMLs3EegBzRr+OyOHl3PTT3NM1B+/DVsgpMngShs1FcKu45kT2qhGtAI1H232ZNB
oktCL7/TzU3WSG3aDy8V0TgowA8R0JaeU31Fhq5Il4SVeZ5EU3LNQMb9BHOgn9ca
WCvNVcUhOhPS2X0dkG2+QEsbSZJK7+CTeZx4tRTLwnLhTxZpr3PCwZQEEwEIACcF
AlFggN0CGwMFCQWjmoAFCwkIBwMFFQoJCAsFFgMCAQACHgECF4AAIQkQlL/fRISt
FC8WIQQ1sX31dSV3ygxUHOuUv99EhK0UL8drD/0RphRlVwJTqf42DkUyYHVaORmd
EQkDloQJv0XnrzAd7w6vPZTOBCMrfvSP5W00AFeBCFdjfwoOA54sIarnfM9iW+u9
gWJGEQNaZnT+mquvvduh8KeTT2pe2jxJVcVGYRY3YTXbVQL9FxjQbJGUu7yZosNS
iuL3OeefbgiwRhmesLFce03WSWAgtYolMaSr1XN1zAWzzIqDZEeEUJAqGVajFb9V
Qw9EXEnZVv0spbxXM8wXyamRAGX+5+Ts0Mh+W90bHRIhN7ahRdt6tWNvrTDk08CB
OouRNPqYVHeC6KOdxYKPC/xXHtAhO8j5LdHzwo3rv1Sp1t5qEaY3Aaj5HgtJR8X/
3o7GYqEN1BuXbCkvjFNlSdhDGIJqUYMEjDV8xR0VZkC8wx+LesQ1IaIkJsu29fm5
kRpw0cBuOSAtJoOOPV5KXmX1Rx851Jo/kKPDLK3VRfYbxkbtl98dvQWObAhUWYUD
aB4bwst4DITFjnJ0K3KorQE8xGN6UKJz1s7dAWd/Vjqaaw4OoCUcnO4h9UhTGRcr
gm24fP5MKULlOZzE4VswghINtKAS+kxDQhcrWk5cHWWL1iQFbuu602RfIUuozgS5
KjisrjKgxU6FmA2Va+y31gLDtblXoo/O+zu7gAxowc3UzfnA1auk4/G8zEqK06je
hmJaZDt1sDwKtlnUQM1HQW5kcmVhcyBLLiBIdWV0dGVsIChhdCB3b3JrKSA8YW5k
cmVhcy5odWV0dGVsQHBoeXNpay51bmktcmVnZW5zYnVyZy5kZT7CwZQEEwEKAD4C
GwMFCwkIBwMFFQoJCAsFFgMCAQACHgECF4AWIQQ1sX31dSV3ygxUHOuUv99EhK0U
LwUCZ6p9SAUJGgxlOQAKCRCUv99EhK0ULwisD/9E5a6neqpmWpZWtVMFxd14aWSg
dwadA7cAASyCu7j+WjsSnCASn9h0256UoLjc/+ydnanzwdlYKutWLIGGGEk74SlU
146RJAVPHYPqXJDM/izRtA3tvdv6IIkOnsEgZdhsm2PDOlmovqIkbTDHaQGzw/GC
NpwSt/8n14gGs1vJzWrDrK2SjpTWtg6iHdh31HJrmOnfN5YE76EyXWpGQyKYNk9T
05H0bMjy+3O0Cs6Gse3cCrLZO6IrgMSYRcMg4ssoLLrF0LFVaeoVd9Jz7PH+4m3Z
jPW05GhfxEqoCkCtIpliYUamTWG6GRTRbXt8OtJaishlNVclBKUKwXMoFV7mT0IH
lw5/PgmOVi5iwPIJb+3ytcIEAc85z6pdu3AXRmqUWN7LCEDyQIS8q2DXkScz6uQm
2qxIT80FPnvnEi8JYPQ912ZIhoqYAefxk1/0NEA/EfcOKMPQsx+4ajqPHXLvrb/W
huRtSmZzbpNvGpfsvsqKstUSYkvzBbVo59GldhShr27ZcpSe+9iVfgx9krAODkQ0
A+XqFPxt6oxFVx/7YT1I9TX5CWFi0gCu6POLOS8Hh/OeGlUqbOY++WqGAV4Yn8dp
eZAo9Cm9tNxc+11/QcVhEZjmLcgx5MR64YjwDOjo3Ehj0H1Glm9wcl8Ww9jIOWvV
T5iW7QuIlEQPI/YkesLBlAQTAQoAPgIbAwULCQgHAwUVCgkICwUWAwIBAAIeAQIX
gBYhBDWxffV1JXfKDFQc65S/30SErRQvBQJmEZKIBQkYc3qLAAoJEJS/30SErRQv
jVoP/iFp8nzy2kFlCJz72Xn0WrBbg87FEAa8G82H+B5I8PNM1L6bbdda1FuKWTt/
cGxp+qv1G7MSF3ikbcZrA6RiOWDoctpesyUpqr//i9KLUdkYz6T+TvkkcbFBK8Om
xEnVs3WmoPtR6WefH/slyc89tigXYTepJrSkDmTNKTo9Raw58IFp3Nc/CRQPHASK
LetBeCOSEvlojBZ+kWxfVDqphScDo2TSiiHJYhPI3rARhiJ1jVCQ4vbmap+wuR/U
7sedTxUEJ+3orlU8sbNyB7uONSxYKehIiw1HL1to4kz2UTlUjj4NXb9OgOp66ZF/
W7fYPf6ahYLTz5Ugllm89MJLTpJ9xaUvNquy98WSy13d7rVJ8FVCnvnruOIkOggC
et29aJAxgkjf5bgPtx1/IiXog1tq313WCphIUHAKm0+sdPan2x0wJNE0iKiSn71A
LWCdkLbOFf0LDuEXlQKKj8Qy4FiKyBkBeyFFJ8mPHqeCYn/CvatGN43d3D/R67AF
InGg1h8OgrRayrnJC7oDFfjIcrYXWQGkUppYK38JT9ln8XJV6g7IccaURCn/K3Qe
OTwDeO/C16jPF/Z3R91mx9yNzqk/k07OXmBJ1BF+Uv25GB8UCHEZW/G3oBRQwT29
7TwIVNkxzGfiisSwkkDOzUpnfAIAnGLiwaE3+QC76CYgcXcWwsGUBBMBCgA+AhsD
BQsJCAcDBRUKCQgLBRYDAgEAAh4BAheAFiEENbF99XUld8oMVBzrlL/fRIStFC8F
AmMc3KYFCRV+xJ8ACgkQlL/fRIStFC+V4w//Xfh69JOymOn99Pecg9hfbRnRyLro
bu0+VcpxX/UYYgllpGeUms3d9ONVNtBmY8mNMduENeA2X5yYkz4VIhBb6RCzS25e
kXY7irhXprFJwHYc8x9iZLZzTrfPbjILkSXpGAVbxZWM1uI7BlNOBioReUIX8oQE
plYjMIPqw18o42L4P5Mj8t/0LB/OKhpggRFNGutmqW2ufnfZ7JOrfiwasKNtUkp9
rPS9Wb2P92oxYL6OOjbIoSPO1Gct92VXqQhwq5Fp8LBjUxCEg5Lv5lLOo6Xv5U1W
lP5jTb0BjBL2KfDpnu2NjzXmN7ILh2x8HPOYhUC+aNncJefp60Ch9mVir0J0IQBV
tvkuTpynNiatCFncYZex3ulIBPReAfTWn54gmGujlAfkDuPdGiZAdI3Fi5BKN0JJ
0jFTIQ1vhARqFvOC+uBDeqQp2SRgjkp0UzJ3H5A6PgGaY1p8OCupomN6FG/Wzyt6
vd+iXitRr1gwoh6s3HOKnflG5dYkQ8nDSU80VFOzoWBr/gTorrtvS1v35Eb4vJ/N
pjL87taYaCgjZJcokIAw1r5UB9IYOdzVTzVkeuodOH1ANQ/3xq1kjbXAvx/nQk2d
dHF33iwi2qOFVXFtgb0ho6aeaMPz+zrSfBpFoQJs33Cng13T3AkA//4EGON7OwTp
jD0igiX3uZ56f+7CwZQEEwEKAD4CGwMFCwkIBwMFFQoJCAsFFgMCAQACHgECF4AW
IQQ1sX31dSV3ygxUHOuUv99EhK0ULwUCYi58tAUJFJBkrgAKCRCUv99EhK0UL32S
D/4o6jOUN14n1ti7VD1OJQ4i4MxgC8Y64V6QkDuR/jkvpEo3tt45ZFDvtq9NrjLk
llGoIX1eTSW06YiebptlaqMIJo5O9/YfH0nOavQMaVBI7FNNjNqbMUINoFbvnhGq
paTsS7/j0xfXEgVLc2GVrb8GlFS4dKN/DeICww/eFTen8hjzVZAX240WcQaDpwZR
+/u9CfmDNsRHkuVYOhlGtoJ8MWTaWcPcFqAV1pf0pB8Z6Gxmcy3QACrl/sNoZ4VH
YVB3JtA/h3kUP5VM8tUpCAtBOz+n+v+4NGfSL7UX3Li59rvp5ke4mVItD2pCe2/t
hg4d6d4f0EgJC9PcN+liNOs/XFMaaY7EyDS8+vovlcgf1/mKzy6YwXzl6y673NlP
H6DVjalSdUj4u9BfAUfoKPwsD+eyylCMToBMs/8WgQvf35x3qwR4j/vfshSSXKEL
VXhE1Si3ZYTelsz1usLMqloBfLMHIMDoi5nU9Cq+K5KiBXBGXmoRADuEzZO/8bFa
Wf54WgtMMmPpcAZeMaU7TvofToG5ohvCjhe/iRjKjCVX1VGYOpjEzxzFltRXUCDu
6st+eW1rtDLqk1mezTtnaB4qmVB1JluZxhzBWvXZDGGGBmflg5ybIE9Xhlh1/E94
dhb9iDvBey7n5D3hI55epV81DufIroDS71jRHv9X3nt2JsLBlAQTAQoAPgIbAwUL
CQgHAwUVCgkICwUWAwIBAAIeAQIXgBYhBDWxffV1JXfKDFQc65S/30SErRQvBQJg
X09MBQkSwTdQAAoJEJS/30SErRQvQHMP/iSjNefPreCu45vd3xpGgTvFNHphlKKr
dF/y9lSqmw4d638k/GivaGeDkywWMgiQ01C97X9QTFg62ekttT4v57eIeEqQ0G5C
StYwV6o8WONRU1aG7rlf5HVsx56eD/5wqR0blM9ohyhAT1FFIfQ1zRfODAFC80CR
Lqr60Jmvim8KMPe3jV1jekOYroEA4luchXIvopGxsqbPXYpYWPiCKyix5qmj1++v
EUxQQ5dbJ1WHbAorP9sZo281sJ1Tl/e31yJLV+B4YmJR1o0eHGgqAaOiWDiediGx
VLYfhM8CnX943DkbMRih651xdrMK3MRn6poNG4kPOG7vn+AfSh/a14KLkc+PFd8T
Vh6XrN2H63ByGahBVxXfTciVmVS4GDKmnetmy781U97tBM2UUFRKohyW31ebGGHO
TZ5ehxXJrWdwm5uDjOU7fRtkTqRrnWia0HySE5f2j8YJEXd4c0rIdNg7897oN10g
MOc6X+GIUFbXPy+7DfNdJ3EumXtuPkCTuRVknPMZU77tc/92fKzd4NLgvq/aWdKN
G/sVNp2o7jSeKJIg2sT5AeHIjSgKBRgIYNMyqlFLBTzA4Y8JFuISM3oWZWwW/ILV
8NPe2gTVyQkntkZhw3vj/0T2uPuX1rvHwZbwA/fJjL9j8u1mPi4MPiuJwMFjCAIo
OgpQYNTD8S+DwsGUBBMBCAA+AhsDBQsJCAcDBRUKCQgLBRYDAgEAAh4BAheAFiEE
NbF99XUld8oMVBzrlL/fRIStFC8FAl5hk9IFCRDDe9gACgkQlL/fRIStFC+Svg/7
B8YL/wvXqD9lJYuccW5wXZnjl3sgd6jg5f+fFIdBf1Wbty/3naMhrgwmTUKFi88l
gplT07bawj3tvq1dL1X36mc+xJ1ek7mxh1le25PBkYn9IhM1tUlOc5YWa4bTyoMe
aGVaZV7pn8FnGCwRRIXsAHnozG8B5czAksXExIIyMnJGrrHmTQAldKhSNyEEgR2F
22kHr9NgMaAGguA8jnDQeGf2wgWDdUAJknsr+GctBnBnDA4/i6gHTJ/UPnG1SXlx
PXwvvF0KPmF9USvxgFyBr7vJ7n2YnLRONsMmp3KgV/gux9//3LaxTGYajhj1a6Fs
cDvRIYCZKMXY1Z6rV3B+HSbxs/Lp1OAynu4m0mHU8NbtKPRm5m7DAlMPbbKEAleS
Btot4sSyno3yezsf1v1a7nFDiQbW+S6LKjBfbWtqMluSf1LLA+I4lPcBUb96VDxj
gaxn89mJEQ98ed61WuQG4pVEzyb6MZi1MnGfcVk+9OAglUa5lVzIYUTY0G0CBwt7
by/5vXPTWATLWsMOxDxgvnFuSJhaxVp2dBsduw9kRMbOaeKu53UKoI1tNSH6F7+G
vaHdr2OY0SJ3HlA6gQbj5O0drQXTNVebdpSfPTRR0gfbFL+kx+zYNzhlh12QKsB5
1JoHdZHNFWPuRpCwdG1Btw9lkIm+FM79iCPPDbifh9bCwZQEEwEIAD4CGwMFCwkI
BwMFFQoJCAsFFgMCAQACHgECF4AWIQQ1sX31dSV3ygxUHOuUv99EhK0ULwUCXj67
gQUJEoHXBwAKCRCUv99EhK0UL7u/D/9MoedJJP/p50i3gW7vArgXMy5tPvuXA8mK
Bz7nsdh3eCV/fls1SolgNkzUTMO+wpqzNvNnYXS85HWlllks7xzUK6Q5ylWZWpfC
Eg+cYIJf9KE6vSqQG0KU8UeFKxLza91eH2efpFgfbs/NY0LgjYn/9b4UvkJ2P1ij
SS/YFmIhGcVQvZix383PWZPXH+8HARF9bgvNyMPgGQpM4Wzbrt07LtgYjtUnwf/5
SG7wHnhHzXULhHdnjV+P9GL/+/DF39MYhildsQfJlje5dGqEY61GD7fEzFcecqGU
h+Yb7p5e7cG9oq+rrPzqITtJWiIj0EpymE9EzBQ4GFMq3uSozbLKqcZs27DpGMDD
gFwGe7l68lh77Z7VOFwdYDEvnf6a4PE0mzG3NHfktuOjUSCw4XF+YeHTb/e+7+1/
hByD4nbv95UwlqStengAErTPrRt08ztG2Iqr6xz8X2ycx6lvIi1kIHgc4JsDfnDI
LGU72cskVo+sgJXJa+c5gzj7U5fDvZjBS346NaD79PhWtjNDCd6C1Hoe044GxR7c
84WBteco47Y4ldUrqdYcRHtfFvd0mwD2eMFNSIJoypB5rRFGFnWLyt26M4nW/6VG
XU1SW8itUTHjQwVXlymjoWugbKsWTqCPTisMjMLuDtgW/zwoZTLtCLwLunmbw8NE
qmTM3x32tMLBlAQTAQgAPgIbAwULCQgHAwUVCgkICwUWAwIBAAIeAQIXgBYhBDWx
ffV1JXfKDFQc65S/30SErRQvBQJaDhtZBQkOUTbWAAoJEJS/30SErRQv3ZMP/0ZS
LW51bXyQg2R98QFHB6c7nFx5ZgZbEi+swlJWtAbEDPRH5DzjhBzSSik1qQNjhzBj
di4HSWp8txFhmH0dvbpX54I3V7MSCt17tOpX6YNLOq5WzvxH0ChJYCKkL+/m97wF
XW9QpxXYSrl0gIu2+zpT4KLveLEn5Z47RNvyxzUDnvwB+y/2ZZuYqAadIZZWcEIs
yr+ULGf33HEY6hIus5bThem49nmOBWT5On+cY898QR4EOT8IpFxFLhjQHirIg+Cl
VUSvddyt1/SUXhbPcrf5TUIux6259SayybfjBuslLFuwih5IhLM6zvid6DoOPQI/
iHArdR666h5ZN0GrXeoVNNofjQ19GSo3tK1f9STAv41f3+TsOcYyXDjNicbl6UbA
uBHX0cmDzeW256gXmBWdZjIAOXh/+Yqoict8isG9Sh5HHluURZ7geDJO1c4RgqYR
12f+KpXiOt8aKt5Jct075EX2tFon9WFLBn6wNgWvB2pCTIoMCnDlbUAJgLWiyBO+
ycX6H7fXIYi0by6OWuv7bF4rpF8fKtZR70/Jhnnk1tzXJUAuB2az9vvpCIH1mSo8
xVRw9DC+5CEc4TH32n0DsiJdJLtNfEYG/XHkd7su+GHpVLDsYlxOB9xuouYizUXj
k47QNWx8ZX2upGtenLGSZ6F7/hqdAVIhy2jDiPuGwsGUBBMBCAAnAhsDBQsJCAcD
BRUKCQgLBRYDAgEAAh4BAheABQJUsXbSBQkI9JJWACEJEJS/30SErRQvFiEENbF9
9XUld8oMVBzrlL/fRIStFC9rxg//UvI87VqyR+OLDfmkKCjddLAUsNg4lsKqf6am
DPlH1okbWwbRAuybPBzAFA32y6pWJiRlcuX93T5/cWgSC3T5gi5FZexs9KlyEfig
rfheSEqm+gSgiOQ1z2jfPbXfCKcU7E+NzXXTTH0fS27bCdwNMKoXm/t4ujlaCeny
b5qOoWeeGZb5ZTCJVKHu3RaDBaTm9PEHeHVnHXTO5lsXHabBmBK5Uz7VHfQfdUqO
S0YmO/RN2AuzYj2QMD8PnZE0O6TN2Me2fl3r/H6s0BvqMp/qjlTHGJ+YiGUnE191
JrhILAH7vZEh6vLkn4s91oTVPv/1vrid57PuC7e193kG949eqBXlHSjW6JUo4I97
5I6pHJCWGrSbRsaWsfEYByK08tBrQXkkAR3IBSQbIRLk0/RF2gHz3PG+4BSOZHqc
J+cwfPOkUtgw9jYaV49nTRP3TqzZPNMA7Dq3zbZmfMiXCEX/0R27v9XI0S6HUCSN
0XnpPf5gKhs84lyMQ2/ige8D2F9NbsNDFu0/AKgoPoMp+BNcHBrTcsqm+wpvHIlf
vtxRHId1yByvKpDu/pIi2ixZfv8XZAXPpvrgURWPbWaN1JAJOdceHUy7qwUfe92q
Xv0ao0o3fxHREWM1Bh49j4UKUOl4odp12TDdlcekaH8kLFCcZ5N+RuG72gaem6gf
VVM+PDvCwZQEEwEIACcFAlFggP0CGwMFCQWjmoAFCwkIBwMFFQoJCAsFFgMCAQAC
HgECF4AAIQkQlL/fRIStFC8WIQQ1sX31dSV3ygxUHOuUv99EhK0ULzCPD/9fKMTg
HT9/nPkJHuttm2C939SiK+As4ezuCpwkAsdfPUsLItFxGRIjF1Nx+Wb29p7AEzVX
soByxM0Vcv7OscgNouGMURuSCD2dmTzNrEKPBtKuVW0hGyM7YablOjYME9qsyijl
TCvrCGlJJspclfDHQpGcVXKkDQYRH/hKZ+f9otIn+jbWn7wOKbar2ltAnC6XFqqp
/ZCvr2PRis81PbgJFtfwg17f5GwIPaUPxbQ9Y7tzpi6Jt/pfL9wIAlGFg24XNx90
gba2HPLWfn57EBwn5SmX1NEVR/hnMP9BAYJGXP6mhE5YP0OhlL2VYCBTfIKLbyi0
risXJ2N1ngMGB131u381qh3wnKnaWO1CckUbXJEGe8MNrKkTKAVXCbfqLYqV03Np
VeujS6p0MQxVEki8J/wFDgbfSx8R//ftAUyT9Gz545kbJe4X97dOpXBt3xkCGdrw
7bC+mUP9a1bYmW1t1F4w4JsP6105kLM74qvixx2S5QyLOvtJ+y8KkUiggPp4gW7M
AReh7GGIYaM7m9beth5VFzhfUOMcE7IpF0G8Yrts1nO1pckm7aqmEqwjVT3KwtQq
aXodsC/phQ7ZaqGFE0VdHji+q9gX1/hefEoT23XidVDRZ/ThZAcQZ+dYyolKd9rV
FRxU26h82eCoL6duqiGxroqXq2vJzc3Uc7n4t800QW5kcmVhcyBLLiBIdWV0dGVs
IChhdCB3b3JrKSA8YW5kcmVhcy5odWV0dGVsQHVyLmRlPsLBlAQTAQoAPgIbAwUL
CQgHAwUVCgkICwUWAwIBAAIeAQIXgBYhBDWxffV1JXfKDFQc65S/30SErRQvBQJn
qn1DBQkaDGU5AAoJEJS/30SErRQv1DsP/0OmANVJ/6ecduHGnEfuJTEvg7fR1kyT
g7QyjGT0meljmyVTAjK/+Jntu+yTEf0ISc3cfnsg6GrpLR0UhgI6OL8yue40rjvr
2wWunafUPBMUaw2TNpf66kP2UWjZVSrdEPxnlPF+VxCsHDi82YBkJr26jh4gyHxX
NBZRJexHLM0whxILLDlFDNKm8wgNEHWICzHWReZ9ulUrfQCveNzVA/O7/k6qJHRf
bKSRGX1l5OOZDYqFG8DUpiId4zC2qitUjlvjzhPUDqcIhxQDsxb54SOgzANi9Z1a
/Ap1G64GNVKn3y+awMtMYrSdQADQlpXT0IEhmmUIbV8elFoizk+yFlu/WQ9ej7o6
+smW12i1S5ttHOtU6gBUXpnFTYo5YfroAZ42IRLAIqI0Q7kORbROmZyyTMZYCgpn
jEE27fV4AmEyAF6udqmq/kqFm0CBWpVxl5n3AocpVYANR8Jb7/r5wW8uJXtaSMFt
qOgvjWUAL1wHj7vNkRFdlxX7OYzayzvoPmhx4c+sS1pZMzV7Z2Hv/alg2gg7fjjZ
CXLeBkoG4DbYkVS/HrNB4DBIJOrApntpGDAyXZww83vTk+JS+POSWR9qxtOptSXY
h+7h9fYPDVHV2th2iQ8j075UkLWDpUirQNkO30VAexXiyuXHTDx4wyihPMJZCZJx
3dh0X9SGQp77wsGUBBMBCgA+AhsDBQsJCAcDBRUKCQgLBRYDAgEAAh4BAheAFiEE
NbF99XUld8oMVBzrlL/fRIStFC8FAmYRkoMFCRhzeosACgkQlL/fRIStFC8kbA//
QpN4t045cyNmcmaObIZKCCHNvMSlx+f/9fwbB7sDWHTxFk8G3Ci2xUdL78v8sN68
gQ5brqsDB+HBhiMaYCmUVr3rcQIIPbnqWBw68fcOO8levLf191Zy7tE9oPUPveI5
RVXOhQyNWzVOyKttvoMQfL+tL7P3P9B+eHkRcqXYYzHeKAWhqUXuLWFzepKl/Qn5
Yys0Lxwbm82Kj5Sg8MEOdN2O0deDFnswxPPg/91ZA7g1QXFK7FmtzNzQUMiEvMe2
IRD+kFnTKwbqzhx3lfTNd+0OSbxs6q9S4YpoVuhi0P2QslSto+p6gejUluoXUz27
ZnEnAhOSx/v2QAgfqm35gZt8PfZ2RBMhaRMTyLMmmCqaw+BfyrbA3iKFPNgZBRBc
Pd+V1rjypajCBTkzcVYnVAQvsK3tQIonuDeNQkltrCwjJc+rAGw1njGqiP44WCsV
eIm8ZgN22rQite6b0Csdl9qbTzutpLyS4h5Wc0xqx/P5BAu6ndwFmOcUAD9DcwGz
cTiUJKeilZlBVdpZiYzfO0M3W4gTNriHFwAV0au5Y5a4n9yfXPT6GoCvTnXvngQf
m9y8ktYj0d2Xi8uA25Yyo5NWadcVpc9Ih96jo+cPfbKHdqZNa0ZCWxmKjkX7uh4p
8nc/z5ySI7ZOYbeirsKiTcbfQ13Oqna6EQrtcthMBkXCwZQEEwEKAD4CGwMFCwkI
BwMFFQoJCAsFFgMCAQACHgECF4AWIQQ1sX31dSV3ygxUHOuUv99EhK0ULwUCYxzc
ogUJFX7EnwAKCRCUv99EhK0UL1FZD/4xyxCNybkGrXniO7NQv3/CfJTpTA0tDEeR
ZKbd4n0myDbk8rbBUiy4vRjD8TAkzfF2rj5v9YvlJo4sTlURKWhjzIBiD/LNzhwI
gKFHnzJPvSYSDFMssmNtGH3UDWIKQMVK2kERx5f49073w+EDBxYTzAbYm7QkXDiu
nuCkdIkV9r+FZIObclHZGW5xC8Sv4J/HavH67GRa7TYkmHD9sPm/wToJhNt4YrUs
BAbJ8jmFMplPCQBWsgpc3GZPq1e3ZoGLmSRMy4jMc5X0rNWQjpaZsoms7XbSI3fb
fGHq4uqg/eIjvcu0g3bkTAp9/GedHmYTqD4AdpbHV79EzyhTkXL3h0orOw0cg5C3
55tPA5s5M1u8YghEuWKNGhm11MQFRZjXTuMkI6bcbTlWnrLr8U0aiRGhy6PMW/fq
S24bF//xXZd11Hte3OjMzYiuZH8IyYP4rHJGTrdCqkFf3UV7Do6ulV/Mzvu9ozyB
TIHXmqNqoqzTNKSR5aM3x6kw/yehc0gyk+w/Ef20dE6LE0aDbXTMvgO5QQeTRmKY
DmvyX0TD69ug1B6VVucPjl5oVln5RcY0QkbYKqAj2atNQEql1dnbfxeNWvuTepqn
+L/nT3wc+Rgcynd/+vHJit4KCG67mKla+oKbCoDqYsGHibVYqpbX8z8T/hJmBGKK
zI5iF2TD8cLBlAQTAQoAPgIbAwULCQgHAwUVCgkICwUWAwIBAAIeAQIXgBYhBDWx
ffV1JXfKDFQc65S/30SErRQvBQJiLnyvBQkUkGSuAAoJEJS/30SErRQv7qEP+wT/
De1+Fzr5lpOFLkApfAUlQbkzYAXhLOhTZjxL8e5yW7oIHsmTj6+RM/MN9LOeuuzg
OUvZtBkMvmUw9mP4Mdlh5NxyTdeQKJidC775pHljH653swMm/X+qfgSuSaKWFYjl
naSYg4SS7DQXZ2m68iOw3FZQ5FndeCL8aTtwbIJD8TlAWc3GGzmYUlGEyLXBI12o
63/M+J8XcRr4emSGHksL6ZwYqcoDFPalA/zJ8efnTp0nHHAxXZdHrA/TJnnoVtIq
uThjuDgUOZv2Xsbh0jy96SwTLy/nOCcn4Uw9omT6SRB0K+/H28wWJlhHwhBn7HxW
H8rzH/SosfnOcqnO1enOJ5tlnq+RcpwjBhjqI8797ZxQnSaajVGLErTfKAyX102X
dS+2Q6OwSYaVi8bADkXtumM6VKV2kfHGRbmGB4urDba3AxM354J4GDecB96KQQjK
IDZimsjSSN4pcxjieaSMrvPbDb37ZPhTDn/ZvgcqR2NqF+5tMLTwBfoGBmDuB94+
vvidVo2uBcWs+20JXWm8tY6igIQkmM02KwwOgppo/xRm9DXuhBp2ORLsZYZBUYSq
FNNcXbqZLKnGEkP7CRiwxgbvQ0O2kuWSw+aiTAIGkrToXDrmUrHlBOdPhoLL4VQ0
nZ5wQfnx5rP/hrZYe7LCleSIRFb/V7I4fSfq5IW0wsGUBBMBCgA+AhsDBQsJCAcD
BRUKCQgLBRYDAgEAAh4BAheAFiEENbF99XUld8oMVBzrlL/fRIStFC8FAmBfT0gF
CRLBN1AACgkQlL/fRIStFC8Skw/7BAhp6VRpZmWpwI9MexuVL6OJIKJ2Hff5T2Ec
gaDfkKt6I+sampvKBZg9inSRAIVmXYf2l2D22DCjLbJ+zGIAGgrvI5h2xUQJGZdx
cyqnFc9SoOQjo26NZuVUNBMiTyyGkIm94QTkm3h80L5wNSdE6mu4yvCSJRh/H1O4
GmUxW6N1I/FvCFz73E7J7R195n2A3zAIafmbY38FRWMPcsVdGlKTBvh3Dkzn9u5L
Jb3eJhSC27R9x1dFky7Hc3mnnAvgknt6cCKL4USgt8pxXkUrG5R+Dr/UOKuLc2y1
rX14Fq8g16Ny6MAEsxLCecq5D7ZClFmNCRWIZfJWdOso291QE3jifo8kaNHG43lX
F9fOWjBhEQW8hGe5VJqV17ginwJJjknlLTk/Ti6YiE75fasucjrBOMzvKVSXsjzJ
kD/9sBmH39yGuuM234M8f2d14i5z0UYs0FkD2g9XNO2jKRE1k7UPEmBEBdabSTGS
wYhH958eI6C3ZXsPyzZYe+PB2+kKSJvXWUkpPreb4xCf4RTIZYsqw7bKnxyL1wa/
iFFinRbNWu9GN0hvQNv0fS23j1orBaxbZ/anjLYkZKy3+Ts8gHzqdbudhxIuRfZD
zzGiU8l1wkmIu/Q32HJNYkZ9lrcv4WColcdh56IJ2dO12/aq0P2sJdS1hSe8tNvw
rK3kqTnCwZQEEwEIAD4CGwMFCwkIBwMFFQoJCAsFFgMCAQACHgECF4AWIQQ1sX31
dSV3ygxUHOuUv99EhK0ULwUCXmGT0gUJEMN72AAKCRCUv99EhK0UL1yTD/wP6EeW
gpadF4njXsdjB4jxDuqHxPVgbu70OWaqJoEHN+doM097ySEb7e9JqmdaPYYnRUNX
h44IkkqbNDKyTACY4nsb83ivw4eTjbNa9XXuD/W8Zo5QLduj18Y4FLlR6Cqzo/KT
MNlRnN8FlAz1pnNXS8l8XIJ+RWuxIuVTCRH3ZYl7FVbGYFRVlzTdnI8cDwvcqKKx
Psq31xZLAKKdrayLoSzqnwGOBs+4it9GWQarnivDl33joLz6pPRqOakA37YWvATU
SBjCyKXSaBCgWc/TIgiquSX7kW3ZepVMkyq5Nir5OsMgA/RR0ZAK68WGUShAW4rd
MacSH5rCJ4PonDUHpozT6CldL6TjisUh+nPR6EsNhqeG0E3NtYpSAynwz5xd+Soq
BwiEb7oQG5f1UAJUYk/cWwUB7OZQx6XjjQihgZTNpqeXrMOZXVJa7mBClIVZYUOq
HH5USPoVMzhecDS4A+PyCHLcHhiOPsSgjiXt64HyGjqF/wFZDOSDqx3nJAi3wekB
Unrf7C5x5yq2A6+oYwAV/F8Q+8x24AdVumaIWxS1Mj9PUUo0RMHOAC4W/VJQkaD8
/LJzzexuUxGnX/Rf7QDUSF/7q19wbssBqEgWtaz9bciykubtDelmMDCHcvCpYIGA
CbxjlL+cm4il00DnIjHsGiobod7vWoem+HD4jsLBlAQTAQgAPgIbAwULCQgHAwUV
CgkICwUWAwIBAAIeAQIXgBYhBDWxffV1JXfKDFQc65S/30SErRQvBQJePruBBQkS
gdcHAAoJEJS/30SErRQvt7gP/jzA2wA83kAIEI2tCEUcQFVdnj19tggLy5wiMLS7
l1CnN37qKK3glvFESJcAJa0xX4D0rpJMxEdtw3QvpSeS+NnZMIXs9GrnxIBj9DwL
M5671LxEeNWa2kBGDEDBSGopaXqWFKXNWCbygQSfhgEQcI1i2xEO9gX8bpfA+3xR
KpKr4v3XlwVetA3mRXduQcwuAPX+WTdzin5Ny90gqWU5SMjkCil8a3w/ef9H/wjI
xhAYaXrKzqMy1fDE+uPHzibuyDpmjFRCJtajvPy2d2OGdJFaw8WtjHVOjV85JYa/
igS2d+Vc5vLYrCVm55/XqQM2+tudb9suaIxCiDecfgsHqMu2fA/TV8I6pKCH0zI2
acB2MyPGCr6OFyoG1ZBzbQjADnEuC3L7Jkndk/8uGiDzpr2d68dY5yG6ke1QD/ON
E0vhOJtPfTl/78VRMXBcixfMVzR+ZBqU/PEvStb6VqxDVcEL8OCekDiXR55a3ARd
aHiAFr5tOHfIsegCCBNMQ2QX2levfexbZaXL9R6knjpqvdy+SRqQ9hOVSfftxixr
fKZ0RvPHXz4MTPIzOX7bparbdTV1XoM2MlH0fnZ+7ug0R8e1Tc4QlwWVi2v/E2Gt
XnMBifoTKVeeZtxyqthTBFx13qRhNIGy6EX/A7VESg9hKC7gC+PUNZGuUja6e3eX
FZ1FwsGUBBMBCAA+AhsDBQsJCAcDBRUKCQgLBRYDAgEAAh4BAheAFiEENbF99XUl
d8oMVBzrlL/fRIStFC8FAloOG1kFCQ5RNtYACgkQlL/fRIStFC8EWw/6A/dCmOj/
sN8AXTQYHskujAk5PN+Jfh+Nr+5gDHsicsNMEBq6g3x4ugswaSphLoIzubcvHW2w
QhNSyqexM3Qsmgy6D+T/P7vrfNzD2dq4VuWExIAzE/gejaBt7Cc1kfLDSgbW5ZqB
upv09krW5iGPzcqWJV2uOReXpCFjSBz4lDFwplPJ+3LNq2Tnd4Hw4RlzXQxW1HIK
ofXoWK5zB1Joggs/HIvvLj+9htacyPq/mF9Y8WvysvIwxrfg5AkD/Qx/IrwRG8cp
MWArTDFV0nSyDxwd9Q1hj5rKJA4ogAth6uCtXQDfCBzON+IKNLDT1bs/xAfKdVb0
X/LQ/jPg0CMw07rNJYdCK0PspN7DFgQSlROQTJ+67QaNiRk62hc9PQsvPM4feo6G
BQU7PH4l0UydRA1FsBXxdm55Ijvo3T4q/3rW1iLHhP+3BISTvcvNitLOXwx2YUDM
zwjNrEl9RmYi4fO0t7jqzgXtljp8Y539aoR+BQuvhigVPXYCeIa41ZxxEnK2YJX4
YL+d/oaqb4SHinwJpDk/I3FfMvhb4qfKO0thH1+jsjELiJyxtQ1NS8REJ/uZT6k7
oRUPK6PsvwS/Ur0fZPkW6SycLTAEZ6wI17kW/B4wB0LHr+eCX/UzrAvEYdXOVyBz
eBbldk9Nyd7ZExUVnNYuG/0TFVDpXewUmXHCwZQEEwEIACcCGwMFCwkIBwMFFQoJ
CAsFFgMCAQACHgECF4AFAlSxdtIFCQj0klYAIQkQlL/fRIStFC8WIQQ1sX31dSV3
ygxUHOuUv99EhK0ULzPAD/48hucIXzYXn+hznIyPQ9CUOSAiI/w8FTUuYg28j0O9
UJpsDRdGQGWQDYZfqE23qSpjgNml6tC6hrcCIzUEzx4iR+3wNmF70I7+g08/Mmff
tk9zlpE3iESBYJvhbfV3G0dK6tKSFFcVI3TEUo8HafhjQ9WMKFE3UbW6xr+tNHUE
iCvLHGeWwcJLTsUMe9/0JYPqwlk71i9+y6RNO1j1GgRxNy9qCqAYGhkzh4APMlE1
D7W1lrxnKBPuBzQXAmapk9swsSDjv0dFcgmQR9y44BZpXuGtgyDzSUOfic0kRa3g
pJ2HpzfoCubOJEsHvx1pL28i8q6L9S9mjuL6KGjCElmJFZtSohJG20Bf/4okIzik
mgHQgfvqwNpuRS1PyVH9TuIOgFsmtzkRWzlObPLDgimWj6oT+0rzmPbPmwuqW2GD
npoDm+7KaegUqwcjf34ktAzXwxgwjd8AXncbbn9xXAm0fnxyBXPPToG8EZ3hhd+i
6cT0cGbxMONGO2rUA/+/UzA36OTEll7bCTy6tm8AgY2kpGCE6EWMPpZNTrFr7urB
pjz881vwOps1gjk8ukjE/2GXMLXU2UeiWYTIwHQvR0A470UqrF6vTbde/FT9oJzg
EiFdnZDviGvpyfO7dirJ74Hab3OrLYhZAAIr3oN6oIHW2ePRP84VSVdJLYd00PUG
xsLBlAQTAQgAJwUCUWCApAIbAwUJBaOagAULCQgHAwUVCgkICwUWAwIBAAIeAQIX
gAAhCRCUv99EhK0ULxYhBDWxffV1JXfKDFQc65S/30SErRQvGkIP/2Kyrdn3b1T3
MYkJ71bvQsjdqwnoLS4ovgm3pSLIFHH8CV3NyGaa/Aam0RvWqPRFyTAAluVq1+c7
xZO7UPsmBq5lmwYL9DGBcrlK2WnrZyoVeC7Yh86Xx62j/J/RYb7gI5SKDlUnjYX0
k16csbisNaq4chZSJpK3o1wpgweJIxKEFSkDCoo5hYgGe668Q1zBA8iT7FGU/nkz
GmzbBqz+009MO/kYxEeHaciXDunz+KTexJ3mfbkct7TpQ0uUeeto/ESVoT84+lMQ
0FsiOPi21V+3+VJawf7vgydlwHzfceyv0zXRcegsqigluDZm4DhBVJrhjlAj3kty
JOLfbFQWEJ5BP2Eu/HujCyQGGana9RbdSWFrRQ9Ns8jyel9jW+n5O57EswV40WZd
V/vzv7mmAQpEe/ofLUCCiRwKd5nxeAa+ZEbNHksaGDCmxcacLTbHN/s5Cxh0gqSY
HgADIyysl6GDPbVBS1Vt3OXhJo5heFkgRZ1GEIjkVNxHf2SuT0z/nqxVYZA5ahm+
mBF/oZlVqLWBgMsvIwO/mlskKXKgKGzPGKRFG4kzoLv3fweqnAQ3O44PwRLliEDe
J953I2lpRRjS1nfAexSTrdjy9r5aeUkpJ9ms5N+3IpYClFs2t0xWkqLvwChMesih
AgDI8wPuJ0iaKWdUcaoNOgk4wEzj747QzTNBbmRyZWFzIEsuIEh1ZXR0ZWwgKGF0
IHdvcmspIDxkaWxmcmlkZ2VAZ2VudG9vLm9yZz7CwZQEEwEKAD4CGwMFCwkIBwMF
FQoJCAsFFgMCAQACHgECF4AWIQQ1sX31dSV3ygxUHOuUv99EhK0ULwUCZ6p9TQUJ
GgxlOQAKCRCUv99EhK0UL0MBEACS3tfHgeTMf+rBKiL3HWkEQl/t6JUb5lS9FzMu
gdeRwZXPzOezWOINSTiAduT841NMkoxv+coMtOxTVL3JY0ik2p5sRNTma9wQCou4
NEudkYqzmwZ3i8xIL2CZAt39xNpbD/v/Qt19COxCaD7hXVzA6HgYu+N+mawYQjTQ
3daRzKhWRUymoOjvFeV7IcowJqoOvdmKeX/KiAi+FXd0uI9Z0ypt+z9r9G6oUTT7
9z3WbFq8TI/nsr8X/86XPwxjoe2uGEmhVU4EdOsW47R/oouOcoThX6wPxhsILxwe
Uh+7UIbvdOBk4Qrg1lSfmaKBexcDKuoPjq5HxSGAK04EmPNOJ1ea88xbLq2r9QhJ
LCRsoOTSwyuhJggZckiEJ1xutir9JYWFgvd5FlrPFrnLSBxv7cjtS9DCZNwBlBKi
DAQczd+/GTroRvJ9myml58jkXjLO+RgT3e0iWytDzehUEGJz82YK+PfKltzrPBqX
cbrllwB4HPzYobLpr/XExiBAAbpbPcvTD0x0+ON+PdPO5/bQ3967EE2iLOxpOXPg
xdaKKHdc/SpqTGK0OsKMes7qOXuD1zKna//PkgnBTKW1KV/SqwZI0KMRwdwvWhTb
6GdWXDhDVo1YslKdne6jOjviKLvIqJFkTXa053gYrzG1Nu9XnIuGxSTj+DGmEdX2
+rMdfMLBlAQTAQoAPgIbAwULCQgHAwUVCgkICwUWAwIBAAIeAQIXgBYhBDWxffV1
JXfKDFQc65S/30SErRQvBQJmEZKMBQkYc3qLAAoJEJS/30SErRQvF0QP/0lu8FAj
wmQQ3VwxLIsFcVjMmMs3C9mNFK50Kt8tbqZnIDu2/WlPnR/6mbjv4OQjbearKFXq
VMFPGELe2WdtJ4utisJH4xqjjD5IHy56fYHRO4Jq26XSkaVYEpmYt3T0MhVnP8gI
CfY/pSCxkBSQtG+9dMZURBF6qCfp5fMSH5N2XN8nKg8hoSBhMk4PX5X+LuFE8zkq
cFL31SBwA2JP5J3fvvmsZnXDw2y+JUiOwqZB2msdC+32caTgNis1axX9O8FqMLeu
CHm1ehP/kUXaXMvqlt22Hhf1CAraiyg4tURyHHectleH43mmyC7nintIIWGBZM4K
WvXv9RpHUj1t4d6gxdqLVekZmo8Gy9wJiUF1BdfRJaWaKOBXrepvSbBBe0Hv9nh7
MWCarxYCtC0oktxz/eSWgMvME23HQX3+UCmzSntughCZIFbKEQBZvmzgPkw1D0cq
PhBG/dwkHZrll0km8dWzHoYKD4ZNwkdaPDakDwRaP4XJEiFv4J5riL+1NBtBM7B0
AUVjQayumk5/oceZZ+Pdi9hwi1A7NHvyST3wQEd1yleTlSEwAypauALm7SKg0j/R
sMBHHjDkYLhgLae+wHSffKrDuW+ZHNzkcoIXh82MOPiROR051wd8t9HPpZVJM7do
1BKa0b7+bgDarK5HPrfNY715r9p3MlPhveeXwsGUBBMBCgA+AhsDBQsJCAcDBRUK
CQgLBRYDAgEAAh4BAheAFiEENbF99XUld8oMVBzrlL/fRIStFC8FAmMc3KoFCRV+
xJ8ACgkQlL/fRIStFC9/Ug//T3XlahJBuZInEnnsTXHizIwKmgkCfBFtsKnSRzFF
NOA/oy+M2zW+s8xh7bOplPosMNynt8iQiy5P9rSNSycIP6Soo9v7AFn2126aSt/0
V81hGZOCrVktPePebJCaoigspuKeeDdKX33wwIJzJ4Xi7TzGDMm4/Yyndwd2hSJi
asgnXkuKeRQ6hMfu0MUfxYT8DbLaO5aizQ51klYN3a93PzZj2dgk+OCUmQ5YevpB
+eBYJHfnDnamdtaZQdCCgUUDI2+YrNvZ5dtrsjJYFCIyC+gHkIr1LxXm7UB/R2Vi
KHjuxKrHzXx4mpugVoTUAuqN9qcTnGlHYWFUxAtEmKrbVx1rS3r7igNxK0A42had
3FFAIHOYVtHM4EYUyA55mxlt8JYCAsig+CL4cxJKefazylkdODuNgxM2FJtjxPoD
jKOKwCImLNr9VjftPTf3hTfripcf4mJCaQakhqaZ326uU1A2k36GYOYuMPoCfjET
N+APz17iaim9cSo3KB+/OwJwVoNwbqdEOEMV1O+4V6a+kUSnEIXrsaJTYewWhCT3
thkBXXj0yJ3FaTroRFa4DGyUcG8IQovXyFIXGa0iip6BXMumO0RrsolYN8S2fKoj
dCd/PBPwBVhC9hAQjBPW4UVMNsHBByVcSbT134/GtZzZUt5Elz61E73mcacdGAXR
R3DCwZQEEwEKAD4CGwMFCwkIBwMFFQoJCAsFFgMCAQACHgECF4AWIQQ1sX31dSV3
ygxUHOuUv99EhK0ULwUCYi58uAUJFJBkrgAKCRCUv99EhK0UL8OvD/9W7CTngO5T
zEc9djZ4RmnNGK6YJBN2sl/LQ345/MBQ8G0GzaUQfEnOPxDU5xQJorHXCzQA2PLc
7APEiyhPE6QiucK0lGexQ11qhKNtScNBSnSdpfW6+kgXWzyUf5APl3LLIJ1BlHt/
1VbG4vpUf5gbkTODd/eVJc4re+cwHpfkgeMFbSCy4eFXFkX4zFyyM1y+jPcuPJMR
k7LQlvnN7sgiuZOOllWbDxjIj9/npnk2LSAQfm3ymUNXXtWDrF8HBnbVFAtkB3Nb
sJ5XgzBnMsJkNudpaZttHllC97gdG0yhXNpzupbNyar+oNUSaGdVJQNzml5U04N+
vOBl4E80+XMghsKurDy1uCHfReSSxRS5Xb+P+D/lVHfJWJYLW041zrLNxYhnOuto
MgsNQwFmsSp33t40wD7z8R3hGNS7PJZ0vYVSeFgsDoQbWKAjbi39RXwDGfO8na18
+lTwX137hORXqy7PFE1Db6ZgtortHe8HRDnxGa/ZEdF6r/5PQ43jFvPCded4qoKg
oq4lDdChUUkVKuKwlB3PGj3R2g6epIY88nQ59zcuEihsf6tiU/8xrEEkFObbGC4B
DtKeEQNRBVcdLhSVxjcifBb12VQDFSsgGK4CI05F47hzLcHRs7d0ICm5w8cPOZeP
Iv5YivvMCSgeJtx37z6u66igWlAUBJKwGcLBlAQTAQoAPgIbAwULCQgHAwUVCgkI
CwUWAwIBAAIeAQIXgBYhBDWxffV1JXfKDFQc65S/30SErRQvBQJgX09RBQkSwTdQ
AAoJEJS/30SErRQvVGUP/1lphfXeFoTdBftT5JQHE5/zJhAhGaWQD3oTDO+JrNK3
V+5wbclRnO1G4sd0FoefoRhhhkVzv5/JmYSpgURxn4IboMO4AfMwtKRFioOkAUtu
bbka5rvGFEhpR7JoV8I3FXu28MZ7R+CzA56L0t2nerxXB00Wu1Nxk7hRpfqqQZWG
/ia9zZ/eHcI2VtF3FCPqCJ0VVMUzOm/DWDzJufl8hMUMSPaUVUXYCeGwzriYR34w
Pr2ce6CH9xUebEa8ELjbZglYTFVkoYfNrpJzHCjpgnnmsk2+dLGVrmzUBXATrUbn
pcqFiKNSjJAFp1gDdbjJip0fe6Up5lMaC/CZI41QXsO/9lGWn6ge9UQJR1PHKtfP
IzNJUQFbPrqz22k1DluWAVCnQggt1Rt+WQQRECOcs8CAwlSCDwFOzs3faob+OLfj
s/wPOqnREngUWhqGt4RztXpg8l5Ffi9CkIVHt28JdG7cLempffT99Xvt+xciBEDX
s6uc+nQX8Rm5Tz01jRO0G2ZM1tkyhEZ3GPcu0SFJbhrVjyK8Xt/e13xFOBdLjk6f
RrrHx8EBhrLuhNRdeWsm1sSUj7D4n7kVjpXajdIqoGLwW9m95KWzjGaiJtlFB/gz
Bog/k66DF1+Pxn6j05Lpi6TfzNL9aGgmomYkTy8TGSE4ANRXDJ8fd20tJKTepTWf
wsGUBBMBCAA+AhsDBQsJCAcDBRUKCQgLBRYDAgEAAh4BAheAFiEENbF99XUld8oM
VBzrlL/fRIStFC8FAl5hk9IFCRDDe9gACgkQlL/fRIStFC+2xA//Wrz6HWZKftoD
zww+IC5zGGfB3HNdSHv1h0R4Bjzje2UStNG0hp8ZUl5OhverNPuxR6h9Jm9lGtlC
ecenjmZQLwVGAtN+rAkS6M/eb0R/NoazNzfPz854m8+vk831VUtP1ln6OyMSZVOP
wbD4LXiY0fAMgA37+AgVZdycGeQH1ZbAjGbkeHAD8j+t/X5sP3FTpNPrzMkJ0Qcx
44nJRwsncQZpq3HEUM3eTOQOEq51VcgcSraVPabR4Ojo+Q/bu/FiXmsLmFSNyDNs
a6HBhnb9uif89cbEEwKMKnbqzYdTvQxKh0ljytmBHKuHN34J9+vXmVo9BrJDR8jB
fzBvjNKcxzpi7oe5HaTiHZU7rCi8xviJHaJgg6gRCaIlCTGMmZvbUixQE6yrymow
O+mBSjJCQZZ1kx5YnNnSbh5eCxI/NdEDfjhQGCRG9dHkIBZUvmDXBTVaDWvMj5ix
+aLdUun9g41uDt678IjQdYCrv7Rp7BW/WI/o56C3b3j9wyGNx1bOHrwR0dapOGcZ
TWTf1v+RFZetJhxvHY6mY4OmClppe9kb8cfNxMa9CS/jI+e/TEBF24CnwphHt/3+
hfFBQ0hSwKit3TUYdpLrh6UVZLy/59tiIJEAfbXMJa+5byc9FHMfXOmh+3YkKP5c
Dg904nWVqJGCuvETfnQ/N6ZTdQK3MTXCwZQEEwEIAD4CGwMFCwkIBwMFFQoJCAsF
FgMCAQACHgECF4AWIQQ1sX31dSV3ygxUHOuUv99EhK0ULwUCXj67gQUJEoHXBwAK
CRCUv99EhK0UL9i4D/9hOBa0ZGCiOBhzJyYpNHDSUKxWId+7L3gpMKl+KpC6E8Sp
XbjKdIqFC0U0+GO2SKIflwV6INnXpdDKnrXErBWDcH9duAsgxkivgb7Muxpd+RZ5
GeDnsS49AXx40Z6Jfg/5x1WOM1ELe5oNE0YoqOUeEGUJSkYhw3Idls2JlPj436W5
ItHP/3D++GTuQhpfU8CUNROWPYRmi1mz33Gnr7Err3k9Ko1D2s7vwk6y44n3eZXC
3IM4cCtPBU617YNx3ORj3UDx5GqyxIdZkYSTlWs4NJ1THpY5e7fn1fSrrJZX+IfQ
NOduouPlOAVGN7/oDNdmEnyPYCDGcPg461IF8YLG+456V545jw83utdTopCt+Gwn
sc3Vgts1u+017fSFWEUmgC9wvjwdj0Ay4urE3i/ZHfdKG1AF0ABW3ocAmRcMar1M
IKGL3+ZmVGZlmORcfVSehA5o5xJLppw8SauecVDuGsEpRMQ2RqQhKwJQIJvPrQoV
FUdhnwXbDvscOpTFwGTY8jJ1IIvaOYWmICv1UjR9S6IyWWyrwlhc0g961UEY6+Q5
CAhiKyavLWlGWt+iyhQ27a6nEmECHH8vVb9ju5aq3/3+Ha2CVqZT5+8hnM2m/5vW
QaSssdZdFCXrBwPlnjtG15ryvuvF019kkVDaSJ8fmqShePBD24aYv3kHS+Cah8LB
lAQTAQgAPgIbAwULCQgHAwUVCgkICwUWAwIBAAIeAQIXgBYhBDWxffV1JXfKDFQc
65S/30SErRQvBQJaDhtaBQkOUTbWAAoJEJS/30SErRQvAFoP/iCMeGhTUB8KLVEz
99qDnSSLLiaLl/AJmRCIop9K2T2L5HzXCHa8YI5mbhEq4yPVBjEOPMBror/eDrm0
XDHvIPAZ8yRn6dxPAFTQiU67bv65/+9bwI6Qmc7j9UASLp2fpkL4b29hvfEewRcB
LXO6mvtkG/hGAsN6o0toSLpSXq2MXxnuR2WHd/nJz8aZy7++ilA4sPS5/dILGbVw
yaYbXX6C/G80psdRXW6Dm3bRAv3WEGDbe0widh9g6BEhZs/6SYbmxEr16erXCIS+
2mQ/GQZpugm5IWM7s8+cI68Ct0GDE+fCRTImDMgXz/Jc6pmr27gshYH3pwMtkcae
3YIFs2QnCeo7lvHvGUgaXcys1WI+h+qCfveQ5qVPZEiU0RgQCjaGGlH2/BpHCo6M
toiaSb073jc3E8XlCaElOM+cNP3uX9UV7BHmu1ShN42d2/MWtLc7fKuOacpiPVLj
3xU1XADrfBto9VJb+KUif02m8iZz63Y/rNYkNY9O4GFBgGJPDqaFDcUnAGgyAF7+
85B08xSBjGV+BZTQChmw3JtyfwD2Fk1qzOvyTKRaViGVArMOVlR8F61dwYva4K5p
d7XZkyMcIZdSCvf3rsiDuc5d5jqF94wS7qjABk3Foj3O1wBV5Tel2r1EKxqpkYHH
/1xHAzKuEbbfwlfhenyb9K9TvEszwsGUBBMBCAAnAhsDBQsJCAcDBRUKCQgLBRYD
AgEAAh4BAheABQJUsXbSBQkI9JJWACEJEJS/30SErRQvFiEENbF99XUld8oMVBzr
lL/fRIStFC+nCw/+NOWxHBswDFLG0ZJ6v5ztLY3BZkksv/4ERTkvi/O6WJD8uAk8
rgCSAj3A+f9R9zGxEIk4TYIyBxxoz+tZ2pScyI/potXEH6fILd00lfZNXxMtm/nW
otGg8Ao1+cIQcFEltawAjhrqnJb6lJ6Q6xE0IC2sM3ZHUA3iVVrUMsz0WT6dIZvO
nA5AeMLtgrBqtapakVl1LW3K9H4t+HiKIHY5sIMbXgPxOrT2h0stHq9Ig1KsbkMm
tw9QdrGRl1K41EMHJiQNb41PPpAnuz6pF5rHBNdNIvHBdNte8tkp6XFX/KFor1aF
sZXt8FwX7zWdt+B10ql7HAa4Xo26qMOaOOHM8obRa8ZmlqrMFplOt1a4H8f8pTIB
SlHn6R0IMRk9PyD0zfa7Z8pcs/vLDQMVG56SCqN3XoNSvadQr62KRVfqKGpgqhEm
U7BBjk++TzBO/689JcRt4cm2PJOgkC4UEIKM3cuusZQuBKF/eCnenmxWqsXlb/Hf
uGlEyTOFkYoqONMCkvnH8m2Q7qerXZUNqhx7lNgHz6rwnM5MMoyby9jyH0vnnksx
GD8DBEISmJb/mRcjxugU2u4iZ45X7SNrPXyMVLXaK2ow+s4IibPN3R0WbEC6Z0go
boMTfoi1RLodIWi6ntb0Bjh7YmeYe+d6Wy0K2o+9fk5wSzxo4uuOgMmgGjjCwZQE
EwEIACcFAlFggUMCGwMFCQWjmoAFCwkIBwMFFQoJCAsFFgMCAQACHgECF4AAIQkQ
lL/fRIStFC8WIQQ1sX31dSV3ygxUHOuUv99EhK0UL2kBD/4mh4yGlYgA2a+Mw0dZ
4uK2hdVdiJlXzo9K7OHZPBq6OZbcTam9SKVNb17oxRPjQ53BZuGXQoj0O0GmNg5I
E5LnYJQVS3peHICw4P/yZrQLOeBhKsN2xG74zloeOrDSbwfJPZPKAi9QUnlEkhNW
kU39fkQ+YCdqf0oXPlxcrX/61H/WNJevW6ECqmS/wKy83t2efm59yvCDu+DQpXJk
ZFFggSnwVfy+PzqaEPPYQW6jlZez4vaoVk9rInD8Y0hqDkYpluL44nPVKu4g1rUk
gasdsCOs/Btnzyqzgh7oQ8Va6xMjO01EAHRGpV+bEMsy4PeqNrUsLnry0A/xupDO
zt50diKoFRA0cHKUYgrOhrwsExA3nAJggG2HkZ+Adr5R7slDcHXdHDR/fk4OvRRO
Pf/boA9hddpUTKb1IY8TH96MNsmlQm2dgJFPEVaz0X6YBSe5cQtSCDB0ROh116Vl
Hdz8z8qNsHv1r5ONslx8x93iRp9ytzH0V1JuZLqZG9f2YttU3CvScvfeWJhAeNIE
yTJqFpAiE1zVURdEcgrcTyO2t7eZf6O3zNNgSNAVV7MLz/U26N1jMUC/+NPh1yyJ
x6S/tvFUDr6W/zhEnd7zTJSHeJMuMmW3e3YaDJnM4NPs0NdMwGs47PO3ACqtFF7P
5QRQj17YCxPN9l1yMY9R2xxllsLC3wQwAQgACQUCUu/tBAIdAAAKCRBZj5Wq9smc
X/e2G/9zlpi1b7ee/Wggmo1Hypc4e5wejP/Nu3s3TxD8l3sOjdS6ZFm6UQZTDEK9
aeCKTj1LVlHVqBuqsCx5KSKIn2YgXKOMsvjGyhgt8MSyR5AVJ1sC182kJkVl9p9r
/R6QFMjzLKfPSQM8znDM3k3s2UGrF02jr5UCTc89nCFHbfRoX7/nm4IYoUz0Xd/Z
ljhqrPtAAJSL40DYv77HXTZl1z4/gVRCXTmUnwCS1WOgaJS6lUM7q55E7c2Iromg
uwSQBGQqb7tYnYxMTBMQyh3UOwx9kbLZHIMrU2qaNzG5o0cO7Dvv2x59vHNXkKmF
bv33XQmXLregwN69Ck4QCCKNfazz7eN8OUfOkLo6Uc+DJEl2jiyhTvk5AohvzIpc
yHZ7YBqYEjP4Jhw0cOti591p511oSucSpg7bbVs1I5YUJtzUNJlT64YhvTXZoVUF
c5IBvqwqT+cp5amKUgqaPuOVimyiJsrtVtZj0P0AiTQanPWeeyh1XsQ1tk4XZToy
fVHcDPFCnI7eCKOAQqInbGC73r26mlo7xaJAi5zUDckqXSe9D5TZc4hn27hYqaWI
xRQlrAopgmLiuBhg3cnRbAGAR0wX9/AjYwsmbTPLWG9+fU8sxIrTL8eBcRsn31Si
9eoC63XKCER6+MGY6K+FvCPx/IicfNXpKJzcacx55LOWiRo9POLOeWy78BJH7du+
5CKBUN2Fd/ykHeHocwfEKA5MxeFkfuvMnXK6GUwb35NrV7q7FBdfpGhWoVlL36Zx
PTqC/dcJw5IJjdx/jS3v3ly0LAePIHg29mTPfW6Xjbk7JU2EszQ3FR2snBroN9T6
IqcFdFg4Ehuh9vbrVFPQfPlcz8T1X+E+iIE5yGsQkyVdvEEUwgOdqNCFIYxSqi5m
CU1gm+93ZRlvmImpHf+FwJY+ZsRSi7I1G+Ei7WdPI31AktyXO2F3tSrF8E25Kyp6
7ynuggIxSpJTzsj+9ORYfFz/HctzPgrhCvLB+lWtWImq/X6Omvv0l1FOIDk1RR4W
POMrAB1yXTtYTQobjsKl2xdPhnfOV/wCCk1s1K1efZOq6TBDBBtO/l//cHbk23R3
TNeEHTMOk+DQ5q1xMXHYbM3JzkT9k6TVxJnZvqadw3UJIHqQCaaWYKec1aZWr4qq
Es4F3fVJr7lkeaM3CcxCGgjIFbrJjfUgeftybVLUGcznjdkZ3s0wQW5kcmVhcyBL
LiBIdWV0dGVsIChhdCB3b3JrKSA8aHVldHRlbEBnbWFpbC5jb20+wsGUBBMBCgA+
AhsDBQsJCAcDBRUKCQgLBRYDAgEAAh4BAheAFiEENbF99XUld8oMVBzrlL/fRISt
FC8FAmeqfUoFCRoMZTkACgkQlL/fRIStFC93DA//Z5ipGmJhCzaM2CDA/1cNtDrg
gVz/xGDzh8GO2+esz3l+MmRPPtN/UjeHbSZUnzr6nvoPkWRa6g/lZhy9rlb9aUBU
tx8+HNtErMMSqJ9FOJEQODlhrv+0acrHQoQiNuhrgfZzdxqaIvpWmA/3f9xWCWOT
PvS2v7tOYjmUNbJPYLn86gorIlS7IEC1ijMck7o9hiFD6TJ/ZRSIcAZVH8NQbzj4
4xQWHcwLA7rGYPpmHE/kzEfTd5oSs31AmEeH1cKfoHNAmuYcy1Nhv7IlbOr5q7TE
MDWZDi7paVYLrcG3JZbtUc9kCXjZXmMbSsq4TTJf3UIr/GelJIFjVlL96zou3wNE
GpNeuje1gEYEGAorD9rL1m8jrhqaBzReIOgP+frHd1YidM4INXcmbl1yF+4tzppQ
6Kl+ybtkUUZPeImQE72PAGz+EDc5QmbvDuQjm3OqII74JDsHaUDMyNELLfC/sYEo
SVjnfgHVPC8De7jFAGnnhdeX7B0tHHFaXBIN+NWPi/t0YecD7MEdkrGzrjNIZSVd
J1FaKq4qVkfR2MtiMBS6sB/tcF5UEBLDCLPS5Nl3r1fZt5qk1nQn8Buy8sszMg0O
g9IfEmu+6Xg3wV0iE+Vt4AQTCNIhfSDOnihToVMuP3s7FL3fyzHs36qc7Vvjd37c
DDBiw/1cwzYUiQ5tEKfCwZQEEwEKAD4CGwMFCwkIBwMFFQoJCAsFFgMCAQACHgEC
F4AWIQQ1sX31dSV3ygxUHOuUv99EhK0ULwUCZhGSigUJGHN6iwAKCRCUv99EhK0U
L9vcEACHXRJEqBhcZT5sh5xPiilg7r/NKhfx23vsEb+4JBuh1gBT433csQ8SDmda
PUG7rQOSjJ3SydSt0+bB0JcoVQ5qKaj63eAcCiMJ94/g9CZcY0N3I8+zY9eQ1Bq6
YIiVUZnj0ByWT9eYKHFfVDSFzdRzMddsYTwxJiDnQwKif01uFVh33BQbwDpHKOJT
iSOdyS+aiwAlcD60OFT12M6fCS2EwffjSfToR2IdXj8yyf2YzbHYEphUbV/R+xr+
zczhKP4quMmZlJZSYhUHl7JsE1nijFphLzHu3fcj9SCQ4LSHuoMYv0LclpaemF1t
gZsRyN4E05YLqcgWQgIS37K3zFsZ0Cu0L0U0P9NbJbuUBNFG4nAH5EaRG145q8lZ
0OBq/gWNxRcRDowGeENjS3EV//JuqviFITziOSDzX8/NTH52AmRlWzZR3CA9ThFt
Attb0CFKo0kzRnF3Sd3OQkN2n3uDt9DFHLH8mRM5siGATEJho1qGNjL4G7JAkiH6
yxOTInP5kBKLc6+QEcdqfWpzTFczCjh3JdDMCEIZHKng1N2BovKBpH4TGtWFFY27
SJjpPGGZtdP50HoP0F3SJZzY10h2X4jMBotfVk/IM8HkXnSFB/xDE1ZIPUGpUUSl
nKZYlbxNKWSKoVuhciKp+m4gevxNPZSlBKjkn116WQqkXOB7C8LBlAQTAQoAPgIb
AwULCQgHAwUVCgkICwUWAwIBAAIeAQIXgBYhBDWxffV1JXfKDFQc65S/30SErRQv
BQJjHNyoBQkVfsSfAAoJEJS/30SErRQvBWsP/0JHKbJ1WU7u1nve+fdaARwgW8vw
ZiFIW9xZcGdnI2QFRp0ZotmekoiQdibggUpBtCch5MTj5UMwugnyWbvwqJCmvVme
Uljb57ofaBLeK4ATS1/x8wsxTLA9YvDE0XpbVsn6gDk6OCQYasybqkIQCG0al1X6
AiN/kOIdK3UV19N65vfd3xXI3F9+eZRLAeAnNdC6yg5QzYQqktBWtCCK3adlzdSo
iF/1/j5ElGsHD1kb0lKHtRYmRSTLPJNBR+77BJMSdvDFBA3hu5ijL5gFeHQDYbAh
deP1Wt7/4MQ6YGaRAUPZLwq1+4bZeaN5J9F/YmjzjfT17nsdxDSznoD2C73Ua3om
IF6igvfkDp7/tkN/jioE9nG20l7FzIZgimoKhYzYwYlmubxX3hSX+ks40e3I+FRc
k35aRoSvqFWpX059gdNmybeSC+nXtAb03a0H5AyXwYuJZDUrhJdevxTPsw03+lSo
FA0qhjqUaspxqujfw/tog24wOq/WHcsywgC1tE7NYjR+MDTPxFTG4cdyVOR5ZGx1
8aDutDVpD0uarhDHuaD0lv+T637hbojQ+rrVRJIVqR3pTJFx8j4vFqDZCGggiwMo
0jBfY7GAjCN3MXBhQ+QM8VQIgIo8c6KpKq3zhKdrUhi0vat1+qiX8z/Dv5jciMdA
RR0WJS10S8QAZZiPwsGUBBMBCgA+AhsDBQsJCAcDBRUKCQgLBRYDAgEAAh4BAheA
FiEENbF99XUld8oMVBzrlL/fRIStFC8FAmIufLYFCRSQZK4ACgkQlL/fRIStFC+W
4w//SogKvOKwszCDtv/pvqNApBmQMtDvptdahDGlXeHn8lXUJALx9O9YDdKRGB96
SdInhJMbAEJ17juxwiiDnp9tcPKSrqRP3ZWa3TMJzbIn7OUDpNfj3sNpa600498z
kRxngPn08N8JT+jwDR0vpX3/HH9l7XRSH6aqG4zF3eL88W2ANfswMCmityFrKYma
N9dZmQTsp0of2EP6ylJTeO6z+9woKG1ihLGO50QTAZn40EfxbPOqOgdMAZpVwJOO
Q9IDHefU52cnk2FIQIvYAv9PEzeOG7Z/tjtdr71glfWCu8FMbCHTuZZ6P+NFjdAE
SRiQ9gj4xkSca9a/djLawI6YE4Z0pb/aUT60FU3y7x6t9DMigufAzpgHYIbdcKQZ
lM3L7XX7Yzk0tHJHjF7KpcCBdIuoe0NAncbhpYjgW9bNIHlIlLtcrBOKbcGpvghG
5JTvSgf0ZNZ73ew/bviPm2MPcKDRJOyzkiou+P9mj0Na4pAPNgkFMoHVyqnkw6Fd
Q+Yh7f8+VaSZXEq8hZAx5I6rI4e/W9wgQ+xmaoHNSaXU/b3aJ1BpE3zoeUp0JewF
lKePvssgkaNpB7tA1gWxMaIj2e3a30CK2AzgmUi+mty999ikkSRU8v3H/aip6Kjq
LvWSCiEdPfiNfpr0CwlSLiajPRYO+4dHTchIezPQaQ0jBUfCwZQEEwEKAD4CGwMF
CwkIBwMFFQoJCAsFFgMCAQACHgECF4AWIQQ1sX31dSV3ygxUHOuUv99EhK0ULwUC
YF9PTwUJEsE3UAAKCRCUv99EhK0UL5woD/9zGTurdBRBXXunJsB3kF9Hz7X1ylox
f2ab57nx2gtyynOK9L9qts20cfWL5y9pSCHwZXYJxeHJxC0rtA5GB8COcMbpFkGX
aT8oHbGfwKC/R0PSVwv/M0k2t6vQfDPhlS2dIgXNamI4x2uJGbFds/Me8VC+efxm
pBxDosIWpu3nyhlE/hzmTEc6NVrXs52oxRkSA/x0kdvyRakFlpVEaorpEpeJu6E9
kSKVEQm2njL7421wv/dSVvPwXLXLayCges+8O2vZt3geJx9yKLCGvkb6Sj6HMIhn
Yh7BC9zGbkus2pdX/4dq4dcT8iiglWtWICvSB1NeOUtEFcFG3W23DcYXEOG8GJjj
2QjsLbJUWdpBb+7HZPMVNeZRDpNDW9nLIOEWsXUUYe6kaPF0llSU3Px+2EtdF4tT
/19OVYcUycLszlH1oKE0H2OBLCq3cEArqHAwnczaoKhVBpeysWzOHghn5O+2Al08
tNZ9k32eVKY1dhYSwcOMaNL9b4DM5BV0gTJ5qw0kejHX+7oWlB/8RcedSg2bm1ke
IXilrU1pya3fTT3K9qAJBoDh4wIYxXX7AbN1qW+1hRh9w/6t3KWabJokqinM748I
HBXsXW150sZatN3e4c8MP6ePbTfi1TIf6qKPo9q4ZDV9R5pIG9RH7FhEGhubNzwr
5Z1jIszl6CILX8LBlAQTAQgAPgIbAwULCQgHAwUVCgkICwUWAwIBAAIeAQIXgBYh
BDWxffV1JXfKDFQc65S/30SErRQvBQJeYZPSBQkQw3vYAAoJEJS/30SErRQvTe0P
/2HEAag758nXrK9jZ1zfMeNT4GKhcI1/8sT0U+AkIMR5nl2kw3vZSlzNVhQU7JZd
4Z4Dz1NS4lI3cYd0vwDoc02M/3Gzm4u8cVCo0OM4qxfDqDq+KkaUU3oXFR3LBRo8
UR1470kKAyVt5f+BDMGYZNhhiRbkJF/+PraIwDQm14DcqA93839uuwJHdwhQu5yv
NVCxLxL6yo+0IrBlU7Ydotvp7IiRTmKpgeMIpKL7iztv9HKhRFfrc5x64QtHOPL9
gwwcY0I/GI4jPb4CviS+AwsWAE1kK6d4YMvwBg0qfDQjbtq71wSXkx9jpGnR5TwU
Rrm/CLqxL5QOtiK7zZ1Y6V2ulqfmI8bffeAAmfShWnqyygNy635xBDq+jzh3m2ok
owLTdZrkxqVHiUqNxcw5QP23K1yC4noS6yWnJH8bwXfMBVZvkZCxpLq+Gs2JcnIA
clfrWEHTgPEZQM1qvLG+Mr7ipoxTAt20+6kx8qc4JMWYFYSww8Tx2gvYOcINtW7/
77l5gxgbCJ7P4WoGqjoAiI4ZSFv1suwpVELd8bM8a5oqatiKKyvdGa9lxw4q3fRU
gN4NlX0U4mciMBEldphTy7sCoBZn6+1r3qgNWhoAAS72llvDybuhu1q4ia36yTGJ
N3bZoA4aMtfxQSnf5YAZvxsDZf7QrmTcG5IlRkXLW8SowsGUBBMBCAA+AhsDBQsJ
CAcDBRUKCQgLBRYDAgEAAh4BAheAFiEENbF99XUld8oMVBzrlL/fRIStFC8FAl4+
u4EFCRKB1wcACgkQlL/fRIStFC96uQ/9HdRudBvd8fryusl+9PKUmWynpeHMURFe
DvSiDk5VfulwyxQ3jXxcTEzDH2V4meS6G4vEya+YL5b1pz/djnRYWoXLFrt7tG99
t+wBwgJ7MbybHxZ6lcK+OzGIogpooP1uk3Ya8jocVc0Rii3ctQuxY1uuhe9ZBVrt
+GGGLDb/ZoupTw7mDLruFMdyZxO+hYxuVHBemM9kgDXDRl6Gdc0GrSdN1VLqF9rn
ty3ulunAp4AhGFXLv1bTPQNZDHwoGdefJgSypYvY8zKfeYFxAcnNI1rBsm+od8om
kklJRnKxPtDk5VaXAPSc2VW0B1DeoOThpWkR8dBh+8v54SdwUbFk/emEbjodMVbv
SXUb5CykWlXYNnJtTPymZVkBClehlI0me/BhFpGx1cdIyevcrJ5P3Ex0SNp5BTw8
JwX5mP7mQXLrjV6gmPqTGglCcGPzqsmE3uJMNKhG29T1vL0L1c9coZBTLbTcjUIJ
ToHow34ZksOeotHFDV6VNVe9k+pKisW4RPUQOB8Ijyrp+FQfNR5acftGEJGBVhRj
X0FR462ZT4+umL9LHk9FnAxV5KQdZC5Pbv8ory0I7UY2rQ/L+O7+r7Z0+MtZNvRt
advzsBLD3pYdNbzr0A91oIzSknnSo+E+559zv7wZLS/5D5034KSsCeSJsY+NvB8X
jL3PKowdgNvCwZQEEwEIAD4CGwMFCwkIBwMFFQoJCAsFFgMCAQACHgECF4AWIQQ1
sX31dSV3ygxUHOuUv99EhK0ULwUCWg4bWgUJDlE21gAKCRCUv99EhK0UL8PUEACH
A01KtCWapM7xppDl4b/Yxj3x9gCSrta8kSWCuV9JlNWPV0YJ3Va6CkNscLtL7jPz
lX1Rch+38QCz0Djl1TyKACii77AwHnLla2OzomqL3HIqOmkz3R4HXe3Kup7pVhXf
0/BpGjWKyrXOrg47rDzyy9slMlWccla+iFyRjOmj+SooXFfCgkogP7IAxg3wJeEA
nUV4I2PN6VKgVGsjym+XgH6iJ97IPE13UvRkoFDpCP+OMP0yzwbcUH0MvNuzsGvA
iW7ya0QsvmHzEWyXgwyO76VsA8nJBQhhmonrV5ekSgN/1ZLBI4pZrX/tT3wy7XwP
nd/y+HpXAEXQT5A875eTdNps+SJ6hH5Dgij6hdSGbIBoW9rRmZUzTFK/yl70ZE/I
hgNjwzFe2a0TOtTaIIj2CO26jlpH7rY3VH50Tniy6i1O+h0VbAJuaJKSrcp94Se7
uqtF9csqZlvMimCgudamGh61Y8J/jntiJGP2TxKYh0E8VStLVSgKbdTy5WpGzdAg
24k8VCn2Zbfk8hgVgnCj3/H9EXlSZRo/JJCW+qTpMSmqm7W8Di2v2SuFMKDYlPh1
8RU+4Fff8EFVJ9z9Py2XgIg7qNYreZdXnQE7qR/jxdnBm2gQYBWbp18SeE3usBv2
dj4js6sS6BCzEIkO6z+o38PQCghRn2BwwC9yiFpM3MLBlAQTAQgAJwIbAwULCQgH
AwUVCgkICwUWAwIBAAIeAQIXgAUCVLF20gUJCPSSVgAhCRCUv99EhK0ULxYhBDWx
ffV1JXfKDFQc65S/30SErRQv5nkP/0OHTWyl6yHXzJP7m/CPlcNz46BOtIbngg83
MAdGEWV1+m1PvE8GdgiVELtlPIMeOxJf9vuJEAH7AFo+swfYV6upoVPQZxXYf+1w
gnyj/8R8gpyPWhk6c+8kKer0aZtWvMxVNTUWClQj8XdDksSXwrqOBX9LViZRbeLD
bNkn8OVqAgcAnZKjjubvyKb6OpngJ3m7vmRPoJnbB8TMmhoRZc8ogMhgVQFOTf7h
ydc+HaDwezfrjjRUOS28Gmy8IY1qpSz4QmzNuGsokI23r9c+2qf35OXYqLZCbCRh
J5cA5aeNoi23z4t56l5c3akbEFpNzBXfS9LDiwcHC911FBYADo4+vJpxCY0Wb7U2
uJ+NQBkGGRBnkhiUhwGgN7iwePC/Q6fAxSAWzNA0ndYtvejizHXD8VGsxwEkQQv3
Y6D1nf7TQDd4PISccO4ZPYlL28hg3/cLJ2jImcKTVj4ZderWCpW4dt3EMduvV6LU
7IDdDXriQIzG5iQNiMbVIkMQ71YcxblKCIa1M0/HzemfU3TQKY9JHcp5BUzPsWF+
ACbl8pYb960RTom6F0iTLBuJImlVPz6ukEVBxzLtNAgSwa7fACiOpCckhH/fBfS1
UNOYlNbxmTmzLkS452cTsPGWw0CsvZO7tdgBB/gnqVhq5Bay56w2T+Gsk5AyAyzh
zIQ2V+DEwsGUBBMBCAAnBQJRYIElAhsDBQkFo5qABQsJCAcDBRUKCQgLBRYDAgEA
Ah4BAheAACEJEJS/30SErRQvFiEENbF99XUld8oMVBzrlL/fRIStFC9oQRAAlljJ
+g0scS99gW4gpzzy41N0Wz/1jm/fKltKJRKtiHjehuFXYvJ9IIkUoLdzfIRM0vPe
vaTT4T07+xZ8lc96cKjYm2SSIOLzCE3RE84zZ7ZKvszFiFnNE+hsDx745BvLzM2e
6I00/wiruaecC7sHV3gkLWLSR7tfC6DDDMLoytA1j9j1vs/ZFP0ssE0R4WflxD91
lMZd8+mkTto/8PiTEZy8G49ssyRugFgcg0kGMQ4uR203CyXsSf4rmTZN5uWhp0B3
07nZ/xarQAMS5abHxnKpWw1EpsgcU2MYN/OPdsRGW12jCu7zHaegX8pBAYe6lnxl
M5xdd/lRUz0hH6cbVzBo5asOttm0EWFh8xWOxO+5zJSN+Jj7qmP362MAuXedg8NP
Ximl1HXIMu7gaFMpwTnyIpaOC+HmW+0MThspURbJN74jNP7VdRaTcqcCqMd+XeKV
RKg6mpr5kz0KDvPmpmUl2+aYzhDa8RGqALvFR5NDkgzPAE07TLidNdVQ3pUruOie
i6aw9VR7eI0qDZi1Me0ZBWM08V4KefJ+MDXm2QL2YeQcnbhq6Qrqc7VzC4v8oOUg
uanzfu4wphvGqReUcmpxqcapJklidChiqi2do6vO1V1RTHwAkowKeoQh9lDfU4cD
5e6mluKoH1XTt2kUvELFGFO8ihcDk0uNYs5mPaPCwt8EMAEIAAkFAlLv7QQCHQAA
CgkQWY+VqvbJnF8gChwAm+YjOa4VAhCEG6jFdfCpcptJsvRQrU1sqhTtvlhnlCAY
6Qqa83ijvfxwg2/tPaOho48Bt7zn8CvxQR2uP/JDXwa3S1CDtDq3GK1fRO8Ga4gh
wZhz6TMlVnwEzp11IuFsYTvOrVcg/Zhg3geFSC6BiVJn35JAUuMJAbf6MjorMr0g
BnkcrnQO6SURLxH95fiY1gp5I9+9ldm4JHC9+QFB42AfyDGMrLjKgqj6aisLD117
vdbv/G9RaGmjv9BrYU+2SWRuCffQqSADtFjgAROtTnVo0tMfH9rmjAHgJaOEQQUL
mJCDBVJIFZiHuRhY1B2/uASe86KgLsJLXLo4A33dBveNqBF1froGrKnpOI2C0Xot
GPzIgX/WyKyiF1rOkuf3fYfu0sTf3zzRAB7JUE0FRfA+CcvLQd1P+m6LCFq9W4N7
LL4dLBkHDGjIb23wAREUigdA9ta4g8dPFj2FORrqCAnCFe25f6mkIBtMFCxUV/MW
Zx7mLxTB2YxJtpBUGecoBQmYoLmu+4pxBVL+9Hbdd/5NK7AmodjUsRxEDZas5pFS
vx4ye3ak/XpwA3y89B213mGD/hYVMdio0jZza8T60x+ckk9LcFf+T/CL3PnMeknx
tdUyqmfMJL7dkmXiIUEdIgQmcuhpHrkOlSVhVei1HbAe9NfrohcfRf5o8K7DDuNI
sFDFwXYTdJsYIGRJDoufeF7JsAWuhRDwCTD+eV7sMqyx4b7gorDszH2WS/ACdXe4
ZXOd4DVZyvPZz/uNXpKizZnapPNHOCaPHQyu7LazbgGy5bYdLRpax5WtDz+DwYud
sgMUov1R5qWLtNIVe1x/tAmHg8Cr7SvlllUHh3dxtt7khTPt8lUjqAx7QXZUC0hM
8VTJ/nKHdJReRZvrCx3mcM5bPeH1y2nTIxZL4s/kJeGYtMUljy+sDqRyXiY4tISw
oVsGrmCAc1oWgE9CQUrYczHFLzFHa6jCPGtjI1vNtse8GGqmLHnQbeIlohty9Ici
R768br8hXtYFWGdXk3aGGP6Gy5N9nJFovIfBtckkPcgPYjFjTT1tTsbZSBZb2lX8
MtofFydexEbgcIr3SaWshmEJjvYh2bEKnH2ON4ipWe4w1x7t0qLMLgkNxiuClfbj
N5/SMvDngGLYTfPb0WXMRyhALwTzrLSkOzWi4VKPMGjezUIWqMbo8SOKd6pCI1rN
MEFuZHJlYXMgSy4gSHVldHRlbCAoYXQgd29yaykgPG1haWxAYWtodWV0dGVsLmRl
PsLBlwQTAQoAQQIbAwULCQgHAwUVCgkICwUWAwIBAAIeAQIXgAIZARYhBDWxffV1
JXfKDFQc65S/30SErRQvBQJnqn0tBQkaDGU5AAoJEJS/30SErRQvu2EP/i331Z9f
75SmKC91R0rfAotJMWLnCdNPmZEoQx4tHfztJ/WsH+P/+7zUzpMB93kaW4pFuY06
yyLo9+nCXQuHwrLKoqHJgwJXng17JTbG4zribEcTQTv1+GQoCmnbejZBfp12175Q
Dv90x0Vduk3qwxi/GJUQmOcPgYIQ8ZZNcyi7yNVtiHr7h3XjvJL2RTA6Ku0PDC+4
i31RoelWWAVlP+3eAOAOpuIPJnof0Oko2ZJ/hNQacrsIs1mWYozX0srIQ9iqUUQ5
q3maMdx1oec6cOHKTb8mE/1+X4Rl7lp5DV1OrwukrpPOsiVz4egM941KgNv87XpT
22Z/Fxt4w/Mqt7yR6EE8E+7eJNzu34rNeuXdAJ/2NNtXhaGXBv1vU0kJp12Mh59E
42tkctYxIkgrKn7mrGJBoqBejxH3aUCWsjSVGVu6L6YnecJOtQjCrADhysNa5sWS
MiNsqdf9khRMMabbEqt/f+QR2ysp6XVcmTGTD/sUEBIuR+nDHzR0OSRzJVWV/HvU
qomQLHgjOoTXNfBi4s8bboYxybo80inKnv15EyRu2StEaYEUMporPsWTPEQHKHxw
rUtucnOyl4gw/t102+0wgvMHTMPdTE179DZ+GSGLJVacIquYsMW6i/92SXBUFNcc
yzFLYhyOcmYjz6H/oGoVrkAbY7XlVivLQt9XwsGXBBMBCgBBAhsDBQsJCAcDBRUK
CQgLBRYDAgEAAh4BAheAAhkBFiEENbF99XUld8oMVBzrlL/fRIStFC8FAmYRkn8F
CRhzeosACgkQlL/fRIStFC86kQ//aRHB8F5hQS/Joy/nUafL6eBY4YaDCKWnBusm
o1WSr3FT/8PPFqUWK6bz6u0iFBzKqewgU6iJbl5iObsiBIV9lxAqtBepByGQWDbq
V3/k5KCx23Pvg0AQ748XVmnujLk5fzv0sxe2iz0NqrmNNGLxmJI5sib4UswAKwxd
LTKz0pM6ExgtGf46dwqZuzRTOBzNQ+n4DEkqHNnwzkMhKjZuMxqjpHEUGaC9beYm
v4Hz491OxiacDtoOjhDOMShRv3Uwim3yvuLQzhVmo70wIU7Ay1TwfyIfkzjqq6rS
qnlgt0WBnxJRQQ+7XOvREzPnO22EP66JHMKKbTjX1Zr7kXP30Lip4bxN9vwfWz+p
YQdPOugaTiht/LLzc5Yp9Uonk1SuF+jswx++hSF0M2TXUJhjcWmvqdJ+lG0x2CiU
F0EKVKZXri1D3S0to/+n9CcsYMkrjLmG30PUk3GP2dMfCuabLw0HGRcIWQVhxGOe
qvWyGFkF2ChSWw2VK83pASe2QPCZUsIKNHL+OTy9/oazG/QJMKLlL3VeR7REpzyg
QdI/ICTUqQJZ+aXOi+ELNGp9DYwDl5A+LUjW6xgRdIS3Y8YEP6Csq1K9As5h4jq4
wR2yJreUuz2YV74Bxti3+5zcTu7P4tviwlOwamNTqvNhJ6cX7NAIJtWfkqZPoDEL
zozgKezCwZcEEwEKAEECGwMFCwkIBwMFFQoJCAsFFgMCAQACHgECF4ACGQEWIQQ1
sX31dSV3ygxUHOuUv99EhK0ULwUCYxzckwUJFX7EnwAKCRCUv99EhK0UL7NHD/0V
F8iTJZTFpr9darcDCXLvpEYpOmq1Hg3kiIorS4UN2aP4iMZfBSfqpaWaUxM2Bl9G
EpHd5zEeY0BtM2ZmxB7YK1NRv+SeCUUFnoFuPv81V8sTHhrKgpVFg38q/HkHrw7y
O4UJAGBKCFKI3VwgFbuojNpHLrl3a9eE/qJRwvnslq80UpF+MpLJM3i83668IzVA
PI/Dhx4OgkBOL0bkrxBGeH2l1lNWtXoF+EHz+ug8YM8pmjq1u6/nWYickndUMNC8
RU1zw8nu7/4o4WvV8GmceRvrgNTedDOJ77IFPkl9sy2unPOy78oIXzQXQuCvH40x
yc/kfdN38NoEdajqG18rXreLNCAXBktWj5Bhkrio448j2nExliMn7Yq+ncZb1Rmk
WMV8ZqBMhJpiH4u4hZSLeuwA+SabcJ7NV9yH9mwBJgScBIZYSZT445RmikRT7HNA
a3KBlX7wUU1r32zgAdgkfNNRXhdijzBc3gO2QprjXoOrkMy3HF+nuEg4PDSkJPhA
YpQbH7hIjutw5629+917n6Ctrur0vJRkZ4/Lf3zWPSfvAlFiJtXOcAxtxhkaOzUI
PBLnVXvzwc7LOSG0CASi8C7GV6T/om0+iE/Un5pycLB53sVQHN0uP7CIQlHO8fDm
RRP8ldUZm2DP6BZ0X2bV/AIOYe+gvsjWCJfsEbxzj8LBlwQTAQoAQQIbAwULCQgH
AwUVCgkICwUWAwIBAAIeAQIXgAIZARYhBDWxffV1JXfKDFQc65S/30SErRQvBQJi
LnyiBQkUkGSuAAoJEJS/30SErRQveZAP/REpwhr6c9birIh1tv1HmN37B2NdSfDB
3jBIRNKkR3aXNXO71GYw8J4avKaHIvfqsDZV2IOuHj8wzwYxEOEMsOirl0d9LKea
uYDgFnKe41/Hal/RnQNcRrbQeok2DDeoOMZsqIwx7iWMF6r7/fwXQ8LgYqYOKRzk
zC+kadZrjcGKKMwtOqtd3txewS5yAm8dbQP1GEe7a3LIEnOpVVVD/nIKKVLGeWZ9
OXWiiR89s2+Qa15/HreTVIXr3au8R/jGyHve+R/ykrhgnEBnkjmjUxkH4Enb3sgt
pcImm3wTrbMgOvJTsa4wmwApkJurGC39m1Gop6sFsGY0hmZVKHGEcgEQl6nNMsrc
FcT2n5qOs+H9C42v71uREG6QTaSUBm6/+c71z07W9GRQmykyuxFXYtDWwM3UHprF
mhmiERrStf9MOwSPQdl2bNNWgDB+bwEoOnAPsfcg+Q1BYxubNYz5DB9YSC8NblYv
VrqGJW7+gZ0gdwbhbeNAsz0jr14lq7W54cYrGZCPB8FOOYY+Q3iOQMHmLaaXEvaY
rEEsslHoxWKIY16GLmXDflKKZmmO0PBKDxc9723i9BZfGX0L2O05UNXwhwxEsQ3c
mmf3w7Xyfv+Xa4XhQZc+Kur/2AiQTJEHDF0wk4rrsb6xAsoCLW+rNGh4SAoJ8aae
vQAjQvpin1FtwsGXBBMBCgBBAhsDBQsJCAcDBRUKCQgLBRYDAgEAAh4BAheAAhkB
FiEENbF99XUld8oMVBzrlL/fRIStFC8FAmBfT0QFCRLBN1AACgkQlL/fRIStFC95
8Q//XS2Bki2aKYX+TdN2mgP1Np4TQppvWReUwjRZLwsn6wBg1A58Ia6Ox8dIHXfM
B1cKqf29VaRsO65R/rVdFx8H1EWhcANNpva5tnvr6KsjMJ4JtzIdgm4zYh8lXVw+
XiZZuBfHDcrZNvMwQ9LzvEYtjBuDU+mKpRZYXkvIc3bkA/Qc5jiunzslIRY0X4vY
owAt9/3KEB9rfV3ycqwnVet22MiSqLKBc7mZa+CKJmTiI5caN/qkPDWCt41qB0bg
pIPrc60jkvpwy5O3BqeHeUTkJmxfjAWF+GpjxAaGOIBz4f5qeOLAZ5A5Qf6Jv08N
8On2nnWUaX4JVLbXYK+uJbEL8zEYoCR/sffLoizbLdOq7xgV5a2hzYmF8ZP5sSM4
F+hn7HKh1NMoOp5RwUhYR4o42aZva4235aXVbqmpebtvIUMYda5lElLp3zfZhiGr
IpmFz1ToR8lYDzuE2PZGptEihqreVLD0jjdRPOu7ngkzarO2UTOHoEtUXIXyznp0
j02agYiZrOtrIR/XR5iYMWFFt6WhARQZUXQOegEzkTIsNh9Tp8x1M7qdmUqlZCkj
Jbh/UKHvRh0YiHiwB6Ma9y5FUW/zeD+TC8kg1AjEb8IuH3qjEAv7GB6iREwIbwVt
lWERaPmETZokhrk0yRNK0t+uwiSY1iJyIO5x5CGVHzZWoJ7CwZcEEwEIAEECGwMF
CwkIBwMFFQoJCAsFFgMCAQACHgECF4ACGQEWIQQ1sX31dSV3ygxUHOuUv99EhK0U
LwUCXmGTzAUJEMN72AAKCRCUv99EhK0ULwdTD/49sgALa8Islx/hCSvPkumUTYj9
AZQvfBtc4FZ9fpDLaNFnaIiBogMwB45LSwbbK688RtrE0PbNZ3Eku1qdsu8J82vO
H2NuHEoqMQV6zH90FCSwpZCcDqpp67HxOG6UECRTF4M5buEjZ/mXhanvrQFmFKS9
BPlko35BeciYI6XvVXlc1jfwxh9TzvttLA2TeHt2Xz2inTy5VNOpCQO8pobihGls
/MSpinHVo4x6tvIdbVNmWiyNjHc3ZekW4h/OpzfHwGHa2fH0LNJZ9WKKypPuIcv4
2LWnPpeaZ8FY3YiH0DZjKpM9xOGqKAhIwYWXYvIIwgaGWt4Vp3BKomYP72XB6IDH
/RChrEAQjk+w02OxSrZcV7krEJR2awdYtsEwKf0eHxyCWGd5SYIxbOvrJwciwG3D
fIuGhEEh2TUIIe0WIvC6t671FJjkZkbSCAnaC+inLurg5HnjoqIfOuSj3QuuUe0k
uTRXVfFvrFaEl7jJue/xrWsdtKw5Jzzqo+OHJ5du6DdmZx4Dc2Fo3cSdnpHhVWvI
VY2j9EBVmoEE6T7KnysYWBER808Xl4MMUGjfyEz/d4o3ui5P9wu5PpcxWRUaFM7n
26BW4l4tM71glYM65uShjwwtxxKid/GO2SJXguNY6dAni1gNs0mqb78LoptbbiEx
GGrGZ01IfYN29tqWxsLBlwQTAQgAQQIbAwULCQgHAwUVCgkICwUWAwIBAAIeAQIX
gAIZARYhBDWxffV1JXfKDFQc65S/30SErRQvBQJePrt7BQkSgdcHAAoJEJS/30SE
rRQvWJkP/RWJAF3Yo0msWesHf42/srEPLGJ+QmHesIKokiQkcqlAJdZexrcs4Srm
xF687VLR/kh3iAQzt21bB/mOOQoK6nOX3wGp3b7PUl6LQgmccYAEaJlkb2vagYla
HhJmL1kLAmWpbloelP6yFTtOmPY+lzdTxrcwMXkmRWTTUjlMwqCxl06j0/7HtDOD
QGe4q4Ocbi2e9Uw9MFQCNaayIS6hdotNwpg5VhC0ZvAX/mdTI1avyB2BuMxlSZRB
TGI4qhlPp3vrdB7Run/l4Ue00aVSkoSuI3ykpiKlvmai4OPua5bH4rD6Q1aqlc2R
Fry4lADwWeQi/wtGf+RmXofBxZUFQeBXQ4JKyxLyAYRcYXZcwqRu5Wv2G8n4sLOL
cl3RxSSsuOqYkWDC9ifUGH8qmrywcVC/li2pxL+5MDdjOD+5CshvKGW2jkdhkppH
gQo3u4BjqrZluF8YDXR2nCjKHTT+rzerEpKz/DOcO8CgTuZXe+XoAXqrp6yOK1VK
buDNSmLiT5DWxIN8BaIaLJofflwQQYN64U32JAzmwCJ/Pn7CEq5yAHL8lL4oDo1g
fYQ3cb9lne3WKKzVkw54SQMvVTxIgjKhg9vgdBfMp6b0NYhKED7Z+8KUa/GEZlUH
wmwdaLAPOFhprlyM7uQdedPtDvqJLRHibDxmEuwrIhzf0UsPYAclwsGXBBMBCABB
AhsDBQsJCAcDBRUKCQgLBRYDAgEAAh4BAheAAhkBFiEENbF99XUld8oMVBzrlL/f
RIStFC8FAloOG0oFCQ5RNtYACgkQlL/fRIStFC8lwQ//SFxqlG5OhDZgLXQmJl8O
ods4xuPOa2P4IltT381fw4dN59a/1PtArI2zAzo4B0zBKfW5XmvzvjV77FkVi1qP
FBb6n+XN082yuqObxysLK6A9iIuejRYMog7zwETzrHItrFA08eBvX+3Bc/hqpN5l
9aYgH9RwxXNJ2wq/VfZmrwXStRblcdS2sP+X7z8bJsKKcU1rLmynrioR/mTsd7pD
xOB6oq3S9KhryG4jnipAy15ceelQuQ9L7v5+luvKnwbokl1dYXucQElsTIYr2UI6
Ijuy0Kzxi1sIV97JMyOzF1nZGX9VriZL578rdWWn2cn3m6+OjxyFiqJSxkDj0ObH
okpCBDRf/3Rqzm91GJ4l6JfnIEnFLSHFs/1rGixoKURYTGcEnfyGCvTejPr51KcW
B7OTHwHjoLgZ9Fv43MWHhC3qud2xV/8uFASNKw0x6zTAl5YZThATbz/Ysj/MKKVH
yOiHtmzdV/vpirJDCWdAZudvw9iB95jciolbMzEsugSpbhYnxEnTJAoFGVAJSi+K
EIsVHFmq0DyAcic2rMrlygOAFpslAwoGtVSpQNYErypWSKxUNa5x4i62OgUNanRa
8cPjlcrL0PVfx7WRRuqXkypASGGNmOUTADCofWy/vSBWX2gGXTzNPF/iOJXwnrNp
ozR/1V7G+416o13P13ivDj3CwZcEEwEIACoCGwMFCwkIBwMFFQoJCAsFFgMCAQAC
HgECF4ACGQEFAlSxdsoFCQj0klYAIQkQlL/fRIStFC8WIQQ1sX31dSV3ygxUHOuU
v99EhK0ULyqMD/9tHatowydXA58L1uAZaWUo6OBYZaPJz4p0T3eehwcKHjI23ZUR
Rued3MqGb86mI8OUWB6/k0m5aobU0GCBWvYS01T9m3DIxSRBgBjSjAJsV209ofJF
eePwg8G2AhmV2oa4sHyyHjQJhw1mFq7TeIMxqijlEUvamEtZrO9nIetRSiohpw6O
XIn4qSLE4xqBfyPEWFZ8jnc8FpeBEpRIqI+tua1/RWQeVJ60F5I31TZd4AXGdV7m
JLGf3zSGaotZMVk7j5KJcmeGF5c8re2KAeV0SZAipBQsLKn9g9ztpFWTeQLQ4HU9
wHUgEJJh3SUkhOHTiKw9DF6XYeNZkTeNpSqQdzPr2p6M/7els5wGG7XlUlaA/CYG
jBcxBzYpiWsA+ItsWSC0tg5q6NnUO27tTRF53zWoKO8AlmsIS4ZeuC3R5BxMXqHd
MFCBJXGGUHqIFt0i5SsFk4zEXeKYxLTvRC1PQW9XfKpSAJVJiYaybL/Y0aG+Ld1B
3NJD2r1BD99Qen8f7Borm6LkbHt6evsFhJGMPY5HJzbEBye+lDQZ0A7nhVO2jRqW
Aj8I9RqQP+8/XcaL5Mw6Kq4U1xUSwgdgp6kDaAILY/3dBD8H1GzXaJoPu+xF7o5M
hBXz4MGX8Hg2htBIz+n1IS8EWqDO8FQ8AWeMMeOr0nsTiMnAYYP7fzLyc8LBlwQT
AQgAKgIbAwUJBaOagAULCQgHAwUVCgkICwUWAwIBAAIeAQIXgAUCUWCIuQIZAQAh
CRCUv99EhK0ULxYhBDWxffV1JXfKDFQc65S/30SErRQvwLoP/RNPsfHhV5bJXbQy
EkWepAyCmoK3lz8ND+7bHyYY67ldLk4xBqHf2xQH/4T+99rNya3foT1SYBilETud
gzkfNbY63a0vWroj1Ex9Mc7rx363xWq9i1UyD0QWZcOKsTJ+A4ZaT9dXtd3okjbw
SinDDgAlD4borESc6dNvjWJML3gh8+bsIdcEIdJ43rLNTa/zJBr3QsQSnsix3vws
VQL0KAMjlhSZ5rZ+VW4sR/lVB8tUNLMSQBbPv9+cper2TkSVa47ANtlyM7D8IQcG
K25+csT+ZlIVluJJjrLTl1czzg366dNDLnap5Jur0D93rdT84jRon7oV6nwWTfZo
3AtqJGcJwgMLvE9bThLXu40JvNWnyrcNklsksfVqVTdGdT4kmfIXwn8pKhnvpkpE
3D1edCtOh1Iq8+N+Cja72AqIJ+r3ODyIdzxQxZ6IIGeMM6tWsylm9Zu5PFYdRgNL
1oUsenvMpvTyqEBcMvMzQ48MW7BhaA4nTRjg5FTm0amPQ0IyxWuPALe7KHxf+PdN
dD2JPpOobUqU9ksmFOk0bOq6s+GAeAvYvtzL5plALAFXJYzSG5HDwhvJIVCYueHb
cUCo9eoyAiyeJ9zW/c2QuwRacc47OGQFis23+0X5W16qeg4UVOkbntEmfOaldS5T
N7+3Rl6VAvygOke72TOgPmyTrhwvwsGUBBMBCAAnBQJRYH70AhsDBQkFo5qABQsJ
CAcDBRUKCQgLBRYDAgEAAh4BAheAACEJEJS/30SErRQvFiEENbF99XUld8oMVBzr
lL/fRIStFC+zJg//QaA46z4PbkjtBZ+QMc8BjMxuwQmOtFWicPWuBV6c3Ps3u0hx
OJyhgLJQLKuUg7tGIWCl7O07bDwEaCzNSgX5EkJlkFDogQb3oIKXLZeJQR37oY72
btzvMnf50nrBD21GF7P2DF451zDbndq2ZVQUEN2shY19oHslkeFs55XVVUCplLE5
318Vn+pvIHj1rUFo+yOjSO1hGck4NIpDEqAl2CneCWRfoOjHD74f0SEe6wjFw1pM
sS0GofWn9xMxrtOkuyNJaxdIK9Kt0/8/C+UhGMbnnEqaJzQ+pPf52Y5DC2kPqhX3
MCP5iQQIzDDCDfjjE0lYPSfrh9+eO3jJVTr4oUH2o8oUVoSPWK9fTPl31SG1lDVC
1lEZ0AC2iZwcm0S1S8JAS01mbvNgw6xeNRnqbytNLDXixGoAFVUOFkSkCyo+6Jwu
4EqnNo09J/Dhz4TV2yosNFy3oPfY/KlkUkX703CFawpXCd8q3MhokfTtzujmxvY9
HaZKgXb3jNNRhCfUnui8Jr24tdIvOXULWAxlXd2bDA8fggPCN4b1QIqfrf3OanRz
DTbMgViAvMjx4J3XloT8xNC8AdsTkfhLzt+Hd4stnCZ9x5sea3Obhl8y+1txQWFW
4jY9mcmSX6fVRuG0mRz7SGmkHg2c2M1qa9izyT6zozLXx1BituviNtiGtc/NJ0Fu
ZHJlYXMgSy4gSHVldHRlbCA8YWtodWV0dGVsQGNwYW4ub3JnPsLBlAQTAQoAPgIb
AwULCQgHAwUVCgkICwUWAwIBAAIeAQIXgBYhBDWxffV1JXfKDFQc65S/30SErRQv
BQJnqn1UBQkaDGU5AAoJEJS/30SErRQvElkP/1FfQC96Lu1Per1JkRNCZsE/I7Dd
k3oOFlQCpkHri9P30VAP5VSRBLrOV46v40mFBSqKp9hdnvZ4qQpPsgp+v2jMwUQx
3j63d/tSwoCQRiBheTNwS2dkJOd2mTAcInr+r9X+SCUgufO/S5xTnqpXugbs6N38
yRqZjuSyhUkseORIPX8smdMQo8p4Qh6kn0u49qK9sCZ8mEzYY655P8SAJfYVEowE
UgDu9IHqN6ANLJVluNYC/gz4UFMdT9YQtBgaKYoKecC4O5rmkI+dT6W+qVoWgmI7
0/B/nuNuNoyfQUg+m9jjUndRWYaYYYvSHH3CyyWOHzGduedkMwQHJ64zADmA5CdL
FK2lsaF1CHhbazlOn7r4d0uO7mL7qyU1N1zB/yWJR/YNaPlFUWBC7vsX4UAjnjaK
sAxHXo0O7iYW0aXhVeo6RUucqlTRbQ3quCA8T+E45LoWNFC/CAaCCJqkdMNwTZj0
I/b1guAJBW/Vb4hAzx5dlqpuqhrolzUB2JWtV3PT3e57mQVHC1NzpIyxdCc4OSjj
hpJcjIavFcU28wVk4h6Dwu6uzySXlPKwqI4mmksqLXn6mvFH3crPU5VGWBL0c0pM
b96BV4YeClQcswe30SI0VSiGWi1dy+cuKWUzawJAA5j7SXPcmQdqgjWL1T0cmmbx
q0SDbhp1UtH68OPJwsGUBBMBCgA+AhsDBQsJCAcDBRUKCQgLBRYDAgEAAh4BAheA
FiEENbF99XUld8oMVBzrlL/fRIStFC8FAmYRkpIFCRhzeosACgkQlL/fRIStFC9M
pxAAk5eqso8NLMfo/2SrAXdatrOoKmpPyAAoWQWjvrJjYXDlf4N6DtwzK/E657K9
aCGvlgifY/Yagek0Wua/HqiT0GINBD4CID+mzdg3xvw5IRdKUgmyIu/So9SLZcmv
vuhmSHj1MX48Kgbba4AjznclfhzIHriaIiAQdoyUpduglHAeWB6beCK+wAQF5vps
ONCtoGDXeGSp+Wv1YvWENeb7Cvv6d7wSqKXeeNCzN5A+qdO2Dd5tZomP8f/G2uaE
ebdEAVxr1n9qzyxJRnN7OvADvXzns4LY6yVyauR5ZNjXA424iMxXYZa48lg51iNi
wHVBOYZllv4S7qL8RIe6pJrW0skwZB0ND7CTQKBml8gZSOhkZ2OKb1pQKDmGKEWf
u9RaHfYPXXMlRP2oOrDQOwLrz1sp8TLApg7zGzxOQoz0e6OIs+fPtkHoOOo/ih1j
GCujkQLb02zPlvAKfOVnv7C/KlGERHHcNuqeCoO8SBlxUrCNiKdohmrnHXB1+tIZ
tt2RPl15G4WXHqgwUkH0ijd2jgCIUWMKrEFUl20Nz+YjmWxFFe4edPf8pWi+O0+m
TLMHlA6X/nfZPBmnKN01p+WHE8w4HBoUciy/36iDbpyeZW+prNQLK+M37eYoeMUJ
73EhaEZaXP1feYbid20/tRzZjT9H4k20iuUkyqGjXYkFCq7CwZQEEwEKAD4CGwMF
CwkIBwMFFQoJCAsFFgMCAQACHgECF4AWIQQ1sX31dSV3ygxUHOuUv99EhK0ULwUC
YxzcsQUJFX7EnwAKCRCUv99EhK0UL3UmD/9Giz8NpB2pC/SUvEtALhsfSUZKQEAv
hjKWx6OVUWjdQwSay43eDal76PWdrCoj+5BUjSiM/BX5xRet3PR5fDsisfzCyDJ9
jZyEM9HtsslwLpoQdrpPs8/xYKSh475sF0dD6Qids9Z9jQ+QNRGzuAhb4Dmgv8RQ
GZIhFQQhmY+CV/KJoF+jPR3o1rw/xTE6eFTqKUQc3QEMBjhBIGFzyT799tp+e4A2
x3DLEjLqMUkhMqeZ7w/rsu76HcRt6PLcGTExRuXU9bB8thXFdc71W4bFYRgrt5Mb
F9ybQRiV0T3VI7VMDZIQS0jDE8bsFw/3OiWGQ13i+R4B6L2VaT9PFWzXx+8yhA2G
jGHNyloFAqe9QOjkNUO1us7/XDYVIHIiHxAnxnyJpYNlsjNMjJ8QTdK+aqgmX8vs
AKP3zlosIH83akElb2ZhD4fgHm+S7dWlLBVP0TPKyXAz7Zi8JRSwlNrNwzLXJyJ9
A/dyBhXHndjy0YF4CRnbSRkfGHMD2Lfxwi9Ws7MMpwqQZciYHAkUec28wStbv9r+
7DgynhyJdMJDSEpeX0mPMTewLrtfs3fsd/CrdDWVRqF1xYfj718uzobAn+atTEtf
Erq0Hf7kMUbacbfbdHsxeZerVut6ZNvmbw66RMHtTT5rZGW1P1eMWtuMrA4pF1iK
CFyH/ehg0j8Yn8LBlAQTAQoAPgIbAwULCQgHAwUVCgkICwUWAwIBAAIeAQIXgBYh
BDWxffV1JXfKDFQc65S/30SErRQvBQJiLny+BQkUkGSuAAoJEJS/30SErRQvuWgP
/0BNJFDwE5azF1q5ZlhXNu3rSx2xP2JTWCKezK8TQP4xmbBOQKM0gK1mhzsjm6Mc
BWZaGjMhjXHroDIvwuVJZR5jZ1QUfa7XQW7gpOHqoBiTBCw3SvnupeMqoOILsRmp
8YZxD1ZSvrErAT4JKtwf9fNfKeBnl7hcKvA2qYATCeNF/RzcAx5i4BeQsjZ8Ekqd
cPth3EKt5OXaATdTI0w/bdjGUiSkYV4VO8sxxFlh8GRfHpZugyWUD6wLMvMRe05Z
4Hs1XBntl4JDncWomup2qo0iDTUqGC6PxjP9eZrLkSlZxUSp6+AEfvJncdca1F9s
UrUWHetoO+zgyOADURDZaIVQFPOAjJpE8pcdrGb1NLMRRPkbZPLtLxuXJgxoqkRX
GldkKQhz3OfpHf72tz7xEBmX1ygpgOZKgjJH0pvLxIFXsJjS4a46njDM/dqwrFNb
d9vp4UN33do1IJgGw94xekTRbs8XT6pXdtUvWVYTYX4VZqTPn1Vfkpb1orW4+BXP
GUPbXQhJZVJCLZVIvKjkt+tjHzL0k/6p/UOKEcgo5hlOdS/cA99OvXYJrP/ZwpZb
ubGMjTysb4Df6AZmhD03tIscdic5x5QPUB7shsip1YFD07G+uq9iWAM6NI7pca4U
IMcJf/gAFINbV23+V0fNcqxaROM+dEIrS59tTAbqK8mTwsGUBBMBCgA+AhsDBQsJ
CAcDBRUKCQgLBRYDAgEAAh4BAheAFiEENbF99XUld8oMVBzrlL/fRIStFC8FAmBf
T1cFCRLBN1AACgkQlL/fRIStFC/ixQ//TD0qPMykeZQvzy2pO5GR3bFvw+lTXaEO
ZFoFaMTzOwkNQC7nb46RTW5zbny8YWOHanG99eL7idQ1y9TOo0eBOSKs0pLUbBMs
6Al7NqFerKP5KbBzxuRoe+v3DB7ueRv/bk1WHYyzTTYKpVw89bOBAHGVPhIAFiC9
d84PZ+nj3ry1KKD1aJrx5TMd9rzXkRI5SZ05DYQ0UpwQzVfULsLSVsjFEHlqj7Hw
3AZXIShThwKYXp0bcWW8PBwUqROWTKTnGGy3DxWP3UWdJHIffSxcc3X9RZPyKlBO
ZP3u3ujmYS+K9UIe8esjyoGNoGf9IrxOkDwnwaKTa75JAFuyPf15bonaaShjseQE
QRPhFMfegHgyKTjO5J97bCXt47zAU+M68WYprGbQj5aSTFOUsTmskRUAm1t1WNCn
NhkI3EAeART3exVZSewlBp4YCFvyxHdJvKveWS+vI2v/zRLhzMwi8cpl8tmdf0BS
6bIzvMkXjCf0aqBKdue3LdP8fuLqIy9zlTHJqIs43plnKi0EhYrChpNDRELTSkoC
fDO1llTzeU3vPlWSZLNalVYcLfywaT31MpP3yuyTpET4KCIppZMPlzuqQ6sreHiB
23V/9UyDiev8FSbJzqvKqAOmmEC8RY1mx1XU6zPBEP0fv+UN0fcmGUkcubkV928g
ewomDn7J1pbCwZQEEwEIAD4CGwMFCwkIBwMFFQoJCAsFFgMCAQACHgECF4AWIQQ1
sX31dSV3ygxUHOuUv99EhK0ULwUCXmGT0gUJEMN72AAKCRCUv99EhK0UL4AzEACV
y4sraTcgS+ejAQAmMYDbSrcF1ljjuhh+SYPob1mIJ30A8iorVAFhXB2/ILHf9UF7
sRranUgvtsAzqQmf+yFAtoXkD6QZJm7BPY/wAkrbsSeEeNn/VpdqrM6Dtns9JUSK
L2ViWwi19TTt6OAJTRpAslrFKPOcdPV92vMVZzHmUVW5eL+FkTRSNUpWHXP8jho7
UcFQotWXeOKHjzMvBRTZs2jn0sQ7x7gbhb9lKzszw8SqSCwpeXI+Kv/jfC9YgzXO
lQow5fdq2kQ4YaQYphKNfAObP262z08UThhS1Al0VE0YJnvFnJ/M1fnQRJpk704p
kjWIS73BR7t8ylYLXfKwIveYa30PJWrlObP/q3fC566Lllvkxp9jHX3dHnmpgIyn
qakpP0StcL0WeP7pz5D16XYeeIQeIMTYdHG5m2sUIjPZTNVD3xTu9Q0Ido2sUrzz
LzEKDjVMs9sTjO900nQVxlIUiIbTniLDxM2pB12Wa8pKHpZxETTQB6laVuYVXcQz
kc5BGehHd6C9HmDRWCQe2Dma/k6ROHf7SWPHF611B5lt6PcF4D/YDNpXh6VKla1l
n5RC2cX6pBu2rRnBwt0rB5ROIS3/LWT1JHhWYVFnkOj+jBiwAjVJHL/5CSWitMkI
k6IRM7/NfPdVLhA1CKTz5J95icq3odc/ic07ifi/X8LBlAQTAQgAPhYhBDWxffV1
JXfKDFQc65S/30SErRQvBQJeRuq9AhsDBQkSgdcHBQsJCAcDBRUKCQgLBRYDAgEA
Ah4BAheAAAoJEJS/30SErRQvPaYP/AtM0THqETYQWKz6oihl7bgzU7gNG6vqAaUS
fIIn6heF14d/6HuAQ7HGCAPgkF9wUMCcemkZJgR/IU8yHF6pGjYscWZ6eN/9YFoW
jqE8Bslp02pOmOPdxiDP8Ix8VDPapolDRvIQwVFDANcNge7vpk9CKD274Awr9Aqk
rtWhyqjq8cGnfvlNhO5DbZyZD98jNkTNlnAbOHXp5lxIyEuF4Noxgou5pNemtVUh
+Ofarz1NM06i4RpPxZsTohuAIc7/OOykLSGT36CQuwFAtboMeFgB/eS04HQaB3NB
020/5lXAZYEgx4dawmqAg1wK6C6Ft8k0ajtc1XymdYbu8S05LPVCESwqIiNi9Y4b
XN7aPHt5c8UCriPiyHHa5aR7t0bFhEyguxDcB6u3feGzZOXebEa11q3FrGtnMG10
jiyXJLC+S980Pw7PnQAhGbQFBNQo7uuK8DDSMQVjSYyq32fSBeWenuiJVroKF10u
ZinqxbaLBMrjT10vr8uYsGHwgufRhglpTbcngh9IyL/Q8bl10kqqE/ZANhhtfK5N
nV9L2hCB8245DBKT014PbGBHTNsqYALNzQyycesz25QmcfaDr+CId+Ee9b+P5lBu
yoVAwmUYzDFb53SaiDlYOshzgRG1Lsx5V6/x7zd0nXMmMzDfx9Oa8t8YSAPFqhDV
7pyxXmMWzSVBbmRyZWFzIEsuIEh1ZXR0ZWwgPGFraHVldHRlbEB3ZWIuZGU+wsGU
BBMBCgA+AhsDBQsJCAcDBRUKCQgLBRYDAgEAAh4BAheAFiEENbF99XUld8oMVBzr
lL/fRIStFC8FAmeqfVIFCRoMZTkACgkQlL/fRIStFC/n0w/9EDbxPI6EuqJD/H6w
Z/58Wr7zpqkNTp3R3um9VOmS9bnTipcl1gjTQzX3e99osWM8/yeUeG9s/rCxG8tO
jtkjlJRFoFHLk9d0jC7kkvtgGaz21+UIeGAPgXVLSGZN83Zq0F9YpgWc5xYVgMlo
5FnFBwIYVB9xY6boZ8IV19vwZRzo9TmFAOZVIhBhOMyNk2M7AqDWltcKVEYncpiS
N1ERcGaYMJSiLqlXUzUO/7vkvj45pi+v3mPoucoHWC/xSV5unT1dMLS5ESjGlO2g
tACjO9M3iJwfgeF/OPrbi+fflVqiobe+E5coFNb0m0FrEuI9ociPZ+2zAPEZqGPy
/iXj/zG06fXqDexpoU+G1ehQwl6JqjqwNYZhQuUKLGtoJD9GDjCQdM4nlGqUlYvk
MQgjauiKl7dAnDN4XcH1nf908t9cphZwvZ699vjpcOSuGXnLZ8yjoBGM0LHsHqvh
yoyG2/f5t60nLi8wQAtFqHhf1gyqVjA4JwzbpyLbKcd3SwcmV/jJwgy+IpgBz5p7
+m2cL73n7p9wccGt+WXtIGnPur/quADPdtCDr/FjZA2OSvtYLAOYOCJLpVgiMsz+
Bs4dRYHTXmGATg2RHR3gvZaVAAd/374NI71bH7HPYj/e1QVZYP4Fh8u1W9aNxTw1
zer7XGNY/A/Q3qO9r2c1qkt7SFjCwZQEEwEKAD4CGwMFCwkIBwMFFQoJCAsFFgMC
AQACHgECF4AWIQQ1sX31dSV3ygxUHOuUv99EhK0ULwUCZhGSkAUJGHN6iwAKCRCU
v99EhK0ULz4ND/oCZNiqbg7SCxLO1zcUOCGgx68HW3PnZBkf2+sh7Zcxy8rGzBUY
l51x3qXIZHJcdCy+TpxMsOnBankUVF4KY6ZKJbExJoYKyXIYNI5mSEQanuM+cy+R
ujcUST35QAHoHdeCBtG1ggYpKL0JORaQ9h8z4ECPuakPWp7XPjmxX517SYq8miGY
vdrYxYulH7bI314Fbdr6Bj2RrY6S8tikfbk9LZxzZIjGNSMubLNbM6DybOGdG9O2
0Upq5omyseD7QDash4rJXpf6eC4csFX4+czR5RZdwZw1+yQPzObI+vrgALgcLaoS
vjpHreWKEueoSYAKYTnnUSO5tLl0oq4CJTBIR49BCstiIgKlMfmMivTP4IiPBG0l
YNgasBJ1AV1TGTTQ2jFpIeARRMv5yEm+pzSSxNpCgHh6u0AIUPumO2WArofVk0+p
AMXoH9sOb1V+l3A6AWhWM00Uk8amrZofvydmyftF6UrPLQDdGArRv8GAWXIN8Cl7
7m9ch1DHu/A8Lf0jf9C9IvQUQD433unjF+/rpC3nWZcIg/40qoCB7uZgvupKDiGm
sfQSFxKkjJkQV39HWewf6cBTBBq80VQQmVx5u+hug23G+YQetRbvGQ5tt++jPVuH
HojIZo7PNpcdG2RANkSYD/VT2Rp1n1b5db7+eclsCwhVzKMi5dVKOXfNiMLBlAQT
AQoAPgIbAwULCQgHAwUVCgkICwUWAwIBAAIeAQIXgBYhBDWxffV1JXfKDFQc65S/
30SErRQvBQJjHNyvBQkVfsSfAAoJEJS/30SErRQvVnQP/jdOp36gbSVBeSXrOdwp
qgWwA60Lh6+MVfmWD58DnV5yAHEaQng/c+gS/+M6ExcyTlFjTUt+pRohR+9RKqg+
iZKXUoJAXrHCWfQtOkCKHtQYONiIohKa2w47znsycgQ7gQBiNugjnYZIjusO3GZ7
mEDgbayCLPXMhRuVoX/MtvkSd2VMIP8ikNkUOnQ+U29OEp66I7cEmg6cGj+wx2VM
eRirfh0wrx327CbrgS+BM5qGjhT5UgGuMlVOw7KH4PfmN+Q6NlS+KwJrqR3mIsWB
1nxEJKzwbf5LK5CyFvR0o7hMkJHZpgfoNMRiVqRd9Zox8gODXRsveEhEZTa/LtC6
HMTGiCFyWgXAT6xLNOXQjjsdy9GPcXfGX9jcT8tcmBl26yQyGeBdeh4/6bX5RcIB
veS2b3Ov4Eicrno87xN3U3G3P0VSYSkbfg5uZZyxkKVXa+iNGwaFsO68ik8kf22w
pdFu881t36IRP8C4cPDHK2I5I05/sd1B/ZpsL03hgFfyVBmP2jhqbzRiiVmBoMOc
zQgi1svSgSaGpGxnm48EUtTckRtugQfyNcyK9dWXyc+hWkNuy0tfxCcYzNzwbW4o
8EnRQBRJMiiZoPv0z/tpAdQHWawfyTm/vnO5HcHid9oQNuKdqJ3v+l2UNnnJZk0U
fTOPhoH/mvAYRo5GChlD92cJwsGUBBMBCgA+AhsDBQsJCAcDBRUKCQgLBRYDAgEA
Ah4BAheAFiEENbF99XUld8oMVBzrlL/fRIStFC8FAmIufLwFCRSQZK4ACgkQlL/f
RIStFC+mDg/+Imb4AHH32jWD35lESieWhIk53i+lvGobQNELt+7JNdWJIKd+u9ly
7AU5/0FQREkYzKtvmdQ0NiR2MBPr3me6UbCToILCaoRKVDpdI67LfNMPmKZcc0rd
rojZm0mUO5pToRW3Y4Grdn27UsLyyNzyNIdFC+Rn0tcG9v4AJ8z4cLvWQi//hy6+
qLBUqgac5uYK0kY+qBrkywBYNyjJ5+3gdpOVwaHoUGvujuCZrzdHvWTrx+SdlemN
8KmzlxyGYPdLAAUip132dy09W4wUGhC5n1dNejJh4ERLNwJbttvfxyIsMHbHIgg6
lCsp7FNYU60M3DxVIOoWc+gLi4eJtDB5q+H5m0nr+QV1ATyT+brvvSTkGLet7wZg
cfoYa3cGRBx7FQs+/hl4B2e6Xsll+PeSqJvMfg+WczzsdeeC09I/OkDlGFYBR/tB
ueLTAHP9hxpBrgowhnjBscnk8h0iPwD69dp1IpYqbwsjhrlsdmrahq17UlOgIvhT
bBYRmjRlSBJUKYTKE7ArEe2m46MFqhjWfQci/BFGqnuuBf7yjtK1JzGbF1ea/QcQ
HjwL8fLFFBKJHVRU+vlCipbmBZ5YPDOQ1/JNMID7AE4E8WIO52SNrBVNvz+XZvpG
2Bw2gJlxhaP8wflZcd4o8VizDn8Fs5pM+1LRSv3Lc20dqPXX5UwRfWbCwZQEEwEK
AD4CGwMFCwkIBwMFFQoJCAsFFgMCAQACHgECF4AWIQQ1sX31dSV3ygxUHOuUv99E
hK0ULwUCYF9PVQUJEsE3UAAKCRCUv99EhK0UL8+AD/44quhQh2Pb0ee4b7ebCVHz
3aKEcwBtjKdvYQGTnBgn7krVsKimTXueJfsGRRm5HYCkNhThjLad9AvQHFd05mWX
OYWNvGExgSt0nB6W0UsvQPmZCx2bQ5UuZWCPg9LLl8mBXji4fsAndmF2hL7ZXBse
CKdnN581ZwjVTfwt6dOgaWs++3XMZHVMOUoUNWT3QAyeenH3K6VhTx9TeDC9bRUd
p5RNnEJmgXnBCYpZWq5mqLtNE2N3tHL1YX8sPfcqBUBNkZY1P1uGgoTCapP32/Gy
YErozXJHffrllgrGvsj5fBa8++e1DLeYSCabMqwMMgfM59zylXhWGUmCx94dAxf7
dp+wWdpNTe/oWXnmtw2X634jtJ2Yx1XLZw5KNoNcjB9r+QVCYaTI4bzVaA2+D6Mr
dFCuE6nhS7vwX8vEMUpoHU8C8yXc36P73AM5ASuzWjir8TjAuZnGTSK762r6job7
Gra1im53WLYZQ90j2D+ZIaZq5RuOAIf9Deg9XuVk4CQt2Sw1k3WiLFhsxGEiJIMs
Kzu/oQeUSbmxFjfParXnktjgSZ8rkzwbv0hbYQzk/X5PHN3b6SC/NbMgkprr9rB3
BagUxBRAXMSjXJwzsKg+ssZHy6khFUI7PN8ZndobwiLi5dND/FxSMLEYgajAPZbS
xp3HHiqNkGlxrFyDkbj+TsLBlAQTAQgAPgIbAwULCQgHAwUVCgkICwUWAwIBAAIe
AQIXgBYhBDWxffV1JXfKDFQc65S/30SErRQvBQJeYZPSBQkQw3vYAAoJEJS/30SE
rRQvky4P/0dpAbPtgKfu6P9GCG/RZ7WcM/okzn3Qm8D5ujZsccNpMEC2VWqIExeY
deAfiMRIroaifE2ew94znPxZUfOkH6I0xCKrQ5vqtZetL0YJKb7fj7p5WGEdNPwu
Y7hCp9hf24UxdM2vLn4Z3HVgt/CtRCZGwaROBKiaipcNsq64Jkl8fFe0qiFm40Db
1776uHBKzbg5WAalsl1A4fBo2LI88POv/zpR1tYx4gC2b4tCK+MBuQh/IjvkOPpp
aaCyqwF+lfdQF31f9RBbfgAGl6s1S4QO+TIDSWImnHbplaLa6E8on8nAQ5l7Yv3U
vz3VO9mRV4Np5WO/jzNyn4xpA+07g32Vb3+wYmemgYUV7Nnff3GQtOzLAAAx/Htz
Bdt/4o036A9OZWAVnQGmxI1ra5UxtqpxZ6KtegKScB2yqRyRjB9u76FbG44dWeLh
zg9Y53EHqw/l2/FF5fbh1YVORUvIvL2viZvxZyIPgbiS6vPedbGY9zkMjoX+4RNu
gnRuCFx4O6X9fsfPZRmig/94FysY9YVBrjFhkXYBcoMTEwDE4wHv1PccIVxM8D5r
ivrrmI0BgT93v4WjEKKdbxlM1hlH1qOM0h3bPjotaTymTPxbbvMo1oDQ+dQzvPrx
rWklX0e9dEEB7KhuAltJk2BTcxAdW8/N1isGtt5W99F2AFf6iYXswsGUBBMBCAA+
FiEENbF99XUld8oMVBzrlL/fRIStFC8FAl5G6oUCGwMFCRKB1wcFCwkIBwMFFQoJ
CAsFFgMCAQACHgECF4AACgkQlL/fRIStFC/BgA/+JhEO1Vn0XZvHBSOfdAOr5xyM
OYP9g/UheUarl7L0wlB0eT+mEbjszKlaxmOTMqm/C8DIcBAJKfHXxFZh1z0ECioB
Vfjnm7+9YXSLEbNS7PdTHl7LAuLAAytQw4xIob1yA4r3cV5J6aYjH7+KGPm1UXcD
Ks8AB3gHTY4xoORhUFtdie4vfe76FuS9YeILnU0uR+bePziKyTYXcgOBYlc8ymI9
itOyYHGonGc5rNCqOHVCX4I5rvQqAc6wYChLvkBwSlOXeYLRkHQucrGx+youkfDY
GFY8fN8tb3TA2qdp5GbaOYAdUL7qxpR6iywuk/6zcRevPTLwVJx6YwNwPxLBC9d4
svIsRUX/biBnpmrAVlY7crsagPXsLbfKOWyLvkp3T8bW+5hMZgawBZglQZ6hvcRP
Vd4W//rKdKRJN6qULtiHFbSNIxzZA4HBVYHu/sT0UYoh64Za7Z5uXjqYOskPUH/9
OSRBRVogeOpVykg/ht5dXUIkUcAzlzmmckx8vKHjNHjC5nvVmb8ng8/i7yMB75nL
H1m0+Zowm0G3ZaVoWzmegxz/MDtH0kW0q57rNDAzsMGkgLJoAhHSjvaczMzRZof7
301j26jIvFeL7BjJkxOMzX3Dk92MCOMtTeL7zkexsSE0Zy48OXTApP98LoeeMO+O
sUuHsDB1kMXPxVa/3SzNKUFuZHJlYXMgSy4gSHVldHRlbCA8YW5kcmVhc0Bha2h1
ZXR0ZWwuZGU+wsGUBBMBCgA+AhsDBQsJCAcDBRUKCQgLBRYDAgEAAh4BAheAFiEE
NbF99XUld8oMVBzrlL/fRIStFC8FAmeqfU8FCRoMZTkACgkQlL/fRIStFC9LGw/+
KAq/e1wiw7WD9045EK1zqEhbqPyWnSe0oAMaL5Y6+EP4zNmBxJwl8YUP7sE16Mok
3yrfzDCxRlOfYMs5Hv8CYNkilw23v3Zu6HWM/ujpJil4JdTeKdY8Cdn3vMB71q1n
KWEyzvVLolCIdB534AG6/kRXBuFckCOK380IW3RBJ0Dmz43xh/l0aOfqN+pghWfL
2hm/rN9qHotNGQSnhLRe2BxX858xjHUhn82/4mzYbTBpl/s9enhM3H9J/b6SIavw
ViP4CGkI9bhhJcZMAMYBNww+Kd/n+c+Yn24dH6ado5qoLKiOduN0DKkDE4nosr3J
QslwcWaqCjdxj7rF4kAy4T1sXbwiT5GjYADf1R+TatDb7TQ09oVcEnNiri3wfoZR
ATkeGScoRdegP8Y6kDuWZg4hrgOQBInGVXw0dD9seI0VKjLhAj1SxY+9gll3uAxA
5rcJrywLszQvtzgh92T8QV847MYf+pzEWsiYcLRl2xNQngBH0zG7poUOq6X8hLGS
rlYC21IEtST6M7kM9/TZBtkdyakDVS950R2fDpGYIQuc0/icOaEaj2njooEGrT64
za5Dyz8NqT0UAu21wvaylwaExBa8bJocL6RqK1AtIDSsRxoOpQZBuNIFAUR4aeeB
3Ne7It7tEvKkOfZ2Kso5OpwfrVhfNZ4SxrXp597wYoDCwZQEEwEKAD4CGwMFCwkI
BwMFFQoJCAsFFgMCAQACHgECF4AWIQQ1sX31dSV3ygxUHOuUv99EhK0ULwUCZhGS
jgUJGHN6iwAKCRCUv99EhK0UL7FFD/0VcjECVGONvQq0k+9sYJIqNUKrkzrm9EDk
7+XXZpHQj9Cz2lLPHP15TI4Jt/iXG+jP44tlk3kFpT7YTMBXzBKvfi1QyVtKw/ZE
AcKHwr83i+JVbnn7HidsbLkrKX+IayHNXR+to53EbgIb+B39aG3lTxWuGMwfj0OW
u2SGGUx14+kYThfXnsGyOkgG2buaD71F3AwVYjlNaHrUzk+Oct527LQg/5Za2o7+
qnVoboFOWXrs+gLFg2dZhPBzuspIsBIAptwo1f0lgM+BNwM2BgdY8RoDe7Sq4FpA
cH4qsJwbpADUIJxQ5rS1v3GhmD3QuIiEPhj7RnOXhDspfvky5BXoOteVIDaBquZj
0DJqHCTAhsfYOdC7KJ18z8dOgWJsCqdrbZBzCo6i3QXJbYv4pKUTotyaZF6lgrqa
RZ9/9+tkM5U5Sb/Q6U7HpKnmaYzrN1Tzih6vT6GIgjKBuNvs299lWghQarOX0yG+
RAHRhYnQVusXbj4go6Hwyvom9xJ6I69eOoxLiiHhopoABLbjT3/+e3DUs+81rb8l
7SULBKVPSS6D1iW3ngDcli5ujFtzJuHjoF1P42Nk/Dr/iUpmG4aWK+plC7YW72t4
KmfA7BaidIYD5SrpOvraea6oc0rV3LonNdQzHhzgssZLJzKOCC71lWffQBWeiLOg
TJ/fv7/EF8LBlAQTAQoAPgIbAwULCQgHAwUVCgkICwUWAwIBAAIeAQIXgBYhBDWx
ffV1JXfKDFQc65S/30SErRQvBQJjHNysBQkVfsSfAAoJEJS/30SErRQvJmcP/AiJ
LYMTpTYVoIiIu/TSuclppyU6x/3dOz8FRuj0WH/jChqvLKF3Anq9V8Z5Vv6vWKug
vsbkkLPbnsxMGvAA43oH7id0G3WY29O1F9HPTek8hsFB8EGNMq2urhqLcaL3PkrT
WI8k/8UX2+CWdn7mThwC/zjGm61WiwsMHN+K6xNFJ73YSyKteXLuH5eI+5ermR1m
ay9s3v/MwzEmWMzFpQNVoSAMi0qU4lJPShNO/LmGF3RjFXm7RJMXj199B4DMTSxT
yXkD5elLeEPTUon4E/fCZ9h0W0AhxmT+ChESrYj1B6SNVRuALsKwB2B66SjBK9hR
6/qhSX+R2Py5JzACniN9o2v/s/e2JYJ2Ira1I780XOTG1dB8xfEBiQQWTapHXS/S
SPtysBTUfoJIgKvt9HZZkUS1oPpilg7ZVevOrarjOwGBjX8OoZgWj+QKQcnGixOy
LQTVR0744f3UgWhzIXcZHhmQBDzGTcCuMi5tz1amzyqgAqc3ePHJwermvNge82KH
ZmPy0FlGSDGv8KRhyQpSx5mOO0z8E1ApHAcjM6CQiUvRlIpcVV2B1pohmxxGJVaR
ulIgrvZ8ukjwzl/TTUJu5XCOMJpvqufZYKyh9nY37fxWiOXlr1k6pmDfWO6SzTdL
1gkIvPJwbqnghW1Y4VO/3yltXetiy4IdfEIjWd2jwsGUBBMBCgA+AhsDBQsJCAcD
BRUKCQgLBRYDAgEAAh4BAheAFiEENbF99XUld8oMVBzrlL/fRIStFC8FAmIufLoF
CRSQZK4ACgkQlL/fRIStFC/KAA/+IA2ZmWUhJaU7ETKXYah4LqvFr8f+lJAhYDo6
YWGgIKLuzRITCUMS7R+4jL1tpcfEN/+XNcdtq1fcOewHXuNgsXXmZ18Js3pzISbc
qKH8c3Ir1HQWzbX6hCtf8FTiw1Ht5KYvkw9eD8NK3CR1FdRUqipwoPHnUCyGUO1O
WxkWkHDVgJMCzyi08pjmP/9QD9y+8+/nLp4da0DmqI1iPeqn2ZxLi9kEegakp5jP
3YpJXNy/R0Fi7jtCzqspgI24fio+JkvsMgoyX9Xgypxh+QbKJH9gKfSX3K3qOCni
rxb0J8ZGeeBviFmn7+dpnFLnI+rEOAnX3JkfMx84RhwC4VIfGfctAavqGMytUy9j
XE4/wn4ToyzwaiH4egEc9BNGBn5SffSdd1aRobMjkOBRNHEeQjZ7fSXfmK1E9/Ji
XOXUnb/RAPZs5WpaUi4FqdIdIT9y/VK3v+zLhCgLYSpm8ruuEwfu+okUdjfvzlBZ
ScBrox1C13dsmkSnPm1gUukz2AHMkBKYV/n1fKLNz3bGzjCgou17PV7fhriX2LGL
euvC8EQdKWtC2tNV892ZMxuTL5X2a4/cGNWtgRN1j1rTQh8IBhHm56Ca4GzAeU/T
kHqUL17EIYJhn36uCc7F0CFQ5nKBOGf4Ufn8qJ0k+7gUqBb/0rpa95Ai3gdrnZZV
FY71zGjCwZQEEwEKAD4CGwMFCwkIBwMFFQoJCAsFFgMCAQACHgECF4AWIQQ1sX31
dSV3ygxUHOuUv99EhK0ULwUCYF9PUwUJEsE3UAAKCRCUv99EhK0UL1iFEACJFyOR
Y7lILdZ8sIcjfNEpVYsHEXzj2M4LnX5k38Tc8X+UE7+BHmk3BAjv3J8XH1/7Rzbv
2WuEMzi8x1s02Ydgo14CfbnQebs4vkUFCZ9gq1nIlb8texKRMIYLN7tDkUvQTc+r
z6B38VgrlSam+5/xN2lTY+s4grsNmjNOurgHc3MsIoG5wUxbAX+8fQfn6EhwcJZ3
6sAFtZfuVgi17vGbBZIMBzndPx4gg9PlEwLkvFgbp4PqzKm0iwLLvJw68621EV7l
6BTj965pXXLBizFPvEcuiLmnDGoO9By3olIhktqbMuM5/SAQY2TTk8t7TWXFdQCt
8r9sdIaUaLmwFX4RoTIwOyWINsTm8VLNl1yu76FXU/jWnOIX8NGU8YNKqiYTXH0k
2xwljRuFCZzroHOMFBA1fxjay1RzI6d9thyvwHuRofmZzv4X+8hxMZ0n6DGlZbst
c2ExbnwDqOuPQsHvzPbfuYG+MjjjW0UHeBYA1lqhWv8kpe2NucGQ2fWxh7cI7Kie
72ics5Kd9scyShKJvUI6weFzHAvFEwz0HUf5rANFlxKQL2+JWIf0GXQk8YT7m3aT
COBzXsbOtkWxudlFzDQ40QFkJ/Yj/1nqo+YqLe6o1cXAroTn9ti6FRtNbyNmLdvk
S5OopZ8hmoJGXvTlyp+PdzX9vD9pRs7CLGdHhsLBlAQTAQgAPgIbAwULCQgHAwUV
CgkICwUWAwIBAAIeAQIXgBYhBDWxffV1JXfKDFQc65S/30SErRQvBQJeYZPSBQkQ
w3vYAAoJEJS/30SErRQv2SkP/i+J+3Ed84LecXV5fzX2JSZj6BgUzRnPay+7yrWJ
tt+2qgZI68svWgJbNvG7xjL5kXX3JJ6f0aN5hKkaExVmRKE35kfGbPI0j4DSCyeM
o4Nio7N5I7253O6U5ZWW84pqyeJPmVxvl6QoKC4AoeB18VL2zuEwwDs9Mlq+a3lP
VgUlm9RwMT0Ybi/Jrg0Aolmx+yK4lPx8U+mKkQf3nmKC1YHdQ2wAYBnYASKS96DH
o+R8lmrCHm+NQg0awsx0bp81eXM7vD3Wz1ontjCE7pjiSFr8s7nzoxTxxsGhaemN
G+vgd43vQv5JyoWIAn0uf71XQitpvW+nrzjDCSDgl+xKRWl+E24E9R0r54eNm3oI
FLsp+X6TZKcuOvZcW/7nASPRexOFVvHowqaXj7w8e2IjvUoSGbs02ZtfG/sEnMAm
kqQ/pf3Q2bYTOoww66fVO6FFkeiZgSCWMJpakH/TpKQW2u2MKnYpxd7fZE88JBOz
VEnpE7pa3+ySoaTjkAUps7eoz9wb6aDot6tRce2Itg7J4gW4YWIn1zOmIqgEe0kT
317iJCBkmUhoQzypyExQTec0je4eIEjPDgOoV7vhfBeDs/LR161cic5IDWPixoWq
JyB8cWkER1udITEHNGej+X/PHMYWqWTxLfG03LLC7cnR5o3TbP4CVSeK9w+iGN4K
0d8SwsGUBBMBCAA+FiEENbF99XUld8oMVBzrlL/fRIStFC8FAl5G6d8CGwMFCRKB
1wcFCwkIBwMFFQoJCAsFFgMCAQACHgECF4AACgkQlL/fRIStFC/45Q/+N/NHBfpb
ZcHientJjaV6mGIS3n7tJYBuNGdG5CwXK5RpA9ddU+jty2qmTirIPY5exss9BrQJ
Mv5CwRoCD9cSLeGnGSYdwPaTKwx2TORdDCeulrmFRX59oLdfxnJiEEp01QV8Fdrm
PbHd5CTpnkRya/TwQlwWNudLP7Gm/ms3NAmleeAl7eGsk/Km6pH5yF5c//DWfe4Y
QV17+vSYHC0OQ3S/ETlyXXuVQ1JpgnPH0HHQSRB/TFqbCI+r7pQmwGlVkU4YDxzC
mFZ8NWQEoBfjrPv3Pp0j6PNsCj5CVSEttPDaxx1exRpN4cZ0QJB01OygNNUR+Pn1
sEFndzu+iGxhx/FKZ55jUmU4ZQU3M0ddHu14CgkxLysL12OnNAEInSltn9oohiim
PIFmSdJUH/Yu3e++sxNThwmqpKP4pLtFvyIBEk7DELDMbcp8KYpkWPFgFVVYMhLT
4peWNH14iw2sRgStB0p0bJiy1yFvJ2DruKK5N0ZRizGGgDjS8VkIOVbQ4dHQye5l
hoSjJzH0U988ZYqpsrciGBTQ3t78neUVlVjcTgVvSTYPXMBXgrXlTzRoszhm7S3Y
TApJD30xEHV/z3kfFCfWMnsnzh+d++0RwEqS82eQKLScqvLWLu7/6VOg2EbtbtmS
ov0lm1qZvGoZ1jDGj101X/BiuM9KG1KIJY7NLURyLiBBbmRyZWFzIEtsYXVzIEjD
vHR0ZWwgPG1haWxAYWtodWV0dGVsLmRlPsLBlAQTAQoAPgIbAwULCQgHAwUVCgkI
CwUWAwIBAAIeAQIXgBYhBDWxffV1JXfKDFQc65S/30SErRQvBQJnqn1ZBQkaDGU5
AAoJEJS/30SErRQv50YP/is5lj6mwmcwidIdG5GuDdaJOJlVTzStAqYDm5hV+ZkB
7vnAoqOogZ3RE0rISjRGpKeiKAHOxb8b3xVcJzS/QI3E0BrKnp3VzcC7twNRJMcY
PRLLUFaXBXTqs2VLwbZinL85ZvmcoWx10NfgpEY9PlCpDMq/tiXYjnxj+u/qUePx
X+qgyN3w7jD6L8vZg0lejRtUoUNfDOIijr2DrTmF0WQF3E2xDuK3D3qOsa0aQzIb
V5W2Mzsj+WbVzRfl2s2MwpQGjKwJfylUVU3PBFnFp7lVUZ9XUSip4Fq21kjLN2L+
pBIqwijLbX7/RfwuyhEZXDV6V4BkSH7esjcZca1t/6CjQJDYb3WtAxYxfdgqMXvF
kMJrlQlEmXVFMueHUxfoKTezCCstC5Ylx1sIiT+U87y86pacGIDgdr41sROC0Zil
Eep5Ab6lvBn6JkaMTnTySQu+IbcO7ploPANSuesgikJO7oeJ+pGYDKa7LkSQBxgD
5KKM7NfPg8XaqtYmhGl5tI6SRhEKsVY1/ENUoq/X85ooxrBoFTB7EkTJPshSbYqQ
wY9ZMGzzoFo8rzlHj3qypbZf0R3xUdqcoGSQEneKwDcung/SKZKrpgHINYH5jV9R
J+0l8XJSsJ6nA5w8lCUTA7zxUWB5ro1TlgznyHObs4hUq5vXEqcmvZjVPtaCeTkp
wsGUBBMBCgA+FiEENbF99XUld8oMVBzrlL/fRIStFC8FAmYRktMCGwMFCRhzeosF
CwkIBwMFFQoJCAsFFgMCAQACHgECF4AACgkQlL/fRIStFC+84A//bsgQ32KRSmk+
L9DDyxUwmW9p3Sd5hHPJ9Vo9znkqfGHcBSqMuf4SBTyCXoV1NqxhCIMz0efpMXxN
/oyCt3Tvi8Xxbc9oDW399W22rY9HLJTNEdYIbq02XqnbB/qYVR1ZS6zcVvXO/yYu
EruZEZW6P5ywLb70ByEqHsE11nwRwvvPtO9+4BLs+8D8HpSvF+jIwe4WoroBY2of
qTokI1CRAhQyr10p/5xlG3aIcNFLOTWv3mhiILwqdjCwiEWK4dZpcdeEUu7imBTB
HASLTgqfsy1g+HHlOGygV8592nsEvTj1bAx3gVn9A29BmkZWvmqgjj7mToGTbBd9
tC91giRr5qRJtItFYOGisglX2LU2gZsBEru+TToHMjPHV/btiLIEEJcTzKqZ25lS
BhRoze4AoGnoaQhuX4fSIKpefEfPRvtv3fIaxLM9J+ICRkqUWKZEEIop/p18nYF3
AvaCdO1E+SjkWTaYhZ0GevfLV8z5FAXA9UaiIz5dxaf2tYcXlfDcs0mrAgEZt68t
TCYZw3AxtLDElCk8hNH5O1/Fzh1LcO9iDRsXYPqojWpfIN0HcHp7Hf8jGZzeCue9
SN7pH3cFUgaA0lpwPoGag46fmUr8LBsOF29+tUF6kTLn7tIoxYXxq53D5vs8wbZL
YBI0j/nAJ3GxtxQ5bWC0L7Y2oAblIk7OwM0EZDBU4QEMAKndXNh1WO5UPeeuYFlF
LjhjDMICTmPI+PFsjw/nKG5CP800Tp7j4NCrsihBQv+cwgbmys8SK2A3hDrmNdLK
iDASKe5oS+J2I6K0ww9Sat7ewZPFHHeg+1+/q+gbgEL52k6wWN1ihSFRish3StXZ
UONEHTnmzjz2WOHIXyP830871goWqI9wN1HNmDkgFVxBg02pOXmnGcYabU1Y7t47
sMiCSFmVgf6VhQGFThDRdBaRHubaMfXu7cPUpjNJ2nDV718jIK5MrT+fz4THebUB
0cOUOLPvy/hivYJluLo8hoW/SvDc9qjq+mlGQhe7YUZbrTGPV6yRIxHGvwSjSUIr
CHkq5vs+lQq3oc4bm8yafQGegi8Z33krxU40nMJqHw2SqovWmw4Qo7mzXlQHZ5ez
sHw3rwCwjhiQYk1fPYLpVAZ808r+38g3/claeZNY8OKNcPy/mq4Ak+lRi8Z1E/xg
n1QuAb8yw+gB/ZhwYVI1vYY9LAepu8qE0oDKJ4ydfgSWyQARAQABwsOSBBgBCgAm
AhsCFiEENbF99XUld8oMVBzrlL/fRIStFC8FAmeqfbQFCQc8j8kCIAkQlL/fRISt
FC/BVCAEGQEKAH0WIQT2MfTYS8Xh0CJ4TX8xP2BM/AqpOwUCZDBU4V8UgAAAAAAu
AChpc3N1ZXItZnByQG5vdGF0aW9ucy5vcGVucGdwLmZpZnRoaG9yc2VtYW4ubmV0
RjYzMUY0RDg0QkM1RTFEMDIyNzg0RDdGMzEzRjYwNENGQzBBQTkzQgAKCRAxP2BM
/AqpO3B6C/sF+eLRruitY8dtzwO1ffxL9ecBPyFb8TpOxgx91NFmmw/rMhn3mnCd
RSUJThPVuLNRUH7i6cmC9UlsX1sJUB0feRUhWfqcjQjUcPQBytILimbSLeZfqSet
wxKgB7h4NfpiUnaFU15jM6yUGS/aqiHtAdMMfVMLQpfsm56mH7iuCYAcn7Hvvhb9
37uRbfqu+QH4bC9TdN0sf4MKoQB5AFythe+sJt8YxiJwWELwif4Ai6wWwHcVkPl2
PvjAA87g5Dg2wAjOEyQmb0XUhytOvuESC3V5F25AvuI9qjEwjr2dEE7lCxmJHbFi
y5wR3HfZKlBYckNXm94n0hQC/Xrt4ht+YOc4k+XW0WKs4Q1u9JFL1pjt1/uPuHQ+
8EI0KkmnxT16ZlAmKchj92/yRgJK32MDG9n8f2ZMG1mISRVseWGT8d5OnC492adk
zXd0tjj0IYiMNnSvvYs1aNcu52NWFz3hHx84VE9957McjD2+T5YucqmQJL/zPLz7
dmymqFd3+K1TjBAAiA50Z5fLLGzRfqBsosZcnEYxPbmPWrC258sF12jf7ACh0oEl
1qt/lDCrPc9+aC1rTb0u33Ku0cG6KhOfMuAuEJfGvicVaXxRSNNNzLD2FWHMSYj2
9ctW0CrdVn1vJE1np7Xx/8Iz1Hb7YaawYxjkwo/44IEdlM3uD0guWuCgoKaBFEtP
CMbpt6yqzkWI237BngtW8yEZ/Pqx/D9QnfqAk5SIMHuEqYClaTkUprV4krTESHLV
uRQeOgtctverhzq/cc0afFAIlGLI6ddbliNzHnok3KKQqnBAbb+W16SWil5h8TDM
3Q9qlbe0AfWWfdCFHg5MhH1FjTqgWirBMCSEWukEyio8WXVtSetNusdduwOdAkwh
B1g+hOfAQnMW1nsNG3sZAQHWL/Wu96x7ATNWqA4rwpMbkk3quoqaedQyNKY4nyqd
y+KZmoMzqbhVuzyx+8u3lM+hpN4+HJDqwuBk47yMfrY4UjMqzUWnfdToYiCgRcv3
BC/UAr/2WfXL4unL2yRo5WPRZmDKXdlEg98pwBQjkF6n2EXd+2VyB/3DMd3C+hoc
TXMtKVRdImV8pCJ46dJCpPrSAIjj2/sGwgecUNbqyLcaHar4VosEUTpos1E0bCuS
ah8tbVH2qOQWLL07nuauxZF3HjrsiUacpStzhNGqp4tbM7g24z5Dkw5v04jCw5IE
GAEKACYCGwIWIQQ1sX31dSV3ygxUHOuUv99EhK0ULwUCZhGSZgUJBaOkYAIgCRCU
v99EhK0UL8FUIAQZAQoAfRYhBPYx9NhLxeHQInhNfzE/YEz8Cqk7BQJkMFThXxSA
AAAAAC4AKGlzc3Vlci1mcHJAbm90YXRpb25zLm9wZW5wZ3AuZmlmdGhob3JzZW1h
bi5uZXRGNjMxRjREODRCQzVFMUQwMjI3ODREN0YzMTNGNjA0Q0ZDMEFBOTNCAAoJ
EDE/YEz8Cqk7cHoL+wX54tGu6K1jx23PA7V9/Ev15wE/IVvxOk7GDH3U0WabD+sy
GfeacJ1FJQlOE9W4s1FQfuLpyYL1SWxfWwlQHR95FSFZ+pyNCNRw9AHK0guKZtIt
5l+pJ63DEqAHuHg1+mJSdoVTXmMzrJQZL9qqIe0B0wx9UwtCl+ybnqYfuK4JgByf
se++Fv3fu5Ft+q75AfhsL1N03Sx/gwqhAHkAXK2F76wm3xjGInBYQvCJ/gCLrBbA
dxWQ+XY++MADzuDkODbACM4TJCZvRdSHK06+4RILdXkXbkC+4j2qMTCOvZ0QTuUL
GYkdsWLLnBHcd9kqUFhyQ1eb3ifSFAL9eu3iG35g5ziT5dbRYqzhDW70kUvWmO3X
+4+4dD7wQjQqSafFPXpmUCYpyGP3b/JGAkrfYwMb2fx/ZkwbWYhJFWx5YZPx3k6c
Lj3Zp2TNd3S2OPQhiIw2dK+9izVo1y7nY1YXPeEfHzhUT33nsxyMPb5Pli5yqZAk
v/M8vPt2bKaoV3f4rYhGD/9GiapnQdOOslw8K1UGC7NZYGYcc0u+H/4Bdyw9TFv9
vFVEG8ZCnzeB5sbq+MolDbKdhX5uA4haQyzD+UE56WqqQ2Yp0q+sXPkTbruG+Z9c
eIZilgcswy5rwfi2aQIGMPumQ0n+o7ogSyjiSnVljA65FPbjL9LRVsgCm7Vu4JWB
Koxb1K4g3OulS2pQN6XTxug2Db4blzGWcftBcSBzN18YlztJ/D95CTbDkpuXOU66
DMPTSyCP7mZMIacgcVKPk9Ml/UifwZo+jJvYEmFTXQZaXl8gKdgCJ9B13B8oOIWj
AMwp31xrZp3PLrVqjB4Q1d6x58EFNh0B3AK/uDVES/5YwuIlrLgeAa0ahgQJJ6P2
tuHb4bJR/KtFTDaxT+muUQDgXWGPKfFAynIiwQHbCp2jls9YMvTUsgLdIpONrh9a
s3IW211qPoY7q5n+y40/5Tpig4vMUANgRbjbajSiol8meMiSnYwdxwwd1fKTRP4+
vQL16nBQ7smm+lVyHKUv1eu3C9rPH4jCG4hpua9GllLwuBGUD5tTG2XnTNIEQUmI
VxlyFASmlJIc+7WXmLuMyDJvZ7jMtaTJCa9SD9dbCl2HtdGERXMEDGKUf1CtYgV4
qymAcvvAnnxxk/+bwt1KNw2yLkmAwkXNruJ/2/NPt6AP6HT7oyerDDVpIjUQ1Y49
tcLDkgQYAQoAJhYhBDWxffV1JXfKDFQc65S/30SErRQvBQJkMFThAhsCBQkCoF0A
AiAJEJS/30SErRQvwVQgBBkBCgB9FiEE9jH02EvF4dAieE1/MT9gTPwKqTsFAmQw
VOFfFIAAAAAALgAoaXNzdWVyLWZwckBub3RhdGlvbnMub3BlbnBncC5maWZ0aGhv
cnNlbWFuLm5ldEY2MzFGNEQ4NEJDNUUxRDAyMjc4NEQ3RjMxM0Y2MDRDRkMwQUE5
M0IACgkQMT9gTPwKqTtwegv7Bfni0a7orWPHbc8DtX38S/XnAT8hW/E6TsYMfdTR
ZpsP6zIZ95pwnUUlCU4T1bizUVB+4unJgvVJbF9bCVAdH3kVIVn6nI0I1HD0AcrS
C4pm0i3mX6knrcMSoAe4eDX6YlJ2hVNeYzOslBkv2qoh7QHTDH1TC0KX7Jueph+4
rgmAHJ+x774W/d+7kW36rvkB+GwvU3TdLH+DCqEAeQBcrYXvrCbfGMYicFhC8In+
AIusFsB3FZD5dj74wAPO4OQ4NsAIzhMkJm9F1IcrTr7hEgt1eRduQL7iPaoxMI69
nRBO5QsZiR2xYsucEdx32SpQWHJDV5veJ9IUAv167eIbfmDnOJPl1tFirOENbvSR
S9aY7df7j7h0PvBCNCpJp8U9emZQJinIY/dv8kYCSt9jAxvZ/H9mTBtZiEkVbHlh
k/HeTpwuPdmnZM13dLY49CGIjDZ0r72LNWjXLudjVhc94R8fOFRPfeezHIw9vk+W
LnKpkCS/8zy8+3ZspqhXd/itFlAP/AwxwdDgm2HsY4mHlCYVpTpbahNU5PefScl0
tHC8uHzyvzm8mfDU4QDxyH46o04gHoohKj2Waej+q7Au20QvxGnrnXKHI0j5dKuD
HhQEmPoaM7q5UlUQzRkKNIt7Hn37JsH6Dan6SGM401IawjcUkhZlNDU4EtNuJPdR
/kGvXxGi1WoO0Zry1Bne5vyA+L6ff+sEXzWTGqNH/T540PmwKkiICin8WCuwgmxE
nOVV4T8e7slX+IHQi4sagWZEOHxw7FjWhdg2cY+cN+s2BFmeXAgUPYrUwemLfaDb
jmbREegShLVONKK3aF6PTXdD8jHJjhvd1sXoxe6dSHHSVQvMc+YpMI9yD7jg3ERV
sDw2Ru9tZv2KBM/tQRLLeC+wifmauCOV6IdLj7yJoC41yfdD0aJs/8WzsYOEWT4q
9YoPIS6AaXLTuJPQ5ON3mWH9YIvxpqHui+K7wOqdPDLacAyoBy52OUTC4n9vVpEr
r1VmVmqZPmrXLAUVxJNfCQZ2J8r7P/yyy3Lz+O1oXKWqAGMSP4tV3feFTnf8RBjM
/1gR8kIr7Msvo6Yky3U9un7rmhP57Q3cIvYE1Rv3SWtTm75jO5SmYo7kVojimGV2
yN67erKVwvghhDniAXetKK59qojVSshai8sKVxwd3gZMyeDvO8Oszjs4yNGFJyb1
OCUSLR8UzsFNBGMc3acBEACrxJqbVJnGp+auu0w11QL1P2we9ZUEVBN4cktztqWI
2QppHCL2hJYvWplzpkWdmH6VNad8fRmQAiYbtdmmNNVpWx8aNGDzY3Sh7+FS7jdi
6A654xBdcz9kfTtKLInjb7O/E6A5gS6IJPFaNr5nNZfvS+z99Z6G9AqfpAFsz03o
HLkZPHORqi7RW2cLRDjFiwpXisYVFfYndHCUP33X/S0T8lQiCqAVPeCWzOlnOYvo
qiWrpewyT/rGcbuVgEEt3Y9t7RS5NE/4nCiNA2QxKo+w1CP75QkTj9epMJkC/SDe
CktpIiWtPTOyBmZnk7tp4CckzYKc2WSJxGoOmqASdwZauSLSq+XF9kdZHcq/4Gv4
8aHZ87HtDqR3hbxMreRKdxugSgwYI7KhR0jYp9b5pxJqyAVf5GFwiDpqlyxANgC3
6sYJo1YZoUYILVBSWZ0Y7ofhzlYFskhz+bU7eP3xZzeCpZssoi9BxCqc2Olcy7G7
IsijNgIzdCpaw2U88dDBnDLiodIhkQWm44dBWlf2kuO01ArafHIIYW8qmMieMA7m
bfQTl/kcRuWUkTPkr13DmBq4W0Qow/G7uWxS9sBbVlsFZy9BKY1rpxs2ySdmkQ1z
Xd+qErLpFCsyW4a7e6CI4Wby2HNjZNIDbe++wOS9hBrxbhjomluMw016S4zBawD7
9QARAQABwsF8BBgBCgAmAhsMFiEENbF99XUld8oMVBzrlL/fRIStFC8FAmeqfa0F
CQhQBwMACgkQlL/fRIStFC9XpRAAlLxdqs/Lf9UqpwRdSFNC6LF+1LgFvk7+byBC
u9SCSEKZr9aPeNeDOkvohAU8k2r2Jb0o92zvBTex650+WObHfzvd0oHYo/tKbRSS
uZ3M7XH4MdyJmSl8P03G6f7oWH697RTGIw/pW6V4cc3HkVt52zuaNXiwKZOUmOXo
fEbtoAyNeGYUKI2aWQehpspkjqdKVDGZKDDHdzU/Bc4WuDNG0qbdm8JMIB43vg0S
jF4NJZu+NhNXrf1NXxuwWvEM6FrQuvApWevaityuzBM/39Q+iMmbbubSOONfRJ39
Rn4u5shFZBlF9xZD+YeP7IDWCz6Xs5IqDoUcO5warBP8Q7mldZ7t23VCAFA/QVKy
tTWfaUDiXEUBXyh2Trnoi74wev8rWcN21frcuC6qxuVVgYq5Eesq0OaJO8nlBRk8
VnUbEXbQevX9HKnPwrVtjbuh1Ka9ZJsokYFiR2nJJ3bOenk5zR/BQZaNoZJnouGy
4BXvc3W5XuHHv/oEED4E/Xlq2Et1LGco0jto+sKJkBzJXe0Kv/80CSf+/BJMmA9I
dUuN5eDnJ/59YtKsWirSbo+te9T38k4tmtOWOOuAF5bsv7bHzJCQr2Vjvc+3DDNE
l7D3RhtTt+9dgId1VzqtPRk1Hb7FlG1KFJYeCt4ED00Xw0KlpO9c4zIRsWyZT9Wm
ZAsFUpTCwXwEGAEKACYCGwwWIQQ1sX31dSV3ygxUHOuUv99EhK0ULwUCZhGSXwUJ
BrcbmgAKCRCUv99EhK0ULwxwD/9mvjx9xkc9MgFzffR0U6xvjQYMyGj4MbeX+WbW
3EeBwhXV8gcQmK0i2UVHiaiF8TdzMogQroe5oFRadvS6oFBUJrJTJyMP7wJnYZQE
n8yaDfoogvDPdleqGWVTZuSZb09100xUWt84DgK5OXmhaQ/3ylrDKr6TNas4fnsm
EngOa5eVy4G6fxNXJA6JzCmG2yeYGU9PaFWrJwOz5ZW8faxHKjqw2vrU6gsORsTF
qCgR7t5R/6TIRDFLcWQMEqrweFLNT+LuB6Qt/NH0O9LDIpAJ+baUH7H8pIHRrzmF
SeRIy4U4c3Lj08RIS/nL4Z48rB2PPvJM9ct26nKBjpHFo7jma8E+zr833LLtuUkQ
nsjahsXQVsbTRZYsKe50tAjRonwg3IdHHGOO5fUvxA7+5scs+vA/ehTbvRv92LHj
8rZ1DB1Eep9CpXoCF78OSZrdDSpQduE4+cQIytFazmzks8iaFxzLizx8uxz0ZBEC
z+3tXmTTEHZEtlL73mP5QyOTRKmWlbqSGA5Gg73xCbK5kNWmmYD6E7ukKaw39WMD
zO7Fbkc+XaQv1mLQ+zCXfKxYmLYm41Q/63G6v/tB6/hRCf20i8IDspSLSAknAgYf
2eUlJRsFKsjkrPZ+4MO/3SFDlB8TzY7YgN0Pr5pt67Hxq2wp9/vCIlDCiervN7d6
fcRoYMLBfAQYAQoAJhYhBDWxffV1JXfKDFQc65S/30SErRQvBQJjHN2nAhsMBQkD
wmcAAAoJEJS/30SErRQvdOwQAI9jKtoE9OeszFQNrrbKdRam7FMGeHFw8lIM8rCW
btdeX9nknGomwSzWzkZdrYglsj9mL12q4liKsR4XPKs67phMQLI5Bx4tCnxAeE6K
sjLCLOlYoEXm8dmp1sBFgXloiCv7YFL8KUNzdl79fUbVcEYDdO/GHImRTzXKpOGE
qFtAFkP39eDv43Q45602eXiro71bhh8Qi1p5FmXJL805d1/hF9iP6+fEwI6SMRXB
esekKwKe3/cyOH5yZUGQcK7V4iab3IxDRZxAtPJlTibs9LCcM0kk520fKs5AVKeQ
maMMQ/9+obJEfKBZg+sNS0aIhs6AtzqbsEmI5G84qICclr2SLHnvPChaZ7Ykgwa5
Z1gIRQ6wN2oPRFoK5NKDoobUpCygJctpYgp9ICdcV0GffVhMFQn81Y+JiwRntOxW
nHqj/zxqIbR1jE6+xg6Rgxbh9Ql1XaJY1hWVyFfQjGApjfmBuz+3oiuVb/HrLAFA
TmgB1/Z/3eObBCZYXnDTgo8jZlnAmPSEmcm3H89MvynGGZn2v2R8jojbS3L6y+9Q
gQCqsXQKljQQyF3lutGui1tOB71VEphJMlssHf4t5/r6nDzfnA/njFWrYG9/rmZ6
sWvgvfiYBzVoUybb4ZIq8c6OKwvNjWcBOumvojYLchwecoXoQuck2APriAiR5q18
J2ZzzsFNBGBZDeUBEACsk25fmnPZRnUkKRTDMXsMfZkrRCwZiDstWi66SGWQ4eh+
sykyu84fctPxyZc2w1Zx2HRW/T0JAqAvnZmOIZYIRoxKqFPdRThHOkkHkCAzLvTY
AgGuNx8shwF8qa31nuWvvijrvwikSe9LU+LogFbL29h5wEZbqY8BBEsRkC1OWPUA
h7yoaX4EoVefhyB6PVzPC1rxb0+E52ySfc94RSBmog+PS9sX9LIdyXKPFhLvqFoS
VixBgNwduW/5FOtCa8WT6QRLJdmVbEx0NxVdMwHy9yXEeRv2JkQQRignjCq5LIKx
W6W8azWd5uWgh/Io+k0+w7IZo5nIoD9CR4q8+tggN4e+YVZmigmjbqC6HHeIvg7S
MDziIVfV/+CY4/soM/+wMOPupHq5y6BZiZbtrYt1CAMWdUS0I6Jr4LtDkbVOynMh
8uz+1ZwB5hisUiQFzoA4bCgHjtuiJFYzWq8lpg4/j3nlnrstFEs5SzXNNBqsO/ik
hU/loGll4dXoUguldZ4Oenof1hJwk+VbJSBuFull2zqzyAMbawbTE75o64il5RPh
hLvcTrqOJA7iijmYVPa/V7z7egLLclAiFsFX27nHzA9h20Ab2V3VPjfp6RDA7PE2
OOxGB30j4/TMnOzIRoWlpdM02BZzUdOBcktJAjA7x/47JQ3yNP+qsRapisUUGQAR
AQABwsQSBBgBCAAmFiEENbF99XUld8oMVBzrlL/fRIStFC8FAmBZDeUCGwIFCQHh
M4ACoAkQlL/fRIStFC/B1CAEGQEIAH0WIQQpeNcvhswBJt1jr0pWf2bENdfZ/AUC
YFkN5V8UgAAAAAAuAChpc3N1ZXItZnByQG5vdGF0aW9ucy5vcGVucGdwLmZpZnRo
aG9yc2VtYW4ubmV0Mjk3OEQ3MkY4NkNDMDEyNkRENjNBRjRBNTY3RjY2QzQzNUQ3
RDlGQwAKCRBWf2bENdfZ/LjnD/9h/LRnbLdfG+frthBDNW5Ps96SlQXV2vekL6Y8
oI6/P3wStiKVF7SIfVhGI3B4E48nP8g8k/A1hg77mIab0zDoQmOwrqfQaOg8zSYn
mCU/ooOMWzLIys5qbN9JWRXKnLe9Ow1gJpmt7myeEZ8vbRl3PVadVmX5VCQQeEUZ
NJ7fRNGLP5EOy7dXq5hQGWbRET2zQg7tFpeoSLb4Fi3rWKBPAo1C3wxpI7q+BZhd
HqrPfd6wQrb3uty8GFGPTlOnEDUu9yBa5F96JGI+24/TizZ2IBnoQMyXRH/1Lbgk
3ifTTQUfj3P2JLHQVp4eGZlEitdFrKdVvsZqLnQ01USHrgqAhd2QCrBCh/pA+raN
8Fp+7U6D0BRAzMESXxXwRi6mywaEZN+ezmbEs1mBrRm4LgOd5820Tqr7kjt9zb7J
+/nVRydkJvPcZa0a6f9GtkSFDTdwcyI8AsyrJSqSUZxQxADaFoOx2+zeuCIMag/9
SztZTpLSZ8QeQ5avcLML2BzJkdc0+Y3J40Xbu5WS0LbzgoNjePuodIuFD0nun9CW
z6MPT85mIYhBqhRBJoUYQeFkP0Jt+rvmk9MrY8/FFbU+V8re86uCyuUdq6BGWHdp
UlP/RMXaq6UEZttFHXCT/Rr+3hZzeP4V7+2Knd2EQ22H9li3+gu3RpbRV+Nu+2sf
46ma7/CTD/9/QecTlAVCkQ8QaMVkb25Lgg0IacQukFfCeb0SpyQSusrEhvABwlaC
moZso3mFq4Oo6b0DsGuD3HFXml9v2pFpXXORE2fkE2FYYJx89t3KLmnGOHL9Fv2Z
XJxWIlWvzDvVUaj11F4rqOsRCde2Vnkcl9ez4cOrDRk0mH+eO6dBZkDvr/PM1d03
ypkfPARdUxq5zX0ORA6PCNAKtE7XCnhbLfINWo4/407YvFs6yI7as+jzo7r8/i4G
hBzwd8P+ItcwLsRMarw6moIFb2h01Dcol+M+pjJSzFkfo5Tr1a99xcQ7qJCmbhbC
ljZC//mFTgxb7wrxpoIAgz3aLrsZWU/omfke5RKNsuIxbvBfO4NLYOFjMJIcKPRA
ev3yq8us39UP6gTI6ggD/l7PNgSvfPRvWRaP8754Nry7dhQIgQqmUPYMwHIWGoXZ
cHlEH5adzmbpLBF2ixGfSVOYGiSU9kEtQ8u3MFZp0xl9h4r7ImgMeRfSrAaaaEMt
DdvwtyvF/HHmh8p2ahPCNUxPAcFFIEFETlNoSzWCRUUHdmr+d0dVGq/48Id54WzN
FwGLpJe0+TPl04Nh8H+hKQsT1DQ9jT0div3DIuLMGW2EgWAyGf+ggxnAYoOkmupH
ivcE9Ca3PxsqQVYG8gu6GCp1s35w5ONCKShEDmh/Fj9czwQAeExwVc7BTQRaDhwL
ARAArexGvsq59Lxq9PGwwWBkQHAGxcWVehWn1Jv09WwUDiTzKYq0yRcSVbzfhNL4
MYQKuoIEqIgMC9hRQIeVgxpcsI9MeUYr0Bzo1Qx+yA2RZ+sW7uzgZopHV2M+Ds5A
TsUC+YiX+pGPBF9r3BdC/4VqNG+V4Wb9v+BscoG/8PSXrJ4Vcd+OwOohX8mWqzF1
vQEbaaZZaLjWWhn0aOZbZUrQcJPcLCzb50hXnnWx1UQF945u3Z0ixZw4C92uZxzy
4T2CuK1jNbh/qDuaHJs2FNtpGLdbsMm4Ht0jUq4VaFZ2C801f30dnv/f0N+yHJRe
R0q6n2MA7yE4sBiDio1gKyoEhdw8vqOx96FkJSBhZTCDGUrVgH2IV55qEdv3uuiu
UBNhxFvCwIAUCEVPRjpVcchu6tgvaHUTi3xLAhBPlTNniaROUx1b2n8aXyof790X
6T1Wx0ZXu6yyZ6RwDT0g6riYuSjm5tvPQ3w6JUY6+ZLFh8oaPmmlzoA0OLYY/zgC
f06oyv77k7CQi4FtmG44z8khB1okAq38ltjNAHqWieiUiqPKkzg71zSUXJ6U/oR/
65SKf1qkKaq6gwEa41O5Cq0d00kFlSpWeeA6VRMUKMrwvOKSvyrhh+OAiQQouesY
daRoEvpgTvIT/3FTwUTRyALnIp8OMrYK7X3NxNzX4hRZKIUAEQEAAcLEEgQYAQgA
JhYhBDWxffV1JXfKDFQc65S/30SErRQvBQJaDhwLAhsCBQkB4TOAAqAJEJS/30SE
rRQvwdQgBBkBCAB9FiEEFGdxwe/u8PZYCpJCIc8iATlRFHYFAloOHAtfFIAAAAAA
LgAoaXNzdWVyLWZwckBub3RhdGlvbnMub3BlbnBncC5maWZ0aGhvcnNlbWFuLm5l
dDE0Njc3MUMxRUZFRUYwRjY1ODBBOTI0MjIxQ0YyMjAxMzk1MTE0NzYACgkQIc8i
ATlRFHZYPQ//SPN9Iy6WqRD7RTlPxDgSc3A2Gdjeil4LpEpxiMfkLQCdNU9Xv3UY
0SqvwWMdbpE+zTpB7SiZnv+1TWn8+VyuGYg6XgSYkgBsWuXGnRV2KBDhNSgeZ/G5
+RsHZ0nRM/crOq6+ielQUhR86X/81rCc4vMfK6D9fsHv2FHqQvwXv1sVZWsVtLn3
Prqn6/8YiI55mG6ypbCDkbML88qdHxkV+7h2AvNNX1aC9zx5Ii1CKPaMvrDAyxdd
/rYgzOkly9riRPxBXg+VDIa4100rLXFJO0RbdLhqWAFeP0JqQ0plCa1UqEcAR4+k
YYSzbTGIrhfOEJPIJWmZ1UITMxYNoHIXWdpZMhGWfE9wp3o4N3J5DzAQMsK46M+4
BB2LmS/cSL8RgHhu95qkaxEiuHS1o8Nzl7D3q3NPGrTaq/nFGLNo9OKf/jdPTtrp
cRpHsB8VscsulCXyH0SsF/epdSOGCduauzlvw5krDCW2iXoEM1QZ0rv3bRAlQizE
F5gxlrh9bK3qHVbnvLUQWd7sEgVugVaci7/++RmhbTxBB8AURfEpy2iur2LwnJVV
EGdz0ORnneqzcTKwk/TFW3YQlbmSGLinfjTWcMUeUJVitDA7l1OKyM1Kix10m0wy
wRoWxB9Ijlt4czu2GX1ApL9xxKYckivBmhRO3Djr5SVrpbE+g/PslL9+Sg/+PLEO
41UoPHpylMikx4oSIN2QX+3oPB3Bfdwo9cP6aLnq3H0MWCsANPjwvrZGYyCIVP/k
Gy5zEVUdYT4lSjt2rqlGCcWkxZb6/TjPJPIDmoXZ5AIH81XZ/FhiGdRJHzx4jT8p
xJHt8IVAsRiL3xRg6xGy16G6vndTxDW5tWDC/vBUfY1UPMovR8MN/1XTKjD6lBi1
k0WVUzHgHV+fzj6VaDqZR4FJd76ZN2g4EquUWRZXh9ekk+9Bquq9bDQSLvndfDwP
oYfygL0SH3Ma0AQKpdXyVq0TJX6yYVk/zgld+KEHmtW8J/qJOvB1BpDx3vdsxViZ
1z0VcYeGOo4DiAMzuZoPeAf6kQebokbGkLBSf6QAyx3QKFqE2896SQquJ7bhVyGj
0cy6+43sgpY/BPz54zH+GBN4KuTFzogZ+R9UaaGQjNubV5ji5LdTPAIB2+DCIHCN
+BQSorB6QMwwzg5sk8K/AtlhCoNHAWKI0fy1Hij2CTl/QZDcQ4dw+wCAFA3Fy4xK
S8HMDapmGBVfbH0IGV7RQMIY9wJJtSW2wbGPvOtlBoIHo+JvcqLU4rniOb9+mDVT
sCXEsM9JOu6/shUx2XdtWer0MkKTlH1AotLUHXDocyUCq80KLgbmgnZzbT/Xn5sr
cmwZOaRbN796EjL4Wwzp0enTVRDF7LWSDl0B6cDOwU0EXj68OQEQAK/KiyJ8Hx1a
UZYyEFItiuUwp0Ky04CpbSIHFlWgzu1yITCpPtuyE13fKUd1lcxDtQVry+lDX8/T
H+gQjW61sIrIJJS2HRfB4pJyW105EqXsROCc3bC5p8s4wk9E/VxPmOroqGzcYNjX
ScOW7nB2l9cfzY7TOfnRaFr5LItHxxf6FE9YFdWqmcsb3daTqv8LX0R976uQj97W
HLpvlVRc633duObKLebTXS4cwCs/+G4U2CoujJK4m8N/C7ripsEJtJyjOfh9CsdT
6tRKjpL4/kliLlOg8zUBBhoYSo4ffo8eAdxq35UkYEXkAe4jLfFdIZpcCvDPv4HV
1pQHSInpEGYcM7HN+I9tH6zulyhEPW29CBKWBgN7n2nanvtX39LN1UPRrUpyFvtf
1b1YBsitVb2vr6BBSx7Z1zySr6HJioLhS1UzpXmmb4BrLSIlk2fmElT4xqE2dqLQ
L55G9tfdc6tt+i2mmQgULyVPHf4BhVGKnYf587ULHQrrQoDfLrl8JuOfiTWVoynV
/gYbHUtDV1SA+PmV9ZxFGMUsVVGEPwMWu6GtmDwSlsOVJMPTnM+r9yLsCBZ0ciHR
sCU4MjPxTcit+RJhMG8SaVkzABBz/bqH0DfZULoMBpA66KoL1JMqGDqzsKweoreR
hkzownszhIZ1Kjt7qeD21KH+Cc3YtYnHABEBAAHCxBIEGAEIACYCGwIWIQQ1sX31
dSV3ygxUHOuUv99EhK0ULwUCYFkTfgUJAhuoxQKgCRCUv99EhK0UL8HUIAQZAQgA
fRYhBOdDQa+dCqSSjOTCufZ/uDtqJbAABQJePrw5XxSAAAAAAC4AKGlzc3Vlci1m
cHJAbm90YXRpb25zLm9wZW5wZ3AuZmlmdGhob3JzZW1hbi5uZXRFNzQzNDFBRjlE
MEFBNDkyOENFNEMyQjlGNjdGQjgzQjZBMjVCMDAwAAoJEPZ/uDtqJbAA6zcP/RCO
3PxQn566w0aoGlprJ5xZV/UKcHOcnSHPIc7xmdUV+e8dtBTTQmUCFtxG67QAvqGv
xjuggQWydZaoFRBglJsvIiEPvZ57IIPbKK6tuuMSc46jbanWU1HDJ/4DdnkYAhZz
iW1KnoU5CpfYBheb/As7HjUs+GWSQTRVdeBzj5DtupQB1NTMJ1iFH/RaPGmd2R11
h8meb8X7lVj56zoi3n1UdNXig26Fps8ErTnK5VWQUBxqzpXrSSYqWQYNrL59tTc0
CxRHkgpufK6FK/HZeDhhhS5E2Z92zoTm5U/mfYCLdWP/I5f5QIchlhZUjg9sMhcG
nHBXZI6QRTkuZKfXviWhzJlXqA6yX/4gzSkMuFeCYEuI3EBOZWzJIkjgEvvWvjdv
HNGsQ1lNnHXRmcYiMT4/SD2KT/br/+512N/9gz/mhxIkpJbvn3yPlN2gi/4Dfzbb
HhdtsnXTq6n2jdyO+yu6RuehHQRNlewg4gC4mCm+Egxb23ISwId8YI2kal1n+vgv
e2yN7cU1YhRsMyrk6WFylxojOo7tTXM8aCXf9Dzu5UAO6ierG0HJyuhtOoote5T9
t4EN6LgH2f/ATkF73LFQLKq1WUwTXwqlUhEiqF8Sp15xbZ5HSAqj4YZ7SC0GEt5L
5Lnbw+gwA0j29TU2aKRQsfBgr4BzsCr0sBPbMIhyaFkP/3kDTQZPUhdNJcvjwYLe
y5e7WeyOECdI9RJe33IK1auMUshKBX1YB85yc6XQVYcGMLxxScgZfyBOC4xn3Ztp
jmEvEI+XLRl1uLCqEcDdkVGyY+bs8/Zc2m6MKrjGrV8ihNpk6bcmnubnbpxKItXk
4E97YSt6SrGRMeTbs+y22mCA9a864gwXJobtWxGnhMAyoVruj7XFl3k5uFHITmP8
lbzE6xwucqtQ7JezMltT5wj7q55Y0lKEf7wfaJ5tCrlYHhfGzDerGHsMkiwA+6Rs
a3TbS+yLY2Zdk3NSWZfq1NLP2o0yENBjOGdslKR4PkKyKGu8CnxrcE9W7aiuqfW9
V+P9cYG5cY1UWYy2bFe7gmgE9AxriBxwLqBPuv0qHwtbyUdx5FZYpjOeD0+TlDJW
yVto0dlKsYe5v4FLsJMLSBLUvmRpF4T09pyF4V08MlkbvcJjSLrPltDIWYtmBw7q
CqzfXgDb+2af1WfZ3kaudsclG3vP5FqTfIQBt/IqlvsgX+u5YtypXQBGz5ZdZfdN
JUqzcPGyVdv1UZYbTUXDrjIuS/C/RpEH3a9rDcMxosM6AD0DCT0yVPIaUJ2lfaw6
34a3ZVrrtoce4YLZd9MRqJwFUsHDYBNYRnz6QcdXUrU5uuNQ9HXRQsK88CQ1I80l
N+Fh6bhlo6QqeUbtlQ/4AsY5wsQSBBgBCAAmAhsCFiEENbF99XUld8oMVBzrlL/f
RIStFC8FAl5hlCMFCQPlPuoCoAkQlL/fRIStFC/B1CAEGQEIAH0WIQTnQ0GvnQqk
kozkwrn2f7g7aiWwAAUCXj68OV8UgAAAAAAuAChpc3N1ZXItZnByQG5vdGF0aW9u
cy5vcGVucGdwLmZpZnRoaG9yc2VtYW4ubmV0RTc0MzQxQUY5RDBBQTQ5MjhDRTRD
MkI5RjY3RkI4M0I2QTI1QjAwMAAKCRD2f7g7aiWwAOs3D/0Qjtz8UJ+eusNGqBpa
ayecWVf1CnBznJ0hzyHO8ZnVFfnvHbQU00JlAhbcRuu0AL6hr8Y7oIEFsnWWqBUQ
YJSbLyIhD72eeyCD2yiurbrjEnOOo22p1lNRwyf+A3Z5GAIWc4ltSp6FOQqX2AYX
m/wLOx41LPhlkkE0VXXgc4+Q7bqUAdTUzCdYhR/0WjxpndkddYfJnm/F+5VY+es6
It59VHTV4oNuhabPBK05yuVVkFAcas6V60kmKlkGDay+fbU3NAsUR5IKbnyuhSvx
2Xg4YYUuRNmfds6E5uVP5n2Ai3Vj/yOX+UCHIZYWVI4PbDIXBpxwV2SOkEU5LmSn
174locyZV6gOsl/+IM0pDLhXgmBLiNxATmVsySJI4BL71r43bxzRrENZTZx10ZnG
IjE+P0g9ik/26//uddjf/YM/5ocSJKSW7598j5TdoIv+A3822x4XbbJ106up9o3c
jvsrukbnoR0ETZXsIOIAuJgpvhIMW9tyEsCHfGCNpGpdZ/r4L3tsje3FNWIUbDMq
5OlhcpcaIzqO7U1zPGgl3/Q87uVADuonqxtBycrobTqKLXuU/beBDei4B9n/wE5B
e9yxUCyqtVlME18KpVIRIqhfEqdecW2eR0gKo+GGe0gtBhLeS+S528PoMANI9vU1
NmikULHwYK+Ac7Aq9LAT2zCIcmiWD/0bWBbT+/D0Xf0fBI5NTA1pxnUO/fnvndVu
ceG0kQzdf+W8BqdY0q5rnuAxWtzUu8XFVFSKk8qKQxWspuRM/CK2gtBazN224kq9
Ihr9BiC2wjvbTM2Z2Kcg+7QqH4CBMMF0+tM1ahEjch9V7kXRHeDOE5Rs3EC+/ck9
Z8JcWnXau58Alph5cGdEoXqGQ2tPC8JeQFf129pAQux7ZkX+LYSjqk3Li/p2/adS
w0bayhExTNvy95s9iuhPMKlBFv167r7+2KWfugnp4kxhaQYwZiz/J0Sb1SaB7sf6
mgEoQ2YCydFaqq0lDqjSwbY4Ovc6ehImcH+GhZwhpeVkwNoGvdR8lf49d76LMarb
A7yNtN1KjNSKyZNcag4ioqbfCK5050fFYKbbrYUMO9H0UNs07JltILEyL8awjS8O
BnOeAZqF2kAjESJtEAOnqmkw2PwSprVIPdFFSihKtMTF8ks7Cx1AeU1vjK4a832o
mdH1lIKLVi7asR4Uy9fFrG5FxR+Plwu6MH4e6EtoOn4lG7C2X/btS2T3YBuRY8Eq
jwoxq48y+onpj9tfWDIunggDOBLEB/SG7J15njsbdHASLHstT+8cS1UDzLQkJqX0
uNgp02E4nms7MbBixIQ6Og4Ek+3v6rItRobSiJvsOByIS+Hn5hCGFUQILIOfBkta
ZDSWwK7gpMLEEgQYAQgAJhYhBDWxffV1JXfKDFQc65S/30SErRQvBQJePrw5AhsC
BQkFo5qAAqAJEJS/30SErRQvwdQgBBkBCAB9FiEE50NBr50KpJKM5MK59n+4O2ol
sAAFAl4+vDlfFIAAAAAALgAoaXNzdWVyLWZwckBub3RhdGlvbnMub3BlbnBncC5m
aWZ0aGhvcnNlbWFuLm5ldEU3NDM0MUFGOUQwQUE0OTI4Q0U0QzJCOUY2N0ZCODNC
NkEyNUIwMDAACgkQ9n+4O2olsADrNw/9EI7c/FCfnrrDRqgaWmsnnFlX9Qpwc5yd
Ic8hzvGZ1RX57x20FNNCZQIW3EbrtAC+oa/GO6CBBbJ1lqgVEGCUmy8iIQ+9nnsg
g9sorq264xJzjqNtqdZTUcMn/gN2eRgCFnOJbUqehTkKl9gGF5v8CzseNSz4ZZJB
NFV14HOPkO26lAHU1MwnWIUf9Fo8aZ3ZHXWHyZ5vxfuVWPnrOiLefVR01eKDboWm
zwStOcrlVZBQHGrOletJJipZBg2svn21NzQLFEeSCm58roUr8dl4OGGFLkTZn3bO
hOblT+Z9gIt1Y/8jl/lAhyGWFlSOD2wyFwaccFdkjpBFOS5kp9e+JaHMmVeoDrJf
/iDNKQy4V4JgS4jcQE5lbMkiSOAS+9a+N28c0axDWU2cddGZxiIxPj9IPYpP9uv/
7nXY3/2DP+aHEiSklu+ffI+U3aCL/gN/NtseF22yddOrqfaN3I77K7pG56EdBE2V
7CDiALiYKb4SDFvbchLAh3xgjaRqXWf6+C97bI3txTViFGwzKuTpYXKXGiM6ju1N
czxoJd/0PO7lQA7qJ6sbQcnK6G06ii17lP23gQ3ouAfZ/8BOQXvcsVAsqrVZTBNf
CqVSESKoXxKnXnFtnkdICqPhhntILQYS3kvkudvD6DADSPb1NTZopFCx8GCvgHOw
KvSwE9swiHLjGQ//ek6VrItS6wJRCw2MnuTg2LZEsjphHoIqTC/gNtYMVZSnSz7H
+lv4gJ4nFwimAPR1QomxlLw9zAFX1CNr2mp//xP2efaAxAoy4vdtV55+Ueda8o61
75lmn/FQaRjVz2Bt/VvexhgKCVErWkcSGwDlCSUYIh53VJTe3HlblHuMkivh5MXM
k35bLBBtdUpjjz1DUV8wDmpqRpTL71faWBUfvkUsqlju49S1eqn6cMmIRTVrdAbd
tWvfa+9URTZzMclhRZ3kwLb7aA1ggmE3q2UOC69978axTrtTE1B1EgjiF/j+YuXo
evdK5BaNOrEtp1rNflAppeZw/cFzMKKHYeRLl30RqfGsQuvl++lhFe3F5xfSf6wC
eqFwcg0mtQ3O6w74o4h9++rKnJuDnwwzM5kBXH+niKpBUJyGfDIrka2M0rzpahKw
jSzGrNNjoKa0prDpR5BzQ3DrjfBXDrDIr6f3iQW+Q+wuFayeWmr8x/bJUzcSQuk6
Pdp5qcS624Ta49QdIxCvsVcq6Z4zmbw3EL/wAiP4TeKrBDF2/O44seEvuaL027jy
QAv7EPQxTs2JhAMWUEigdJ9ukiKi10izgyLK2p5pzAQph91wlkyf4rvO7eJZQlH6
CIqIut7L2LLQEo0IUq6anj6ycgBH6C6HqDpDks8l04qGw/8mQgBwAy5LxzPOwU0E
ZDBUHAEQALOhOaqDZPVq7dRfP0IeU0ycZh6La8vpOv9zmjP2cr9moy3SEzaTvzes
aAfrN+wpU3bL5perb8+V/50cctnf1S+R7yGXw6G9Kuxj/Ed2oWZQ21kbaeCDwiP9
SkeyiHUBrxOqRnEyeOCDbbxJtER6Mau7sbsqr+DY8CCG2NWcvyacuVn/CtwDAhcu
rete2TzjzBIQPUQWMRrEJByDwnILH1Bq6dVnkvKufBoxxN+bLugeDBAvtxrI61AA
khIco04sjskqbMMI1icQbITYYS8jTYKuqBZc23wpZaX1epVWVtiHqNKiOKwSxvfE
uLn78BlHwI1Rb0Sm/6IhJx2CqBUGj5I9JrOxcMLQnJ74SHgoyHgiw5IJNlWgdzku
1HWf2Kvnu/SBy7owGuETzHdu+TfIXTtHXECB4crPafemcf8LWHPl8g+xNsiBZ1w0
8ejVuhw04oWU02kiX2khZ6fO6HtViuaHyNNgI8dLYFhqd0RlhDWZhaBfar1Jr+zK
zCbPcsoofNkX9w2I6dsKgJmiz8mgyZxUM31wmm1I6jvkCn583w8aGYZfGhxSTl7S
jyRIAxNw/EtYzp0Bkl6CB6R1FIXRCS3NiYb+pBPeJKP6rNPkTTrq7bEvzpAwZ7ti
y29paqFUJm1JeejnmgVdQzryat+8BVO4NyGxoioZZTdcZ8GCi881ABEBAAHCwXwE
GAEKACYCGyAWIQQ1sX31dSV3ygxUHOuUv99EhK0ULwUCZ6p9sgUJBzyQjgAKCRCU
v99EhK0UL4l+D/oCMq1ZaXW2MjtSKnN4J5QYkFf/geA6EZ9KO4TprUc6RUlFhTPc
a0jNCttbXOsjwrpfoYcpIv9IWpvFKo8GBX2toNFvZZvNInE8kcLxQc1LmZkgMnVM
kKdwiB71CSUwvxl+LdaRpDbrBd1CohSKX7vz6TB0uD3ga2NhK9+ixK853XFcEIuL
QTCmGZ7vQTspb90Hl0B73BLbVksWo4QAYurFxiFN1Xli53/xkdYY76OasWQDhnyW
huHN3OcwN90i8cR41oGEkNq4u1YxmH4voyzEubvNFXiCZ0h8QvVx3c2VTOf2g8oL
fMvkuaX98hgOT6U4MZDLhxYjudYGNcGrMP5IzPtJNAhZcsga9krPDVDTgpDUABF0
Nwl0+09ejeos8hK12y43M8qlnf9kylRm0lLjuVy5qm77sgNTgMbAHF4zM1uZ1UXB
gjxo7X27H2PcfwcE2XkFgbvvOg36caIWwXH6tKm2w6fG01GFIZ9CTG4f3aI9td++
oTVKF8fsG9Gj2De6VIzM5EQ82nyUfbdUTqV7iRlPUObZ1eT4YSMf7n3qgJBfADH4
9zOOu4BCNLvzfPSv3vDgE7S1zOEPqqAfZC6fU5UXv8B+fhCr3VAgPJkqLA+TixL0
yrq6vwYOE25MrQkasUhcm5jslMAFV2NExaJW4L4JgFLhAY3SeldGbCKCWMLBfAQY
AQoAJgIbIBYhBDWxffV1JXfKDFQc65S/30SErRQvBQJmEZJkBQkFo6UlAAoJEJS/
30SErRQvvUYP/3Zgz7CMYT+ZVIk3Ssm/ryIRwniYTGXq62pfDZ36WPOpK5yuR9mN
OnhMaz2hXzNsgbHeEzE3OAbWruYtHyIlWiIPzG5OETrdwvhDfaCqq6w+itUM8/mE
xxiXbjSOTlCO9HrR5xHw1puih1+vPOVd/pVAR6P/ZsGDbBsIDn2VfN1b1/JJA2/o
pYJldQUixGU7dVHyGGkwZPU39uPsMOkJTKgneidCFuZu4x582KWPmZ7a7dSHat/H
ZHPujjWMg+t3T39DhB66cPWmQUhwdSqOS0VXE0x4OCNO9X7juDxteLBJdjwe+afp
KMkqqpoM4OAgLaAJAVc979q1ZxZH+zhMDfjEkeykF9cdn4R2MM9JGqGsyLJjnG3b
HV3KPEaQYfe/VAz2zGKNi5XJW79bNQAiHjpe2XFJWYXdLEarIq+6MR/fM4a55a+S
lxUmN2B4oulU7cHzMtg8WBnaLEzbF2K4qYgbRzurCQpIsYGa1lx2c8E8grf7lM68
mrX4u/84Hsv6SRWQ0zqSx6yDlDwbfLUBKdmV7btFASqUWPCxHZN4dT3WLjD1QKg8
YmsDiGdzpgeXSAEuGC44wKNey8tcGDT90oqpL7/rtPSJyF42ieYtsuEe3Nk5hZGM
RyCugASBxqJX4LAf7PQ2DTmhDpg5//Gt6vMoxCJjBb0BSYonjfaMBqCRwsF8BBgB
CgAmFiEENbF99XUld8oMVBzrlL/fRIStFC8FAmQwVBwCGyAFCQKgXQAACgkQlL/f
RIStFC96aRAAgcrb1tErrVoYm01lLGiA5C3WMTWbbISX6aPksw1D9VSFzy8f6OPi
yOPHLZQpapYE2FA/aVL6ndmiVi6Fm3ae08pzryyFAvkyQWM4Sg/1oI/H+FMgWPxq
2bWHZDw/lBWdVC/sh+eDihPjFxv4l6AQMNkyuHusUcgzfTgvCu/zb3K0oRK4BFR3
y7/SrfiPi2X85BcrPNoGbMSPHQBM+FpCczCq4HSAJorB2xgZ9OQg69J4FMfqzMTK
xJq7INuJlNQiBL5zchYw1Id63pkgHerlqEy46EMVsS7B4XIU2VUtXHbstVYK0Yc8
+qRT9NsrLdzll9EgeDLXRqNfCOxJ0XGNV9IDIxOnW0z9kYoPRPPbBj5RNAZak+OA
YuQDgVoiggp1dqZyegmWoDgYcZOVncR8WvkkyYAQkyGxWMiQb2wIV9Hq8bjTv6Qj
+JhA64qI/lLTrFqWGFSdV3oAvJa3wHGK/0NtVJxYLK9ZGRFcr2Kf/UJt31ZLn5Np
yMxXK3kFszFvhi22i53/Egihptgw03zoo0Juh5/SEhlxBo0jWtbBGX6B7wbjRwjx
0kLQ8TR5dT4CE60QDdgh2D8x8l4v17qlXt+zDHuDUu3rLsodHGs836ssQEU0T47m
uHc3HqrRV9vxvHshYLNOx0Svxk/Ci7Sebe82zasMfgmHRVBIxcHen1LOwU0EYF8m
AQEQALjh8QxaV7UtXquyVEXejZDi1jFvENF0DEzi3UxigVe9eAqPE3QYToM1J2RW
S/K/A8+PFphIJy+3IAtTfzUWifvP7G6p1G/NN73t6O8/lKwWQGhIm5bPwnOvFC8T
l9to5ln3OJM1PGzswOOt5HdJG/nbIZAXi7dMqNWRYgR+E9B807U46iWrypM9B1eV
oFPS3T8xxNnvDPyAL/WwIuMLJt2rbzRzXfFnTFnwfLBfHoe2coarZHfqoeILkOds
tBhTR0NHOh1LvkUoM+mrIximcTG95oFnGhuMitanrLjZV+Ql+cE7gmt/UDajKt1w
L2iCkKfxgBKg6i0xgkyjO6payJBmJicg96FcrZRwBruXrhW0mREIsxl8iS0E99rr
n63SRnOjoj++QIyzgflvGovsXCvePE5u4eAYCvet/VD/UQ8NglETQI+iQRWvxHFW
M6VV++1HAyp4v39BNkffvo4ZqGNGpTWUFAPD9ex0zlOrIidUOycJN99+W1AXIcyP
ZKm9noUqS7EUc7tZqGZLKz8J86u6PIvQywL2B1/Y39dccWyGVPE4N0R5hxNthn+4
O+lZAvOxfkIlO6MMwbP3MOJRHrE+jqQ8sz8UOmoiLPDVjPE0WWBSQcZ327ONMeUZ
fD2T1WWoBRjwAOmE+r659Nu8kzpdtQYaJ2zGpH7GrAW9ZwqlABEBAAHCwXwEGAEK
ACYCGwwWIQQ1sX31dSV3ygxUHOuUv99EhK0ULwUCYxzc4wUJAwzQ4gAKCRCUv99E
hK0ULxtyD/wMyIA0qdQlnfczPLecqmND9JwqWr9sTHPL+vStzvhSSVknqtYrGpUy
74VQzO0twmMa2wHr//YjwDVeWkZoGqO2iCYSOkiKIv7OnfWtWAFL7ZzoKsKunC0W
52LRI729ZnDA6nmJuibFCtQ4BYEpux7K4QfgX91R2a/4nWZItK1m7M5lXeJSOMFu
pGM5eqE6i20adDv0ZY+jcFWl/C7wbTOAwHdVuqm2s6revNHJdnCM0s9ZdnnzRCdd
uCDHQWE9JlgjukXEwEoLHtSRq7ut+9yM30W2q9mX1XrdPTUqWNX0XZYL6Xl4Zl7o
P/LPMks/lvtH/omo5xdNU8QMuRFCrYS1JNCeMLLoOoCRPZ+3dtOSFvx1I9X4i5m9
5CbNpSEF8qTVNsSXFwBDoVcnIMKopn1DyrAOZrhaDNxVCTX/AMz4Mz6jq25aV+mM
b4plVMtzkpGPxT6t4Uj2YIaM6XXAbkOS2s3KRPUplkoq2GXctNRQgC8mJkBuIXFq
m7VEJI6kL469w/AW955n6cJ7fnXs3gPZhKxet43RLe6m81V584qH58DvYxUfooBk
g240QhXl/i4fBNdJZnj0exx0K/9BRCvXUTf3zMeBDuE8FCbvX0CFZOItdl2YIoXY
MZJ8hGGDgH+VQZBrNSVU/roubJ9jl8zNXQEkogk53Zay/JLytB/OGcLBfAQYAQoA
JgIbDBYhBDWxffV1JXfKDFQc65S/30SErRQvBQJiLmt8BQkFkax7AAoJEJS/30SE
rRQvyiEP/i61Cp1STBhp7ljgG2Z2rs/UZ+823HgcFAzPqyVlmm+8yGcB2Ji+uYfH
B3s86dNz9NCyvmDQLqu9AJbk3cx+tuTdXFKFpt+WY/YWcqGnV6oRscKrCu0FNWve
9Yh6Nhocxpnv23v/x16Y25vEZ48PPTFOu5QW/wA+uh2DTDFtjp0u9/cIUgKSeiUe
/j+TvbQE4BI0urxHTwZekSu7/I+XbQGRiGtHa6pRsNZhCl0SQCuBBa/xL/x/Q5dX
m7NEVw5Q8xQ1fK3zZBM4LabgY0fiKErUx1ICZMIPCBHDC5gabGN7zPWjlRDuUhsX
3geYSH+EBDDWl9ZlKuVSvMFjzPdAdkCPSS2Jne41/t4IaDFxoIXbRXcVGjQRyoaF
6XbL0CUKExCJt96rMfUHEZwqIbHxiBDjDa5WEMHIxcdOkSuhZ7Sn3ARbMxDg9Yts
xK4lqBmzeTkFv48Mo/5l5t/WJR2SdL7x07wspRbVos2S+6ge0TQhthqAduc+lmL2
28y5e7rNDaFvq/dGqIpo9bIsjpJC5KvZ0hJfyxcjcVPNdrri9sK9oDh7rDlRLTAE
rXBu9AfEwrYFLtzjgLHmnDXjEgn+j1Q35Ru/wiKRKAV+sWTMfcgtPdljziZr6Ejs
vtMDlV3U+3/bSldesX7NXZ+QG1yckTK2OW3WK916LtJ7VBh/BDQUwsF8BBgBCgAm
FiEENbF99XUld8oMVBzrlL/fRIStFC8FAmBfJgECGwwFCQPCZwAACgkQlL/fRISt
FC9pPA//Y6YW/SJVIqaSx87XMn+YEXsPCS6DJj+nRhyPHYHg+4NLxre8witFVZJs
+bacyLVv4LnxbozPYnG0EfKvC50FsTEq0M/dzTY4XPt41YRS5wEzHOs1QuiG4Yfr
oZFMgPIBCrV/vQPy/tdNeta318D8ty9mM+xLUypbP+bP7C9LDWNosdtE7xmGQ2vd
kZVt8MmeyQ8uecyjMrxYeWeqr1UTakm5/H87/XCzlHo7baJ/mnq+JI2UGfTkUhrg
ewKBvFFFi4//aqI3AuJoKYsBFooi8EtAsnfqp3Z4TbfquB6wzZc30LkJLq0iO4oI
PT7Jsog0Q/cX9ah7tbp+GTEScgFSm/YT/ukROw1Siq69NGIsvv9192/WDE/aR0mp
3XGOKsJEcWluxqqSIsA3NYGMCnuWPVZ0mjTJobGtMMeF1ZONkcKX+d80wG70xq2H
83JCjrMIKQk/s/skSSEb7Xm0GAH1QCjS0lY9Dflz0WV1Kt/K+HfxJz6oGSRkbXdp
7vhkc3uRURXTyB12tQoiXRVdOqZ7DKAm3Gx6rb5HhhFT6lON+KXXhAkv9OEL4JpA
A2JnPuAjYZ2AafaUMkXysx76PBieVFhuW7E9SULkG2UVN1ck4foPZw+uaU+TEPE2
kUNWv95Px/y1JfyR28o9BZonzql0CIj829/z1fj34Dm7P4XbOfXOwU0EVLF3LAEQ
ALynGeGpznDGuIaNcgs9OLxIAX7WHOGNPvo15ZuCX+DDwz1dWUwEvkUXX0SYsiRf
hVC+JxlPJt0kzsxNJN/3+qVtnWYVssqC58IQrUMtZKA1cIY6Un3+1j8PAEUwxFtb
51idjZQJ11uf7ydOqZO4bqZXOLdAXLgaTt/I8MpmlUP2m/iObqQg5KfnB0rS8fYp
Tcdh7zJ0muYFV69DKNILPuJ8cRGWTq8FG0Vbcd/WngD46lXkaRooIRtzGrQm9n1J
lJQFdegCWtyMWsLxzdgRmn+i6V32lhIOtSCES8jyD14rlort1USTHuhb3vgb6o2U
OOZDnt42RoWzsIf6n09lq0yIo/8SZsEiwqZH1VIem0midwReVnp3XKgUzU1ijHHs
5o0RAp42RgH/2PptSE2zy1j/JVPD7LnFTvvV+Ixs51nIpEV0oT2x6o7QTU2DV/jC
B8qMEO1smjzN56CDP7Ika5xZ2co0ymBnlApJZE4zXaBIpE3LZ89EmWOcNdikje1A
pUVroKbj18xrytXsazCJSZ/cLneM2hji68Md+9jVJgJyoYuDLJvVQvCcx7b5SRiw
Y7MrLxfH1C8RlLhss1ItRTTJ7/M13qZ7ZFv+WQFPxq1LiwzNPLyhV9Y2n/juU/xd
sPpHZq+4Wh/aN/P2SZwRwbieiPrE1kKQabGSbCAi+JvVABEBAAHCw/sEGAEIAA8C
GwIFAlZI9fwFCQGguVACoAkQlL/fRIStFC/BvSAEGQEIAGYFAlSxdyxfFIAAAAAA
LgAoaXNzdWVyLWZwckBub3RhdGlvbnMub3BlbnBncC5maWZ0aGhvcnNlbWFuLm5l
dEIyREIwM0ZEODgyRTBBNzM5ODAyQTdFQTFGNTU3NENFQTFCQTkyOTUACgkQH1V0
zqG6kpV+zhAAuzwhuFpsG5m7LcunCGqv8IvJwEyaWdN+X/LF+Nj6u50zN6x7w0gF
MKGfIu3E/iqcxjXoJtnW2tDBLhP1FE+EYIO7nZwlPPZ82LLzyH8xO0h8tFEf9J7L
eJNYUOqKdrhJq3LUFM0HKp1FrbA1jWeqNtkUaD/HfklqM0ecsjM8hi9Ir48XSlA1
rpMrjEA2zYuRYxwaMiYZ/w15KDeb1M6GRYQKnrI205cX7IRZEoafbDkLVQew/zQ+
IrQOeFrbN2WJFJV7zS6a6XeZSxa700uz+BgK5CO9+Ka4K00dCkyR6XNDmmV6zjdf
7g7WLD/jhUaUGQgJ7Va/wQr9zQYJcOz8Wex0WrdV6cz7LQct9e7jPpPRP5Zssc+f
JTkxZGyjiVs0BQhXItK1nqwWaN6QZxv0wyNAGO67+RAVqPthJWVwq8i9rl7XTviP
5Ny5dj2LhYVrhpqmNXavvtvrZGi/sT2yuj02Y49I9k/Y2d6tAKj0ergYtjHVCQtk
aUoU6QnSVEZMzUtfRDCcYgGXcvlGN4rnEIia2bcGgnAmcKkbtIg41u2bQx69jAEP
r5XhcQkcxoteBszmEfXTCA2dHR7A72xMQ737q4CAEJe+9P89uZz6IlSLQ5IcgJyd
Fs3PXFXuG9nErDzlgSHLo9uDb+KD1eQbjpYTs0WX6fwA3KXvbFQiyrgWIQQ1sX31
dSV3ygxUHOuUv99EhK0UL2hBD/9MGjaMsZgS2Wo3dv+mcZ/jevv1URTgN6bVoHLE
nD2+Ocg13P/ygEotWUuxNfxIYu+7Rf72Vwaab8jTK2H1ryE/QJkpQPrM5/xUoVKn
9CoY5PYEQSZAyx8TAlPBNtf1Nf3mIMX+sjNcJ1GWzBaJPvrWIOuEi+cLuXiqt9k1
ADlGeS7Xdret74huF5Xhm3H6N6lw5Y3CADpvoywMz6GMnQ8tyW2Vn1cR++CGmhIX
Pgxg9oZQAcQKVXQ5h4VrcFaxkjLzV1+qxj2ybxnj/fG4QOCwk9nKD9NYk/sQjbjS
nrG7e4BwUg94raAviQTO3WVRb0dgKr/ZU+xOcq8b461+5ghd86OW6AcehDC84zPY
PjLW6Onyousi88UsPKO6HS8YvjvmUAzRoHwtdTj1D2It/sB7T1OkcAbLkrk7SYQs
ZaTdFX+xv/W4YjMwAfKLrQGcgrXay898xIlweL0Lc+eA+fpIQXvR/ZDWT0LDPQVE
bRpF9/yvi5VHYsYKpuLlxaCZjoXIgUdh+aH3fBOAhjWv+e5xC2uV9D4S9ML8w73P
daHuEDrTCFLvKuZ77gwWcBQmjh1Mf7+KLO2WvUVEu4HHHH/AaGz5SHE8FSxyLkkM
GQlCWEMxAXrf2tVKNLmTPpYGN7j0BddJiX+xBGq/GJKajnjDjmXDuAK9MaKFNlZk
/bR8ssLD+wQYAQgADwUCVLF3LAIbAgUJBaOagAKgCRCUv99EhK0UL8G9IAQZAQgA
ZgUCVLF3LF8UgAAAAAAuAChpc3N1ZXItZnByQG5vdGF0aW9ucy5vcGVucGdwLmZp
ZnRoaG9yc2VtYW4ubmV0QjJEQjAzRkQ4ODJFMEE3Mzk4MDJBN0VBMUY1NTc0Q0VB
MUJBOTI5NQAKCRAfVXTOobqSlX7OEAC7PCG4Wmwbmbsty6cIaq/wi8nATJpZ035f
8sX42Pq7nTM3rHvDSAUwoZ8i7cT+KpzGNegm2dba0MEuE/UUT4Rgg7udnCU89nzY
svPIfzE7SHy0UR/0nst4k1hQ6op2uEmrctQUzQcqnUWtsDWNZ6o22RRoP8d+SWoz
R5yyMzyGL0ivjxdKUDWukyuMQDbNi5FjHBoyJhn/DXkoN5vUzoZFhAqesjbTlxfs
hFkShp9sOQtVB7D/ND4itA54Wts3ZYkUlXvNLprpd5lLFrvTS7P4GArkI734prgr
TR0KTJHpc0OaZXrON1/uDtYsP+OFRpQZCAntVr/BCv3NBglw7PxZ7HRat1XpzPst
By317uM+k9E/lmyxz58lOTFkbKOJWzQFCFci0rWerBZo3pBnG/TDI0AY7rv5EBWo
+2ElZXCryL2uXtdO+I/k3Ll2PYuFhWuGmqY1dq++2+tkaL+xPbK6PTZjj0j2T9jZ
3q0AqPR6uBi2MdUJC2RpShTpCdJURkzNS19EMJxiAZdy+UY3iucQiJrZtwaCcCZw
qRu0iDjW7ZtDHr2MAQ+vleFxCRzGi14GzOYR9dMIDZ0dHsDvbExDvfurgIAQl770
/z25nPoiVItDkhyAnJ0Wzc9cVe4b2cSsPOWBIcuj24Nv4oPV5BuOlhOzRZfp/ADc
pe9sVCLKuBYhBDWxffV1JXfKDFQc65S/30SErRQvpjEP/0+kmP6B0NFkRgMf+5D5
xckIrty0pXKt2C+zk6N6hiRPPiPOwtC84PE5nh78RjXLmjWg6dHBYt66MtokmUd+
xplg9bbSwt19z82+pwu0EoE+WK7O6yZVs6sD3EVXwuO5OiChZkV6uxyX4yomUiW1
kDgtstIG4Ja+JM3XQNYGhcO6ZxDWhncRB9IcijhXdm16D11XZqPg8V+I1VkX2+Bd
WTD7RU3LG/khpRsq0ZnxsyZPc+o3fzHak+G/mbqNgKOBHYTggTV5xm6P0Pd0YUEo
Z+vjwKQqEwKwmw6IQUFEkDZIUHwHCBYJshKmsLzup62KkkUOkJEgcn/Fw1x/xQv9
n88gaZzZoz1peS/wcnVcLoLta3rpBerwZn80kEpQJ0Nw8XWBMZsBuBnght3/No0C
4KRR3ZLesJibzSbaVypddC88Jjw4ggdRRu5hIKYDWuae7hwsXpc4c/+u0Awh12Dl
xm9An/HQfEU0Tl2gmYupJp7j2qmkJ332tq789cDixPOevXDigVqK8Ay6wHBxNIbT
uHkfAZ/FeTZQW5ed1godrlK0N9Fegnlm1htX+Axq2rwh947xhHRcuTp2LLx7X3xI
SxBgCwrcRu3Crk+i68LQ00a+7iFzuq9FKpRSHGWdHfhfAmA7Z/GxP92grENQ43LS
AbLlT7k7uyBU+zDtFVBxeAewzsFNBFFgfvQBEAC+3rOfQ6y/a56BHYy3SUz6S+mZ
ATX/NlEtiH5b91WKx9Xm2g++SzqpR0M4icEXlSTGsXLbsPr2BDlIEvYfpsw+rJMT
0edn8gTtukKBwv41SfbXFh42wB8XhU1F01m8HY1dWccgK+ur12wPQzv/YyiuT8XZ
6vHPjzuTQgB+jAzgu01gOTcRAmodEdmQDq4u1pLE0IZ5dtbUuOeKfsIErx87TCRM
sTheTuPAbRWr1mtMOt/PAP52DDtVcFjAv/NHXRE4FzypbScZTT0+uTxMkmcLthOT
47fUwboGFQh6gxebjOL3E4xu8+en4rq0owEvTH72Ny+vl1M9HybwAZDxdiSdjOk8
zFPJf4o9MGEG7YhmcucLGu9otCsCSiL+YnFtAssUjqvHWBZFAKWZOTzLEZSscrwI
Qj6XqxDa2QOfdp5JqM30qIczntGsfpyfo3HlFfMHh27Cvhg3lXgysENX1YJ097fW
vYZiYNr21IZfZPXJDqKGy10tlHy3ydNRqA61CabwheEYps0lKasfK+qe5XretVeO
Kz1RdWAf/yDS1hr3irkn7xqflAEvYhFH8nmogrtWxRWSJUSKRkOtNUo3hXtd1PWc
m2Ix6jCREu6IBzdL5F8q764Yvbi6psMF/KCOaBkDQg/uSPixHOCPcL6y/R1wB+jH
NBJrjEwIoEh951xUOwARAQABwsF8BBgBCgAmAhsMFiEENbF99XUld8oMVBzrlL/f
RIStFC8FAmBfTkQFCQ8mXFAACgkQlL/fRIStFC83oQ/+ISeEUQ+PzB1PnhCn3RPg
sS53LMIiHfwiv2mgni6DwBEZ1tnrQ4pXHTVK+7IVBtuyazGJnjbbcZdFIkX3N4AE
gWxyvz0TADsA6cvE2IvvVjg7IDmI6vUqCZtzKOhWzBQnPZpJmn9wcXVseCE3Xy8Y
EY8umobnIiRSHEPxlGWMe3YVFaxwlIRUtFXXgCa2IOzVtFYKpEfqncBqa7GBhTBB
iNfUwMMKvgo+8t8+guNjlJGthZdB4itiQgtP1jTmpyITcSkl9OGo713JlIDdfPGI
rJseVyiUhvrjmE/CGSQoRK4QJ5Cjb0Y+pCRMh6QwMB15NIUxmj0g9dV22EI4VUIM
4aEYsBiinYA3KcMC+jiPVrDJE9WETYACfoYkSmDw3MNnNExUSRifcy7ilrlWMi9N
JF9U9jSZAte7a3i5OBzu+bRr7BXMMc7cFsgKkpTmbYbD+xPhxEXIblwjjthEke9u
hiKPFaRYuyh5pwCDDcNVKIjkHEcz03KyhOkYt+XWEz8XaA7Riq1PuTnOFQ+/MTUW
WwT9j2B0nsbD6Hh9mqv22bv0Wj7kNK7ZheBwAxv/cELKk9E0urZRmt/SyegWbkG/
z6eCX7tHk09P0/5Fu33Byg99hjRFHHsVp7v5IOfICve2M5E1i9q5iqJYTdniMfPr
RZuo8V1JkzW3io7RdK3+y23CwXwEGAEIACYCGwwWIQQ1sX31dSV3ygxUHOuUv99E
hK0ULwUCXmGT8gUJEMN7/gAKCRCUv99EhK0ULzQpD/9/Qw50Otsr/Ujec+W3esJL
r/Ay2wCBcsh2rX3Zjxs7RC4Ag6ARN6a6WeAw+scDC92Olj1YQECLuPDKVM5s+CBp
1OKrIebyudZO2LaT+La665lMGvsWCZc9w77ShmSKZbITBbe/Zj1FdHOQS7h3ll52
c6OtiXhs8M2Ug+v8EMRo6TmGAGBHXb/MKUqJN3ovXYee8IIKUFRehU46XkupJj+b
jNrNIbfa2CykawKlB6rxeh8kirQB5u+YnUJiDXE1KPmet3ukvbgi3V0MqsCIzyKq
tY09Ij71tzXvDirR0eNFHhu7q5/wMj/K1oMrc3GVu0Iwo6M1q2+oHqW6RdjNCnpH
KInAPjDY++pfUwRXDEG8uksMKBIaF4lqB9YnNC595mPRFxMp7nAXa6Mp1GRFbNnr
fRDIiFWCvwWyB5YAHejRlI9LCwh4kSWxv9CcPfsWiMLp1lft4vAUWntqNMmWE9V6
tvA7LDxVFBTuZ28b++1iqAL7QazfGT4f3CEmOP5lhvlfr3iWTKRBI+5uiRyl9PyD
SQOjfENhPL+zHWDmcFj+MzUwPlhrWi2p82PM/M0MHnWaVXADlVlXkkreONwH/Hc6
7lcg1td8slO66dmy2SrBKHWmSTzSAbkmDCvRHM3SUr6JW2zv6ps9E18TgLuzKUXB
1E/gfp7vO76rgAbkA+KNxcLBfAQYAQgAJgIbDBYhBDWxffV1JXfKDFQc65S/30SE
rRQvBQJePrwQBQkSgdecAAoJEJS/30SErRQviw4QAJG96KW9jR9e9pr69XUrO7pJ
4YUgwBwQuxw7dpxSa7U/SmPkziW7Kr4tU+mrkAPbVvi7J28yN38vu6jK3AMMhVaW
Nv5gaopWHy95zRgT5SWhGu0YB8nzpVGazmmQTLcTot703Wglf6gyKGsXHt+8/nq/
KA524drBZ9wGDbbNju+ieTyQYt486toU3mY2ImEKb62HIwCfLalz0R2OC+uzKgWd
GX3KwhG2C71r7zOFdYNY5hDczM/L6url+Yc9FG+tqwCb7NsbrQbOTmZ4otGzEfkY
X9E6ZJP81pnldOlnL701qOHDrilRkJLPs8/BTBIfvmpYgq5tKy7yYPHy6yXtGSds
t1Uj+mG8DqrSoJVPShEVqLFxbtq2zksZjscXzoLar5RmaonQD8syuuRrkw5QEvpU
2giQCp7XmSeBl5U1pTX9gJ5mRdCxOxOVI7DK8UKK912arzeQZfh/s6JqhyQB4MbE
lHBkhwkKRKTOwl7eD3n2fSSVeMtdhYuhFlHsA/C9rZJcLNHpjb8XAW3aBo5M3oy5
tpkVo3p2GGAYMWf+cv0LmeW6PSJQ9jwgAtCi9BLS/7NR2j36jgwOxU6qV0D610VV
iUs1/1FNiZzjubKQkL4K32SZy9840wUSmje4pK49EiNbfWJpJaYYr8UDXL6np0sF
bY71ErPvry8rC5Pbwkh1wsF8BBgBCAAmAhsMFiEENbF99XUld8oMVBzrlL/fRISt
FC8FAloOG5gFCQ5RNyQACgkQlL/fRIStFC+0yQ//Rv1DOxMFeQvYG6H7Mp/MPC19
WgEvIWij6giqlovD5P9AsMtGEEXiEZNohKXaRZXLS6v5tKdzyUYZIlZK963JhU6d
KS1pHQDC4EffPdK5abxHlhxASZ0VNjeC0FzFJETrnScFyei3t1w/PFB0+l9JmuQo
RHNYUa/t0ztuDv03M5V4tpqCgZTtKANMltTgG92i4UILLKvmzqsi5/Jec8y4KFHS
JOH6ZK0rdG+1LiLFL6SdBlciVNYsmZ7lEzhLJrJGoEvo2BYaYmKxZCbGrB7uIOlL
/sCn/vHrDyX4DTlFVASWVIVHzwPLejRx844kDBY7goqiyxY2i5y7Gqu4Mjyiao7s
XwxkNytL9M4BxHNyWDqsfg/Xy9Rb5eOMr8De+3oXpoxqeek7nxnKhlWUxx7JjOAp
OrhKHq+pKJNOYtF8jAmAYzeOREst+jESC3lU4oZ+UMynII7Td1kUiL5CDo/lBY0l
861EGF6umyYq1K+HTj4ENoiDxG6nWkiH+hvgoHBJ33YBkGGDzpk9ddlp4l8l8+ER
/2VCNbvJP45NQPSNDyOVGPa0Rf+qxzhrp/2/izG2HbwtJfzbc4tSW6XN41zH7INq
Wf0a3BmbP7Bs+97+45EYwrDdE2I+Oqf6N3IWyexcYFxQHdJQLTRIiJ4NTkJ+UaNC
COOpOh2T8OApxvFuTkvCwXwEGAEIAA8CGwwFAlSxdvsFCQj0kocAIQkQlL/fRISt
FC8WIQQ1sX31dSV3ygxUHOuUv99EhK0ULxe1D/92O3rTUI1Nj8zU42B/gKpDTb4+
6da4MNaUR/gRu5mPP4REuYOzzHf8GNpBZezCy7lYzHweNSkMIfD7QVrqJp08S9SZ
baVxVNVU9kVmsmFYwN6UrYOp3YXtMoXseaui8HhdZFQZwAraITUrGtOFP7TRzRQ+
dCfz6KUcG21ThsZrV8Se7g+9MnnGcIGNDiHkSGJSL0/qILQAthTOyhu2Ku6UpJ0z
EIshIXAJmPECj48MYIOKqvT/KoMCPTpEnELRF70owz4Aatd+jeighM+wc5b4iejJ
QcUdunA/eNapOwcYhjm3uADeE9Bu/up62x9Jjr8sob6AFVVg5BhACRdlniFyKZhy
WGksg5Gb48JSqbEodef1Cs5PHWvdbo8868+reDGLgYba+7doD1hgiRYOlmSjAcBc
jsv0qO2qqZHyC66owQy1BlE3cxS5YAsrv88sM03y0V6OxDPND3xqbyVUNL/hsbqV
oO8ce/BsjXN3RlKRZL7PavACOlxuAAkcK43SzBTeh/ky/0XYwAFN/xTSMYo70GCO
PPcHf7feKsCWeui3PX5aPP/Ac2/HdQj6+cX71EtpKDgA5wJDZeuYHwCG0EgWL2mR
cjgl+NTxeOBdcfuVP2vlYF5dV4hyNFc85tnVU5wuFPKWC4V2dRAgmlOkfaTfgR1n
LqFbwXWlGWRuZp/7a8LBfAQYAQgADwUCUWB+9AIbDAUJBaOagAAhCRCUv99EhK0U
LxYhBDWxffV1JXfKDFQc65S/30SErRQvoykP/06W4cSQDUCHph/5rXUBaZkoxgDt
ev5+oPPRvFpc8EWxq0Ay7DtxJP8RrYaBBgEe0qYHijapA+K1+ogeUmomKIcFmrDp
BJVtzZOfbztI9KachZchKx4W/dUYNyO07zzSZl05xd9hV/k3spYpLtBDj6ymqIXZ
vZkeykrWh1XweBwWlv5X2rK6yW1v6DiRSdZS1IUA2wboL050Gmc5CFg+FamTZgJ3
XA5jqGyLuet9uJj/1cV/x66qmLkhGuuLmdVB9Av1pnB7Qex6xeKyh5+Vj6Ahv8gu
wBEz/o/meSrVJPXNwOSNAHfLo43lMHe1TQLagOuDdFBg7kjemVVpEP1sNPSRxS3P
RQlFEABsOE1pgBOnOFvFqabe5xYByIV7E0FNrKcW/wotNhP4adEOZsIv+5dPqEgR
K0ScOPbSRkfl4sWrzbzM6RrHaCCMVkJjKuDGziQ8avMbqQwxCnp2Xj5tjIGMDWMJ
/8HTdYe4tcb4ouUGzDsrBSOS6EpXbAF7jE9lbKsZ+/rN7dIwq4UBEMB45c97SkxD
SJcydYuJH9Xq0UypgQeAbq2M+6QA3f4Vrs050be3tBWBUvukd/pkNUutsGG9T6Nv
D2kqNn+a8cfhZZpnhO+Rv/rq1dJGKB0kJMA5u64jeiEYjj+qRYigpTiivb8HCGJ6
D8oIIbPXD8KqR8r8zsFNBGBfJxMBEAC/FsJdK8P+v+jagcnxheKFX2r21SxWOjpa
R5BochMtIRzZpgGWbPErkqW+MHCihP1kVBXRs/aHilelHxZs6mViC+P0KMxlr4ih
Hf2FLZO1FNmc7NG85QHqXRiJyVka8s+2L5IXM/MPW67D9cxEeho/julT8ZX6exYk
0ioFfFr71SXu5dAdbWKloPljkO46eY/a/Bu1H93Yeo8c2cvAOAAl6QUdfJPCPi8f
/W8Hw08nn90IcxO/FoSlg4ENuKEFjLPKd8uxcP9XYNUUoKuG++S8u0vP5xji7FxY
t3aEU1n+HyP+eSqfdTdO2mF4stN3QavMdzMt431VU6bL7Z9q/f3Etb3mEdQwhStC
n4IFqLivEhw76pnbzM7aJP6pxbTCEecIlKAcY7Tz1licC+l+MZvwHyNgQhqzbz+/
NDjtHuYqKwwRvXU0Vocc71eaQkaePYxVDLoROGIyVuE4oL6yzj/eIzYFbO7qtkiM
5fiiVFPvZBxpHwJQhMGw3+zJ9yAcRpRB6zVqiKNjvvO1w0meIvpyOa0yETrNMq5P
bXOlc30IOtkrxbQPSi0tk76vds6TI5hTK8z/QqkQ+/25lmv0ApGmd06xPPrUD0v3
s8cdXeed0NCou+BaJ0DYGZ2KVmjEpPxeCqiGEgpQzx4NYW3ulnNi0jRpNoPweuiW
inglAkHpMwARAQABwsQSBBgBCgAmAhsCFiEENbF99XUld8oMVBzrlL/fRIStFC8F
AmMc3OgFCQMMz9ACoAkQlL/fRIStFC/B1CAEGQEKAH0WIQTpbgg0H1h4pfpCmLVM
SfeeVNCiBgUCYF8nE18UgAAAAAAuAChpc3N1ZXItZnByQG5vdGF0aW9ucy5vcGVu
cGdwLmZpZnRoaG9yc2VtYW4ubmV0RTk2RTA4MzQxRjU4NzhBNUZBNDI5OEI1NEM0
OUY3OUU1NEQwQTIwNgAKCRBMSfeeVNCiBkNfD/9yJL6EkSVJ6gCr0r0L3njwZVxY
xKX55icv670Wl5hm6VYvm6fwQBJu6xoCtBYv9ZWiqhGR6D0WThEmKtywJwUYAhdd
EEDzTtfOJIYbiVvIdStYDcNYgAPWAtaXEYRicGYXx+1fBkBBUHQZIZKoJUOB4N0z
AfXhKUFvPKwXrDlKH1ba83q6ILb8/JlKNNvbD0296OLe5MpD8pKPLqvTBxrXuZ4h
nouJFa548AP0AFxBTDoxRljS/QEPZ3Kwn8xVW6Z4MBmBrv5XGIwBGu8L5U4A5jyX
0vRF+HBJlHzLKAqWE6P0pKYm6egC1w9otWgAGHnyJV8StByUbugDckl3Y7MPze+E
RACZpJYOMUfc+7usGCDO/MFmAPHGy3Ha71Z7WZMlsAWD5ghOTDwopYFba2ksPAN0
KVUOmcnBMtK2LcoBP0uoA9VWgo434vDvTPFPHGSKq+OgwcJb50M4GRFl4I9JgDaz
7emtZdfoB2qt7UJ0syOj8yj2uqy/Foa1HZ0kQnbwBhs0VYEpZT1fc24PF3xf+Sw9
ng2ufTA140f00CbL6hIbeKUoWxNbnlvVhrLKrE094/rQRPJ1qSJQgzOnG/i+Ywz9
aczCsKtAy3//DBFAJMJoWhXOZ2Ko7Wz0vzo4qYSlY/g5/DhkAiAwINxQCYqzQBfF
TLjlZR/V5ZthoFi0QXh0D/0TXji8/fCbNYhJEKCIQCL+h5SJcjfribphQ0Pzdlf1
Nsmr1FPi1fzVu1grXzNuVV68wZ/Xkc0+WbxPy6VNnng5yTORqEbWpQ/YAAjgJbn3
NajGmNcK9be+Dbb7rMAom9ry2k3AekXv0XSC3svGGIvPIOIoke0qY1ERaSTLVv3/
H7XkE/1DW4fh6glecAnawkhlOfxL6IJ1LcbX4xeI+AFatYRJFs2ALjmaml0vXmah
ztIP8XktKjL0eJ54tOZZLcoiGQr7BZ6zec45SfmTA8Lf/lymEI51ll0+uDD0StaI
kdByY7Kn9R2ZqmAZFrsbb0d/K3UhAL2KHDmGcau9tx/TA2FjDQMbBwIw179xjY4m
OhTOUNiSWJr7ps79Sb38JthM5DVMXz25245FcyEaXACvShxNANO0Q1ht/03KifCo
ucRiIPmfUXQhJKFsJCdj1Fyg150x7L0tTF3DK+Zbi1hJx5ZnV2ScognSU63c8Nmj
0SFbxao8fALZLT8vxQX7MwGGApe79BU9gC0QSexktHX7kt2j9ww645j6RXhkMoPJ
l0qmt5ln/JQ0tug3JW8R9aXe3/u1m85DwtlSApl2YI3iV/Y7Yt4OjS/BQzImFTKX
4QcmxGOB1VRIIcbw40KyyyMCG5IrFdskGTqg0z/cFIeAVRjomBlUYpXp0KpSwH0t
qsLEEgQYAQoAJgIbAhYhBDWxffV1JXfKDFQc65S/30SErRQvBQJiLmuABQkFkatp
AqAJEJS/30SErRQvwdQgBBkBCgB9FiEE6W4INB9YeKX6Qpi1TEn3nlTQogYFAmBf
JxNfFIAAAAAALgAoaXNzdWVyLWZwckBub3RhdGlvbnMub3BlbnBncC5maWZ0aGhv
cnNlbWFuLm5ldEU5NkUwODM0MUY1ODc4QTVGQTQyOThCNTRDNDlGNzlFNTREMEEy
MDYACgkQTEn3nlTQogZDXw//ciS+hJElSeoAq9K9C9548GVcWMSl+eYnL+u9FpeY
ZulWL5un8EASbusaArQWL/WVoqoRkeg9Fk4RJircsCcFGAIXXRBA807XziSGG4lb
yHUrWA3DWIAD1gLWlxGEYnBmF8ftXwZAQVB0GSGSqCVDgeDdMwH14SlBbzysF6w5
Sh9W2vN6uiC2/PyZSjTb2w9Nveji3uTKQ/KSjy6r0wca17meIZ6LiRWuePAD9ABc
QUw6MUZY0v0BD2dysJ/MVVumeDAZga7+VxiMARrvC+VOAOY8l9L0RfhwSZR8yygK
lhOj9KSmJunoAtcPaLVoABh58iVfErQclG7oA3JJd2OzD83vhEQAmaSWDjFH3Pu7
rBggzvzBZgDxxstx2u9We1mTJbAFg+YITkw8KKWBW2tpLDwDdClVDpnJwTLSti3K
AT9LqAPVVoKON+Lw70zxTxxkiqvjoMHCW+dDOBkRZeCPSYA2s+3prWXX6Adqre1C
dLMjo/Mo9rqsvxaGtR2dJEJ28AYbNFWBKWU9X3NuDxd8X/ksPZ4Nrn0wNeNH9NAm
y+oSG3ilKFsTW55b1YayyqxNPeP60ETydakiUIMzpxv4vmMM/WnMwrCrQMt//wwR
QCTCaFoVzmdiqO1s9L86OKmEpWP4Ofw4ZAIgMCDcUAmKs0AXxUy45WUf1eWbYaBY
tEHN5Q//VIoMapQj6UIRhWijbYJLvMoOlvXmNe0cIZJShxNQkMee14WaZPztDpkI
GsJL1FhUnuI07E6rfsG3RIzxqqhnz+zZN/T90EYjJ1SNoFVvbrRg8cWm1sEpVuUr
Xjlkdkrfhb8JYwBYH2z+qRXxgCt+E2jKEEhLHVZ4N4JNaOEQyQdzvJMUqO+TIafZ
DZYjexwKmJSPGH3+W7JWsNsR19E9pGQwvJhNKfZUwZtF/JMpQGxtxJlc0MD8L1CN
ykA+onj9L4KWN85sl6HnQ9WTN2/PmWsBw3y6QGhE2+3ANIvsIcxBoMevjbEUcWMS
dMzQelAnY/IQ39qkU8MCTSbsuWZyhNroUKJFdhQSibILHlLO+/LXIL0+eSPmA4dU
WpxpGzrGCAbmG+djQB9loVr1xgMEG+Xupgx2r8kjfgz8DUKdS1f3i6tWEsQ4qvYo
SIiq8notdSAaj/FZjg2IoRTbwb7v1bPS0nFJqUi1s1lR6LRu2ScqdTi2f3ivyr+z
oRfuM2/NN5hCndThI1Am0MuL/g3slhjxpNrsnBYWanK5kemO5Yb2SmbegHpOs0o9
3PGxswRKcPpzcpu1JPNcQkX/Ha4mt9vf7M4VRHA4ro/mOyJ1f36oCb9SRc8rAN60
oYcdWakE8Tar+QrNy59Kees/yCPNJoybU46GCEX0heup4K8RYKjCxBIEGAEKACYW
IQQ1sX31dSV3ygxUHOuUv99EhK0ULwUCYF8nEwIbAgUJA8JnAAKgCRCUv99EhK0U
L8HUIAQZAQoAfRYhBOluCDQfWHil+kKYtUxJ955U0KIGBQJgXycTXxSAAAAAAC4A
KGlzc3Vlci1mcHJAbm90YXRpb25zLm9wZW5wZ3AuZmlmdGhob3JzZW1hbi5uZXRF
OTZFMDgzNDFGNTg3OEE1RkE0Mjk4QjU0QzQ5Rjc5RTU0RDBBMjA2AAoJEExJ955U
0KIGQ18P/3IkvoSRJUnqAKvSvQveePBlXFjEpfnmJy/rvRaXmGbpVi+bp/BAEm7r
GgK0Fi/1laKqEZHoPRZOESYq3LAnBRgCF10QQPNO184khhuJW8h1K1gNw1iAA9YC
1pcRhGJwZhfH7V8GQEFQdBkhkqglQ4Hg3TMB9eEpQW88rBesOUofVtrzerogtvz8
mUo029sPTb3o4t7kykPyko8uq9MHGte5niGei4kVrnjwA/QAXEFMOjFGWNL9AQ9n
crCfzFVbpngwGYGu/lcYjAEa7wvlTgDmPJfS9EX4cEmUfMsoCpYTo/Skpibp6ALX
D2i1aAAYefIlXxK0HJRu6ANySXdjsw/N74REAJmklg4xR9z7u6wYIM78wWYA8cbL
cdrvVntZkyWwBYPmCE5MPCilgVtraSw8A3QpVQ6ZycEy0rYtygE/S6gD1VaCjjfi
8O9M8U8cZIqr46DBwlvnQzgZEWXgj0mANrPt6a1l1+gHaq3tQnSzI6PzKPa6rL8W
hrUdnSRCdvAGGzRVgSllPV9zbg8XfF/5LD2eDa59MDXjR/TQJsvqEht4pShbE1ue
W9WGssqsTT3j+tBE8nWpIlCDM6cb+L5jDP1pzMKwq0DLf/8MEUAkwmhaFc5nYqjt
bPS/OjiphKVj+Dn8OGQCIDAg3FAJirNAF8VMuOVlH9Xlm2GgWLRBz80P/is/b/yX
9hbKZs6w72cz3R31kdiGQC51xc7AVSiQsNH6x0rXTeJBAtKaL4dBdJ6sUB7WDK9/
Bn8cp7KGAku9rmJqHA5OgSIm7eTnwVubqa6KFreesXS0oYb/rGgnoGorebBb7Zet
j6+S9FI4JjfqdpZJvZrTM3V4U93NXzohpsW/O38rcdZThhjqOpC3ous363hYcre+
QgW61d8PxKOD2JvGPocov0DnZjlbMgWyNJPE+LUXWUeCfF/ZUE4tDNFVhd0imNZm
fmdUFfI9pkv/DOBdpYJvL7QPgloZkGI8XC7Pj5SxZkJPxTWuXYseG3fhqGl++ujB
dX6gaHVT8vxb99G4ApF//M/4pg/f5/6YvLj9Cguuw4r3FQTEsSvyYiXtSo2zkFoe
7MEseQ98kNmi9pXhj4fp3LrMM+OpYhfvnCQFu6mHc4iMJ68Aw5FCHkaka5lxHE0x
8o7RCOJut6guln/6wvMfDWC3HH5VPWSpnFlfTjMonBvHrTCyZR5XR16vSP19TC6O
f6Iu1rOo5xaR50RUqZzwIuic9IyMcKbGPR99cLK0nnHkhdfPkgTOILBS/Y9Erugh
tW/uNAFwJSN2LC9yzpkclwRmkFdlElUEl3/VnnClUPf/uSoNavFwVZlrxkKmGTLv
0Abnni83v6SS2oF7QeFVtv8z6lHXBb0kNdWAzsFNBFFggA0BEAC/vZdg7u1tnEn1
ppTLZtI5B/O1XBeRXWDkgOLb+4ffEojGKNO5osbBix834F+SKCM99rjBuBqQwQyS
ljvdlLlz1zyYqMNW2LP7sGU7cLc9yQRTYGOMIRtOoYVxC+7XAAlErmJBh0p/cKRc
bYatezQ2JK4fCcYoKTbYKGLuurC5g/iZRjziX2pQRSTAaV++zZn3V35PGZwHUhsK
3Qt94LbXLdhJKtykrH+ytBYxVcbtrTEwMRdgMefnaWGCRDHQxoMW1DMUZaHBpGNR
+YRXD4+oldcHLfRl90L0f7fUPc2DaU+L6MiSFV8yf9hqiCtZjlZb1770ZmvXjsR0
RXlkoOhD5YDcdaMfFkYZE3jihEg364W3PN6GZ5T9eZj7cSCoVCkL7iPvKtU/oPNz
T7gRTqmrMjgf7iUNxrpYsORU6NIIIihV+1eDJr6zczairtnA/1ZNM5lAB0R9tO2Q
tbNGt75rPtLIiVMueGE0i8fU7IOrF4rLuxLfLqgccnT2A6GafwWPwvTE0hyHvbHU
y6W+lOrEmvkF3Wt9+FbskqpNpF47z+wAmYRyHO99ydGVanqpv/Dj440ZGMJYYQ4A
vbnnOpspy4k4hJW8UQFaLJwJ9sOlkuQkSyMrA6Elk4E4pMrDKInuOMG+QXDTRkYM
whzkKxLvGlE0X+EprJKagREBsTUHkwARAQABwsF8BBgBCgAmAhsgFiEENbF99XUl
d8oMVBzrlL/fRIStFC8FAmBfTnIFCQ8mW2UACgkQlL/fRIStFC8z8hAAlbAm96My
Lj8IwdfxwU2aKfVf6E/mJuEW9FnIHsSCA1O+taqn5z6ZTJJtn1Nj/R4nCwDBQkBt
ReMwF8snzt+rwzRCsmLHg0M2bBZePbqvsLVbXZmMivKDrCm6+coW9e6zJCrboJIP
MCqfcuBhVfxvcOsKZUG8D747naksRpwNOX62H1qAbrbhlJg2gg81Qy+XIa1dGmXa
AjIb4frtmgaHMX1WPgP8LpBz3sbUdT237nZ4gtu5OEvWGeYUZDijH4zPdMrG9Xur
UvOkBqmi8Fm2h8kZQbc6So7Z5v9ypngJufkdZW2REdB/eAdf/CsGFHEUpTWrRrHI
Vy/7pj8Axc0rfcYfGzFt0uDDThR6f2I7w9BQq2jb1rQjTSDxklzU/vHwHyaT0pxI
ZfTXThJoD5IZ0IRJh7AkvuOZfr4krm/2jLQ393+IdrTzQVskZMEI7Dbh2LG4srGz
RT3TLuwD+JUlXnT8L41lFn5U1otcW6SVungoEC+1ZcSWmeYiKr9etQ4zkX0z3pjS
QlLCjUUHMwlULO8l1zBHm+cgKgKYXZtYyKpJWYW+Xsec9tLGSwtoFsNKqAaUelFW
n2NWlSb8NWjP38VbX86w3PMRSJpWkErbEfskRrjS9mRVL7IoTAE0IWq1WqCsAq4U
1JGShC8AoJ6/KX9ljFt8QnYgoSAxiGp4EArCwXwEGAEIACYCGyAWIQQ1sX31dSV3
ygxUHOuUv99EhK0ULwUCXmGUCwUJEMN6/gAKCRCUv99EhK0UL/JlD/9axw1F/FJA
RN6l/TEuSdl8CY7fhitJQpZYjdlH32v9G/sqVo2aqB98VtdoKfrpNmcnjFxBVRct
vxnHgjaPAvbZfT6VqsdeN6RCPnrZuaQ9sDQbeyoHuoCyReSi6ow7YfBwp7cJxejD
9KedRW7oM8L/DgOItdP4g2ycsYVckJo1SA1pdwNYCFBtzLuk6WD0GNTgSKRufv4M
e1AWkb+JAGplxG6LpIFOjViVRttCz2xZVX74m5dcsPVdrctPBF9ce+1Wxhudz5sX
AIDMi+cmBcGa/6JuvzkSv6KuhgozyLr4FESkhD0a0yakDsweMAMEu0+ZIpzTXlLo
/VXp2WnC0i4UE1E8v+go7J3EDiuYO2wLJhoAyyCiHslqYvllnZodgdI8oxv5z4R5
ME3a5XFmH3sO0MdixoNb9E6KpmZh2Fxdvv1TCwvyWUFD19gyQHjyyt/Z6uCpXJ0X
MNeEdO5MAeJd99miZBPqD9XE9k6mxQtcudgaSZpy1fIr2hS54pGfdlUWHOZctPkL
D+WmFOrmQI9/20JX7iqPim7UdULu4MGV2dmDu8Yo9Xa2h/k1ahOs48LYCS08kbiV
EHeHjPfdmnl0OGVvrE84Z2tacLitEKYYua2kO/vwZkWruAlMxPc0IqIPXoWdRJHT
qm33IUkqW3evibaB2gE4EvLpdnOMOQeJdMLBfAQYAQgAJgIbIBYhBDWxffV1JXfK
DFQc65S/30SErRQvBQJePrwhBQkSgdaUAAoJEJS/30SErRQvQ6YP/3lXlWDoExiN
qnb9UjYuzw4czePxVb669C8hhI0rjWH9b/EDdaZ91RD1MRS1xMp9aoRDwtCTWKQB
x1+hcD16hCYuBKilECOw+gzyW97VlzzvPaVHClpvrfziD1TLWyiU3/0y28OvWw5k
A+2iLHzZyjww6bOJ5iVeH23ijHJJ/S0THYdVKq5FDuKqthWCWG/UMVgYdAUvn0at
Wa+VLzsmT9dmckEEvcr1Yp+t1HXugyBIewy2NQp8o9d+I4jgbG92i98eYh2nr9dp
3/YhpYCacyfHDG5XaTKgvzE/mAJlYae+ly5tPHMauJd7mim3wBNTb4RJgZxYAvnT
t48xScem22nt4+L1I3yjTrynAi8XSb00eWRlLVr4fm9uz5Yd77hqIXHt9TLrQF2w
ifMeO9BK+ymBPZPsKbvhHzmvnNxtUpwLyP9zYWVDVixnDcHUlan7J5S5raFhEbcr
ozupcWvHCn6jOqmoFW8XNsipOTYkVLfVdCTMEigj6PR9qyXdABeBfxtGvL4Pf/w9
ErLFJmbiYpihJn0FlFvuj47Bt1+rPmRqkZM17yGw3RW7k0uZ8qAxFbRx7Z5ZY4he
hg+5jWXgln7DagW2bEJ27m98AtOQ+7c3FDH4dovm8N8Om0pbM/hH+xz1FNyO461b
TdU/FN5iBuiW4I7Ys8GdJoLcsCXecPTdwsF8BBgBCAAmAhsgFiEENbF99XUld8oM
VBzrlL/fRIStFC8FAloOG68FCQ5RNiIACgkQlL/fRIStFC9u8w//cdog1FDpN1iy
Q7AfwcwWo2VqhY6bUd2ZcwrF/gY3Jin+MZlqPCHY+hmcbxTEctDL67HiybgZiZz4
NaI8LMwHt1k0SEY/OjvvRYOWMUBHoCR3ekW+aDMz+R6fvMEuDwc1neTNj7JkP/a+
eRRC0AvZCusIJk2qU7mIXPPQDrUg+7T9AArQ7UFGpoqco6vTLS7jo19hssAEkuSC
dQZRw6Da5CKoQYbUpH+PQPF2kMw0eVxpbwR2em2hZZP3UtL4RiW/8z8EMSNo9Lt1
6dSM2824pNR7ObKqvB4oEw6wkkqstIysMhd7LVzLJo2Qudtx+mAz5PGlsqwdDC4V
FLLkbD+mQzXNT4IPJFQfKPcvvVXQ3buLYm+tIwRoLOAQWF2LCLzBMX/V8/DsBZyh
XaMZsP0ATpJjcH4UGhAgvKkpVKOGZsNTUKxi6h9X9D3JuQN4HBtHvwPPV50DNqJo
lri8DVDCHfetlvAQSOdPY4RpvDg2q1+XljGYMMUdSAvTVGjo70DznT2L2RAdsfZV
hVl3d1gVYjOGrEg7q32ebF2qYYTRT/1AwKLZZ9eBgCKt6+hGbrq6Tl2b+8iQFEN0
hKPUbUlF+mcnOZ3h4/AKHNx7LHAPXx/NHxQuz1lLnG55o+7Mbte0omVmK2jvj1so
M2a6GfKrJgWAnoABK7/hF4B88yE3A9DCwXwEGAEIAA8CGyAFAlSxdwwFCQj0kX8A
IQkQlL/fRIStFC8WIQQ1sX31dSV3ygxUHOuUv99EhK0ULxkzD/9gRH62ecRhAXMC
tG64jlTk1NIw/UcHeOy2mXS5+GNfQYpsviD/70ewUT07xrVwyJLb1kYJyYGxX7Au
GPKopkgvWniN1IDY0c4fO5MMJgYi9+ciO6XvIkjYHLuquxcTaHGv2/I4ZmMKLI60
BsNPxa/5NpJXbcZebUv8mo0waJ6gB5nNDyjPvX4W/AZfwBCzMpT6b7nB7uOSGLgk
RcpmKfYxmfq4yhNgs/UXQcvNqweDahkxicJJdjESdzFxaNXI96hFELDLmypjHIdH
w6yFtPxKSUBaOL/H+rrdUfBFfzTjgqltFt8t7hFbVSehjniBLDhxZUDFMml1D9+3
YjL3zmT1PgemgnNVnhUJ/DyJwscslPy8aFa7JWY41warJi+eabzERvXSMqboIVM8
P4g+qlit6VxGZV6tajRU5t2Elf2zsGZ9tLaat6ac6yC21fPRtCGCbsmmpS+HG5X5
RGEFAA/yPTrdFcaxIMmhElqkN/Lkc7MGiWFQ1yOBd6GVKzHtvR6iM2E4lgHrBvTE
d3V5HX3Nz4Nwmy60rdlG7EwlsbcrHb24Cze8D5d6WXZH87NyI9495cG314M7yFH9
pMnfBN4/DXniEUv05uZ2JCP/QGACnv4j1WQfDfER4IByanKSm8lgsj6PnXEOgvZE
WBSRflwIazfMOxmMwNMonmCLBukSpMLBfAQYAQgADwUCUWCADQIbIAUJBaOagAAh
CRCUv99EhK0ULxYhBDWxffV1JXfKDFQc65S/30SErRQvKw0P/R1o/7w2uvGaTjdd
L6jhRQVnuEVNnJf6DUyYygWvBiMX7occGJg1kDaCYfVkcf0TgRsookJT062ArciR
nTzJMCC29mRRtvMszd1UGFgxLQNUlGKsIo1Edhnu1R09j71qQmGyueOS9NaSGb7R
1jSSzkPU4odXy86xVX6ZiSuDuV7Q0i13HZvOg8VrfSmUjGcYFLEboL8wtgtrNXoM
+EA+hEFizhkH3ZNfvz0wzWM7Hpy9yayrLJCeKypGswQafRqwcT7E1c2WW1aciVis
zkx6/SBDmh+MkQ5HEnjzarCWNLOdGRoXioS5yDPZnuQSRecaFXydWLjSSZS5A85L
qae0USz3a2bSCBLHxFkbRHnzC3kCC/xYUmHg8ifRp1oBhSEQKBrgO1bIalwuLWFR
mf2iWsk2Hmh+WRW5DIQ0lk4NqX4NMD8T6GPgyhpHV1S3PP+iJwVRpg7XRomE5rTS
FjhSKsqVi6AOmn92fFvIrtvUJ9kvqQmgE9N60vs8b56z1lZZEE3XWayaV7O+tnBF
yV4E4fEzJJatG55IwSS8PgGVUk3d+68cPzY0uRnjGvsBRp6V4BnxvIdzykD5cT4A
2yetR/C4LE4g+YMra0SIoPENdMZXy+T9TzYd7bI4g019DEDQUWsnE67hBc2tGgJ5
8kDpTISIwahPTFqcmtQ4j6pmdSu0zsFNBGBfJnQBEADFxf/gXwcEUpZSWGdFNSwv
uJmbPakYcUXn17lBpjm4yjUIom91cjw/8GBJP1Wr5Vpj5xwKf58MvnaOeGIau3/h
0Yq7bg2rqsKAKTd4PJVtU/fz9K6QxzIdl4ml0/z4KFZMkiNeK0dCOjz0uKaUGBVV
as63r109kdzsigVTjHGryPDUb/LoaT9UEE+wEBZKndt9A0Q1CevCFydvhwWYnyV3
6AnqGcxes4LiLKuWcrBA579iangeHHMaLwCN5zcT+GlFaOgn32XJf/PWnNvJGXOG
emcgP5HTm2rskQwp8SL4j+7hFa9bA7ReDcSAENdbJfAUui9sxIMxVIrFJ1fdZNBu
XCQ9Hp7sk7QaD8vkkJO0oxfk0v3T3S2/a15d0G5zVhVa4ieCEOyo45dvWgVSLNf0
MHyI5d55jWn6TRY9np2FFEkOkZiRYGoAXgoRpQtAIuXvzSWnCCxItXTdpQmpCbKD
oFCBD1ag3AwdRUE38qO9dhWUzCQSxs9L5rQTrBhdoS0L0DF5ZYAwvV2hnaePPOMR
Hv17RbYC+FxO+UXmM7zDxT0ZGBZOqpYJlE0X/2s9RTuBm/a69qmJYsVTS0/WPKoe
ry25VtKC16cZ1kM0P+Y2E5m+B3otXyBBPrcR2ggKpYXXxTDFvnc+nS5hV2p/qWLE
i4mnoICBplRGMJIwajhXqwARAQABwsF8BBgBCgAmAhsgFiEENbF99XUld8oMVBzr
lL/fRIStFC8FAmMc3OUFCQMM0G8ACgkQlL/fRIStFC+7Mw//ZTNWUFo4J9q3SmrY
AYsV57PpP/IdQ4zXsudy7H7cywwiAGEzAmkq4FwI3ybKnM9db7GMYMMHy9lNVFtW
Er8ElXLadZdXuIsLr+IeNXwDsSYmtkZgLotsOUxq/H0jdZHoHHeiBPFEpzl989wx
4s8xNDAKXvuQ/SE2YAlMSyVNUKCWc+CQDVp7XMxyqNXcjjgzN1CXHyVm0Lc3RvpM
Y2puz0slBw6cEf6caH9tROsG5WpBfgQ83NjZClPhFbdTL+/vRNumfJIFATN71Xnc
18d+v7ntWyzY1eDuCOmZm7ST8bxznqE4Tyff7iolvvIVRPqOpvE7+5oLcyPPD4qc
tMgnDEMXH66KHvz2PvUWoItNLYBM91nUivlim8WP7dsYURRSTj0Y2vMAGdpmqKio
Z/KGpyIm+n0d4ogEFaUu0Zp3rO3oXU0fOqyPReTaINcG7Np10IG92Z3fNLZ6z+oe
S2AjRBNB+aBk2HIOE03/8js5sQlX0RsfWd4RpC4WAwmtBO7v8VeurREvW5oOwEJu
j0ccPCcu49kfb1WkriMSxGH8mvbwV5c39a48vSBp6kCxTs746PtuwC7xoZSZ/I/o
2qjhp6mQGbqdeaFfuf1w3PMVXyOmJFXeosIQZhQjiEYydEmJIMGQ+bD7DvbLfPm0
PqxTF/7zd6J81lrpkmnDzbrD0Q/CwXwEGAEKACYCGyAWIQQ1sX31dSV3ygxUHOuU
v99EhK0ULwUCYi5rfgUJBZGsCAAKCRCUv99EhK0UL7PjD/9/mn87ahr03iHw+U0U
3jGY41fuSE6z/YTxwd0zBN0V1aUJJuxYuaX/dLsyMDE1qZJC06SZDBg2OrNZ8d/c
joViV6lIPG4fHpC0e3XM0D1cvcmcCqrT2eA5RbJUFJe0UiECOBkSG2o00oks3gBD
3ZUCMtPh+iU2YXj01uyRnRmk1iTi7BKI6IoE74MCbemmeQ1nkAoGMdLqVF/Zi9NC
99tmOZTEXxOnl4+JadIEB11LAGgzoZIgHzPR27oyIulLdnzHig8Okz/n8o+rf4cC
M4qmR2G/TEHYeumDm95irLkWyuXo45i8o1nDlvKhcWQudQh5j0+/1vCtZvlQLlFu
CTTHo6xOVMI489+vi5iBdLpVXHyS8DZNEsUz7viLWvMGs6C90dweQi4uuBGeA6ky
TsOYzbAYBxreA1uIB8lOgjfJ+/5FHwfbp6cPWMTvHYVZKa99eF6R4Pvb8Au0+qki
ev4WpzDyF1ELPEKRZcMvR7jyK0w5l06RKKh0820BBzwVidlexWBQ2TVi2bzTQ85s
FOBrh6A8h0Zg3kYa1noojBQpLd/KixLBIuwsuG9o+rDTlcEIH8mxJTDvE0Ul32Sn
QPifONAwLrIg8gOK8fjqLydCw8wG5anMCGgCLl6oybzMyX4+YEpm+BovnL7xa4bU
XDUiXxnO5xI+plOajRWqiDasv8LBfAQYAQoAJhYhBDWxffV1JXfKDFQc65S/30SE
rRQvBQJgXyZ0AhsgBQkDwmcAAAoJEJS/30SErRQvce8P/37/R+5di4tRWziCdoNu
hJFffdRoxnI+ohdQTChcM/kaTaTkRtqFZFvCeRB3FrYAp6SY0Y1XcWM4XSw+/yJv
+V78prWlyidC2rJRNoleVGFKV2tlbIlhXu4LZnMpmT5kBweKo0ZRGnS35L1xbl/S
Pz/ULctVwgtFfGjQIpTuyZXhMmJhSlw/A4LFCA/YFGkATrhNXZ+6HIVLhGBysdhY
fn9e7iHobUsC1FeQb1Um58nVjRiyWSZ4dFZTeG43NtcDCUbnqkpOJQRr2ALIR+0l
yMMt9FuwT5CwMxiqErGJ2+cH0QsjrQ48kdUG15Y07D1HArsiFWo369PFTY752ydJ
rHPhWVDNjnlBA0MXukCRvzEkIRPtvf/3o2PPme6nhzr/eTZQb/qV0qAzNMwUZ1TS
37tmfXDvY8Wg3mWrGBb5z+ORfDPQ5SZiO1LyqO8yV90V3cvT/NLCBx2i/gVBYuB1
afw289YspuSPaQzXy7Xra4a/TdRVRaQvHx+8yteMRjLKFDE20XpCLI1e8uFTcYNo
iZ3K7obzyYADxGSbV3vC7NTU1tUSQzXD1/t7bZlDorvePyZBSBEXpeffDFyd+FQE
nmidRyymAfR7/GAy5AtuMD4LFw1lMamdFf3G00vg/REVmnOTxzS1127EeJFDgI3f
xspw60s9xmtwv9ctcIquTvsbzsFNBGMc3e4BEADQiuDbGwWSblE+IuiAOlA7eO5b
HjE3ZB8NOISZhfBrIa7d0qFdhS2DX+2i/GDnF/j3K5KO0dqe5owxBGZq6zMJiTqp
+lyG8hl9931ru6F9OBcHR1niVXDDGpoUx+Nbpfz3+p/26mU2IVeojlDoLcRRP/AA
eXCi/nft9yNT23TG6I2mNPbZnXTkiG3vHdxQUyGe0R5cu2fI/5Bf/hssvVnUVMXi
9nBvhLY0Q5qi03CYmTaowPbuNLSSbEEsDvF/Qka9FPLxWmU7qmZOVSzoVlmiYT3b
4neCpmCipaVUubTIu17M6CPcJf6OrO8RzmNNtpLRyW9wo+pHm62yv5ZxJ/HtOhCd
9ZNH/v3oP3nQoQnawO6lP34bbzsp8GtmbafV5EF50OU4qhldXxehq6kLVTYRX9jU
SflWjdXNJOdq2yqz6zbVr+ORyiN7PjBDPMgDYmt7reYKaaItRSJe7DzoffxoPZ23
crPbe8q3s1z0OaifmKDckAl2g3LGea9DteUsPeZ7M/Wj0s8VDVbKE90RbqHB8WhW
ecY2+NG0PwzA7MF9+SCN43wlB5MTBgMMfpHiaGWZ4Cf+67LiKlu/4lcfGKe1Un8K
PfH9d1PUnzR6mMM+oX515k/oNGgRFxyx/ewYtja3R0Gu0lGwnOQtlpr0edTZ6Kkn
S24gK0DYckNqRULbBQARAQABwsQSBBgBCgAmAhsCFiEENbF99XUld8oMVBzrlL/f
RIStFC8FAmeqfa8FCQhQBrwCoAkQlL/fRIStFC/B1CAEGQEKAH0WIQT9GebTGxku
5Nxj6tPcKxYhXtVBKgUCYxzd7l8UgAAAAAAuAChpc3N1ZXItZnByQG5vdGF0aW9u
cy5vcGVucGdwLmZpZnRoaG9yc2VtYW4ubmV0RkQxOUU2RDMxQjE5MkVFNERDNjNF
QUQzREMyQjE2MjE1RUQ1NDEyQQAKCRDcKxYhXtVBKg56D/94Sc8WmlRR87+qJ9X8
8b9nn6txNSuzRQQX+dcCnHuDoSYT15iVJwQpyzzRGti/dqqxTp2kYAY57BnKbEW7
kxRa0n0Nvzgqac1r8zclXfhB4JA5A5/OuUj8sY7JBzhXUFDmGfe3u7uAY9c38/Fl
4BCwtF46GSqTsvLDxOBQtdtV4POU0wIqsi81PL/65+firf+ZDPjn7NXa7hLhkpoo
BmD9/5wYSZEHGEklusdoKYzgtjN0nWVdNuwwzxeJQ7Knc8g3ASkJg7NuC7cC8LAY
SJVDa0IPNTTLcb85tRgck1H7SCE3hOqD4srojlRPDED1HrK0iL6FuD3N+SRcpFoJ
cbJFnMRwE0IjxOyS21qZN9M657XB6mEzKMI0c/7t+43pm3rXuVzQ7CXp0ydyWr6B
xCiuG5ZQNsUwVkKmn/YgtoVIDC72YXLVfDICCw5WRVsCKW9SNsXzqL/RUHEn7Pau
CKC3bs/ZlOQp3U+fiSrvASOeKBtefDSWnNHA2+/TxPLSdr9iYPC9nzTeETZ32WYt
SXvufvg6Z3WFYfd9qN89GuLM542C57tyVk5IuepYGIVc8NdpT/YdSV+FnCS7RY74
UxLqiGZh+TMhx9zalH5yYvfl+NRZyBiEKeflhjtrE5FhRTSDT0zvvUSdw9cCjbfK
WbUZ5REb7+ckCZYWaSOfbXn/DFQID/4urMLgwZEZC6z7vVvrMsdZU92QRGbJe+qX
tNtIJh/Kziwiujzo/SMQpvXtaVOMfty4dZFDwRyTCr9eR6UZDJ/VvXUB6oBaBFYI
V2pv//eKRVrR38a17HAuhbqslMsub3U7YA0hap1hob+33nI3121P/Kr+QhfzAd8c
gKmR9Bx8kRp5kHS18KSebSjhbTcosrfGRjzur65mkzmMwLeBTk3egV6pl0Y/VrGv
QJ4crQsnSyhWFzUEzvYR+wvn4l96gmuff7PUn+yv9+lo4XBKKsVxNCmTbNNgQLvt
5b6tMMzfj4hAiUSHmMnN4LOmPJZ+NrkUIcDMrXUCYWFgjSNsnm/nMN4lq952B2SW
HAsHwo55OxYCbZWlhwmcj6QdnP3i/nxUaZm4PtUhc1L7IkGgBKQCN1e38o2ND+xA
RVt/c5VSDBIaJNq4V+zjTmiVouYzrlmC+fuf65bQ7XtTGkd1yAOshP50NtLfsOoL
n7d2OYCrfGbqTzBHtgYj+WCMDAhLK6l9kCkHQKlVWVJ2Gd3nCcLdhJtapwHRMSZX
FW9O3mtqJDU/6xQfP7HxUK45HhHvNyjE29S2fi+A8XojJfPx4+s5/7VtU07ZaBjk
cPNeNSYhVNL+NCPPL3uQj8etGPEC2gaB8fB5lhNms67z+iOkXDdHbihQMidTTyak
Etq7MZKYN8LEEgQYAQoAJgIbAhYhBDWxffV1JXfKDFQc65S/30SErRQvBQJmEZJh
BQkGtxtTAqAJEJS/30SErRQvwdQgBBkBCgB9FiEE/Rnm0xsZLuTcY+rT3CsWIV7V
QSoFAmMc3e5fFIAAAAAALgAoaXNzdWVyLWZwckBub3RhdGlvbnMub3BlbnBncC5m
aWZ0aGhvcnNlbWFuLm5ldEZEMTlFNkQzMUIxOTJFRTREQzYzRUFEM0RDMkIxNjIx
NUVENTQxMkEACgkQ3CsWIV7VQSoOeg//eEnPFppUUfO/qifV/PG/Z5+rcTUrs0UE
F/nXApx7g6EmE9eYlScEKcs80RrYv3aqsU6dpGAGOewZymxFu5MUWtJ9Db84KmnN
a/M3JV34QeCQOQOfzrlI/LGOyQc4V1BQ5hn3t7u7gGPXN/PxZeAQsLReOhkqk7Ly
w8TgULXbVeDzlNMCKrIvNTy/+ufn4q3/mQz45+zV2u4S4ZKaKAZg/f+cGEmRBxhJ
JbrHaCmM4LYzdJ1lXTbsMM8XiUOyp3PINwEpCYOzbgu3AvCwGEiVQ2tCDzU0y3G/
ObUYHJNR+0ghN4Tqg+LK6I5UTwxA9R6ytIi+hbg9zfkkXKRaCXGyRZzEcBNCI8Ts
kttamTfTOue1wephMyjCNHP+7fuN6Zt617lc0Owl6dMnclq+gcQorhuWUDbFMFZC
pp/2ILaFSAwu9mFy1XwyAgsOVkVbAilvUjbF86i/0VBxJ+z2rgigt27P2ZTkKd1P
n4kq7wEjnigbXnw0lpzRwNvv08Ty0na/YmDwvZ803hE2d9lmLUl77n74Omd1hWH3
fajfPRrizOeNgue7clZOSLnqWBiFXPDXaU/2HUlfhZwku0WO+FMS6ohmYfkzIcfc
2pR+cmL35fjUWcgYhCnn5YY7axORYUU0g09M771EncPXAo23ylm1GeURG+/nJAmW
Fmkjn215/wwyQhAAka5o0xHLbqYi0vvPv75Y9sEkLzqItdSj2ioia6p/H6OhSkU5
pl4vkxtQg4B6nIIVW61N0xDqym7ru5tuMBr6lDLDKYh7KwVeXxGpdlqjrr2AI2QU
jgxz8unq4MVqHWBFub6VAKv0/chv9ZlmwmsiRgVM3HOsDr3kJTybBpVzFj/ffzoj
8jdfPCh8xizKsOn74X6KCrzQpXhRYDrkpZoxoP9J6K1yMrfIqf+1TvwlSGWfosOD
vyDdnsXHvjJ5Jti4vIKs9N+zwXxANzfwVoEmYmQAuPBZrr0UJDXqU2gSZZhoDaFT
zzuE0QdRB5wjba3mcZtZF0q2513MUyHtoJ5RB8NIilJak5jihiB6KU6rvvOfmwXN
Du9hXVhKPLiw8jxn4AOi0i2fGZT66eJ4YxfaTL7NWZoAZbk3FlKZMthgpFAJIK+W
bIa1G6TrDMiD8d3J7wZgcAB3zanepQyTrqhCjeYVgiWYaofOIKV1v8E2pDfJ+cZj
zyYrhJ/bXlCPqzrB7CjFYmSznv6HCbzs1hO3TeG259HI54e9zmKejBjmfFDWH7z+
rdzY2Gwx2ARzH7lQjfzWo28L2CiVmvt1JFfxPvrpHMAHCrpMu+ICU6T9Mbt2bXWq
muY5GBNeKoWGM74Hl07juPp0vMe9MtdiAmaaBrRV1ZjUmrLh9Hwd/p/4jQvCxBIE
GAEKACYWIQQ1sX31dSV3ygxUHOuUv99EhK0ULwUCYxzd7gIbAgUJA8JnAAKgCRCU
v99EhK0UL8HUIAQZAQoAfRYhBP0Z5tMbGS7k3GPq09wrFiFe1UEqBQJjHN3uXxSA
AAAAAC4AKGlzc3Vlci1mcHJAbm90YXRpb25zLm9wZW5wZ3AuZmlmdGhob3JzZW1h
bi5uZXRGRDE5RTZEMzFCMTkyRUU0REM2M0VBRDNEQzJCMTYyMTVFRDU0MTJBAAoJ
ENwrFiFe1UEqDnoP/3hJzxaaVFHzv6on1fzxv2efq3E1K7NFBBf51wKce4OhJhPX
mJUnBCnLPNEa2L92qrFOnaRgBjnsGcpsRbuTFFrSfQ2/OCppzWvzNyVd+EHgkDkD
n865SPyxjskHOFdQUOYZ97e7u4Bj1zfz8WXgELC0XjoZKpOy8sPE4FC121Xg85TT
AiqyLzU8v/rn5+Kt/5kM+Ofs1druEuGSmigGYP3/nBhJkQcYSSW6x2gpjOC2M3Sd
ZV027DDPF4lDsqdzyDcBKQmDs24LtwLwsBhIlUNrQg81NMtxvzm1GByTUftIITeE
6oPiyuiOVE8MQPUesrSIvoW4Pc35JFykWglxskWcxHATQiPE7JLbWpk30zrntcHq
YTMowjRz/u37jembete5XNDsJenTJ3JavoHEKK4bllA2xTBWQqaf9iC2hUgMLvZh
ctV8MgILDlZFWwIpb1I2xfOov9FQcSfs9q4IoLduz9mU5CndT5+JKu8BI54oG158
NJac0cDb79PE8tJ2v2Jg8L2fNN4RNnfZZi1Je+5++DpndYVh932o3z0a4sznjYLn
u3JWTki56lgYhVzw12lP9h1JX4WcJLtFjvhTEuqIZmH5MyHH3NqUfnJi9+X41FnI
GIQp5+WGO2sTkWFFNINPTO+9RJ3D1wKNt8pZtRnlERvv5yQJlhZpI59tef8MCYEP
/js/scTsdPyBsxhAn4OFC/oX4bIeZD52lERVN9qgKtla3k5AnYe8jLa44f7/zDxi
VB0JzxqtXPiif5PK95yiz3pBOGEPEG8iERsKDIPHGIx9/tc83A8yBCZ+JkuAsgGV
NDTv0ijiWSexyDN6Kwr/mjtbDcxszzURr1xDZ6/UGLaSC0k2ofKSpl9kNIiXdGNS
+tTe/S98s9v9PpIjCWDHKoflEucJmmM/qRulhn37NND/fjlnCaQfBqHzRDgPl8JV
/Bxu4I4BrKnXB2HsrU9fFkg3EFhmrNhfvR9KQ9SLHz5IdqVTr6+Pq+rsdsrtsakH
pdXhzhGIdhTWbMGWzngKMtETuTexbvfSNuHT7NWnDLamdznTUrQPrhIl7uXkkEOC
WM1XsZzi9pNnKV2CMrw4aCyUBtYaHKpnTNQLiWwXN0VZVY/s5KIwW6JlQ/ULdzPy
bYblkxFco4UvX6K6/0neMHofd5pJMQrdjTrxl2WblEuYQvNwiECWQdddfbfFuc78
8mVGYDRTggSz1C1P84vqaUXfv3PSG+uJu3H/Yx1JhPBlwiCQRxYO8C//2g/lVY4r
4RSJPR3BOlndAi1v6wZgsU0ZCfWuV7nuZPoPdfWOz+okL+ANWU4XiHbkeu5QS6XJ
mqY3rehrs3PfIAUzzgD95xKbtnWSKu4ESLUbW+Q+e96hzsFNBGMc3RoBEADWM35u
7hn1zYVHiJ1ke3BAMm5ywt9jGcYhd0TSjifY68eJZgy5rUDWyKLP8QX/sO1gIIPI
BeWxBjx+R+PA4eYrVuPkjSAuZIJSIXticoE/F0szLmWnka/f8s4+DXlWuOBmY0e4
LCJ1yXgBR48mxDgJZ7F9dSmPem/DInG5Zic74vXkFJqrLdtRM4kd8W5WEEtZdPzl
MXdDL63VALiGNWySeutyAOFd9mLqcH7eq9I4uVPwNItB2fdBSoCff2ogQVCcMQnh
w5nBI9QYHrqTUUrnal+TzrsFt+tiD1Yxa1UC4eV6fmUZx0MxUfiUcKnRT9LP4s7s
CGcgf34Qf9WRCsrtgRetqaQMwUroAhNlX69TPgpIBdLlww0aPiXhRsTVT3kmTiJJ
fGi+cRvb3B/8dm0TfzYrUUsEGGREE6cVfum3Vg9K4F+RQKhKLRBi8clz0lSr7rDx
Phlk+6FBMRC7HOa0sLX9ViMsPUAFnMWpYD/srXmUlgKOZS2Oj6FZ56ZFOE6StPZA
0bs1EHFE+63jtUHKrR7k29MbpNVPY9E8FtCVBgljzbJZJrn3lIoH5vYC0hrnLTxs
Tow8iTTmARO0iEyZb2KbKSao1eJvQGAu7GpN8ymLtfvp7hAL38lW/MjIxLDqQ00r
bN3EGXLFncBWefN5qbJk1ZjJUK+5dxynPtic5QARAQABwsF8BBgBCgAmAhsgFiEE
NbF99XUld8oMVBzrlL/fRIStFC8FAmeqfaoFCQhQB5AACgkQlL/fRIStFC8hBRAA
kS7H92zVIY85kE0givKIZ9PAYvinPTwZKeJQULStq5lk4getywcew1KI9ivWW59O
STiZVFmO9B4pVXnxgAuDpke1o/1NcXT5nJUiv1o+vcdHxLu+bRvEicUo1VJqWriA
51yXAixrAy1TG/dX/8WBPPTgXfe1VYycK/iykr7l9fYz7S8YMUppdgpZWmn2smCQ
QH6dXiWFU0Kq7ygmI3K5OlfciYb78uxyA5oUFtp1wuqGFZ0pQVSe5RBAmxeaCV0o
5OsO3hNIY2vSuLFZWUngWfCdQPzxfwPKtda0fpS+rcvhJrNkwstwIWv6GTfZDJK+
vbZipESyc24MfuC55ZGAgjqovO7WuoWGDUDMRv2Chg/PIR5u1UHH7hjqw2i34aQ6
xxy8pv2BDnc+6TXAAfR51x6SlEaZVwfL29ezcy3OMKJMTblokwL9qllOoBNowN1q
77/w6lYUxjdXabmkTc1H7G8SxvLS3h6VDPsNMngqJyfTgT6HNk0Sd75H85B6nMDg
KHMA7WBESU8PDZdECxIEsmqSZ5BjQIZwJm1B4DP/s/iXJEn7v/yoHJwpjaOOWLcC
hegd4l5Ec6OF3JiBl2EjhpRlmC5PwHxFLQshS6WsKwqzgHg80hptQJhWyaF9X1u0
WWx5wzQbkKVmpw1qfCJ2PXGlHP02kPpeNN0fdpM7FfzCwXwEGAEKACYCGyAWIQQ1
sX31dSV3ygxUHOuUv99EhK0ULwUCZhGSQQUJBrccJwAKCRCUv99EhK0UL45AD/9S
CsvSnVvKGCt7p1VYyBy3kx0uzuiJy5EHkIFKflSK3mwxBfpnEP3K4qfRiMAKn5nz
7hVbFUjHu7BH287iGSQ7PqbfqQ+okgC2sgBkDs7b9oe4lPC0YLDUtrGI1Be9Hpda
iXLXB3tMrcReKVOnq/j+bJSuBeQ+iWinQR6/uLphCACRdozp4IOs72RElGkhrV8B
gMMWeoiciEIHmE8q2oAdmX4TZEYnrX9Jx3iU0yE6yjYQyNz2g5lxSCnDOkNoTOnt
mp7oTUlEn6oOCb2gXmRUxuO2pXDwhr1oEQ4g7k7XUuuPbK2kRDF4nZL+utCwtuE4
IgJERN1o2tLXhU9WR9A5SU7YmA6bFG817lGqz7KvFSsFPUUIOL1b0AY/1dxuDHFo
ubL3XfhB0Yk9x4IregXAz3s8Y4bBrj3Uj7vtpn3n9aMJcvol/0uAtIPmwdnr10rL
KxBLjnN7sag+rw+MBk2/f/PhbIhLpewfT++X4A6Ugwi4cY60zQbNZZEvc39BViE9
yUrKngrymw1KPlXsABpVKOc/gPqx60wrqq3ehhOltU7nkSgrBl+RjBaHXpi6pXy4
NBwjhY342Y2C5Q5D3cYRD7IogV4k4/YtSdoMVCFYrPPG0MAh3sXlT2YxxErzwU67
kp8zf/DlI9XOweLni/H442cPTx7SSrjxsWEQoeIoB8LBfAQYAQoAJhYhBDWxffV1
JXfKDFQc65S/30SErRQvBQJjHN0aAhsgBQkDwmcAAAoJEJS/30SErRQvwEAP/0//
2iMGP7NIewT/ZnrEQ5Y4FYfjnFK2nrSGL9XEHx8zUgLi9SblNHESBQDqFq0hZoP8
8ex8+Hpcb6eVQYJfl99oJTJXkNZl/QlsmWtYAhSPUiLXmCUzfmGgmGVnZ8fL7/gd
D+j/RdidpzIlH6WF6bjuFOIqbhnqVquBlHyFfPTEtfbpOarceHyVTjEZOFuVYhL4
HWdUPqgIqQO1KuZ2Rm3ki1Z8CU4MndOb8Tg2IZyht8ovMIVoKTwboxwAqHn8SP+W
mbzG7Hi0DNIk3DxDwh6uRaMLhdwHPmONGstByrcq0BeYUgJK9B8Liekya8Sg6K5J
4d9iZoAFDpMbL+bM9m2o8MIhm5y/9v9ZcF72MaNOGo1vbjLxTsr6apjvJ+VOQF5G
ck1ld5H+WXuJY7O6f8Zv1m7Y+qXrogoOf1MWsGr1093B89j6lrD6QSD4BbMudMPJ
COZXo1xcmYxfJXY1aE2b+rjB3ogJpmxN0i1KIHUV2SZUrTbRBDA2pXz/nXr+OPT3
Rjn+gxSJGOWpN9McYYeotf1fi3kuOrxRC0y1yQ6ALum7dZ9GRUiQ3W5cYbgouTky
d0tfko7bpH3P6MEk7dGgfWKnEUOjYn8BXQ2sPVfHZlaC+QSZH510zAyGtDgagfeU
VFwNhtlSbD9PADbJY5s44EyB9/Lyh58rzAoOph99zsFNBFZI9IQBEADYVdcgNZ5T
OPHIMU+uMerbv7Tdld6MQrDQSbIDkKu0CNzd0QYsxSBjZtug2CiIeLAUcNfEbSM+
gbP8BIPdEwDF8oSsgOvfkgbRZbHkDPxL8sVw9zd8dZePyI2E6mHKX0yvRm1naeu7
5nSlNvdYz1TzGu6qmjJHlYOxqvtNco2sn9K8TWreDrz68EWrkzJsX0bQlbRHOAGz
Su31uuo3jX9Xf79ONN4h9ns3Mq4PGVsPvIZr3in8wuDJQkFxuNU+X2sTXHfwYtcD
ZvLfiQPJ1AdEjc+1Jp133ELB9/mS6kAd5Wj/3CpY92FmCo/BArc60UjfuQxbwbb2
FhNblttr9E8YGj88eiC93HS8U6dIini5Hb9/nSm8FZ1f4C/d/LXXFZoMmNVIYy3l
zoXfEKpbFUcfypLVt+yEKHEEVa5UFNTII8qjyjVftKaVIph+zAGXTPmPuUtGO1St
xrP3iMZmNyAA595QpISr1q/lBDfoP0j/anaqOuNXVrxYmuQSG65QkBOUMAN7FcGN
qbphzUBN4spalQmZoRUFgqCnXVuy78dibstPSIzylAzyN5KxlEtPg11k3Ciip9+R
fkni1r48wV6seCG6/49fU59i8e/cVy1k8c3VfQIoP2EAGfQtdg4ouo1qb+cQN/M3
YGjiMWL+aMwzomfn+cxwWyi0+Lc7OALGOwARAQABwsP7BBgBCAAPBQJWSPSEAhsC
BQkDwmcAAqAJEJS/30SErRQvwb0gBBkBCABmBQJWSPSEXxSAAAAAAC4AKGlzc3Vl
ci1mcHJAbm90YXRpb25zLm9wZW5wZ3AuZmlmdGhob3JzZW1hbi5uZXQyNDBFNkEx
RjkyMTE4RkI3RDMyRjU0NDI3NDZCNkExREFDQTBDMkJFAAoJEHRrah2soMK+xTIP
/RhQTfb4+xnvJz79CBWLCHagl9mntV4eGsJTa3Rfm24SYw1EkyE9TvZaMXOraJma
UKmLdo4WrgPXQWxl6+y8kpAwfMJqk0c0uGjsDwy+qPJFDr1nrgxYPPZvSUu1t0PL
BlRs9WbVQIBZoVRQHSlYLK/lzJUeJwy6zghcjFmn/zKIune19RX4qQ9DFq6VyG9M
IJAw5X/a1ewtW6OHtvC+OmGnXHBQvhLTs0LW3AwzrNLacJLS3/0esA3hB5ru4Eps
02Yr1sp8nztaqTugM/+jIAOCS5+ZIqnlRG3LZoDLXodJEJA223+uXGby9bWggMDJ
pQfvKSjgQ4qiHvCs2CZx2tDHnv9EMOOmOH9jYHVPyLVEuyUqpLtG0fNeDm3MlEEi
yspPvq48ryO5vswsH2Ps5izm0252VDbd5tUdAY/JAD9kbIp+ur3VxaKrpMKfNOQt
a6WlPek2qJEXuaijwiI792q9k2cNKwfiT0tOL+F+SyAW6FJM9bPbPRoVclpAY9Yo
MUTwH7MVA/2p0rl2mqnrOi6kxkzPyMpU+hmnVxMK3JtXAs06vVnzj3kt3ixA20qw
riRe93bsvFYVmPT8OT2ms8ou/+cJkYRjT/FgPAevq/8lacG/ggc7LhMKVNkjc2aw
6/Jgfw3mi2Ak7lY4N/om1v3jsLvsoyr0tOY2zPB0NdtRFiEENbF99XUld8oMVBzr
lL/fRIStFC/pHBAAhCl7b5U8Kf3tQGMJtqEXVytJoPwCD7yN1LlqIerfapIZunAD
iuAMXQ1octfFaoBTNA9rhzdnznrw8GVrRinfWF8KmHz2zX2sD3py77YGJ/7WCf9n
Djz17eOvrQfm83KFdKCxO79AgfeRiJ0H2AinT9PwGc3M21mxQO6nNB/IfDTceNUo
ClZ5/vn3LcPTq5OO1R5BFEm+cj8BYULAJstawZkjFO5LEe2cKjO8yT2Kp97KyZzZ
EFQbPZKHr5scudi56lswRUDVQLe1mI2KZqUroEljVLOGQW0bYAsEPquhkqQn2u39
rWshIXcvZ8aFe/u3ViearZ550DN1A1LeFB2wgAFpz2wujHNHIHLu009AdCAS6UnH
e/QV5pWKBX1j/gL65v0rNQxsxlRaspv30zPPzOq/BwNuFTH0P8RM1XMIblwmvB9C
eaZARfzMddDz+p/lx5ig/sPU2ABZmLs1fGfSslnjSWAimeM9wqi+di5Cy2uforfC
0uz3O9BDfq+oQgHdvcEwESVRU84NRK0VVBho8aXFyDpzIzyZ3zmanCX1/CJZcMxe
NP22RJazGkGfwgwfJBpkKKPcQX8KI3uGUnbfRXxaRUxfYKRII8B/B35WUUpH0Hrd
bh4RGWe+oByVMVaP3tcXCMWSSsj/BWvQks7LvUFCGqjIxiJ1WcXKmmNxv+POwU0E
W9XtBQEQANuLNIgDvWeQ/8nTfYKjcD4X9vl4HN1ICtgJZx+wZ6L6qL4tt5ZjuSGb
nvE2tGLbcOahpi5URYpFTHI6KhzNNSYigvwCPZMh554Iw/Q6G6rqYtRVpEcGmh5i
9lLZzL1VArl771J3DBc3qKZNY+UMW2RnTgWIu1AIvf0gAnkiv97dS+CMNGQfbUw2
3lNz+entUCANmr6LzlWiQTvCjt6qBaPSnGL3FQQ8k5OwNcq4kNHaII6rVTAhOek5
Ql3ai3xoEweuqJ6aFG7CkIqZIjsc0Tw6zG76Nq1aXPPj+6cRb1YqooFwlykWZA63
M2Ed959kMzivtiieklOfasVJ8ukRMt7F928brDioFhKhIIGqupqWWlqx2CegUPlt
VRJX0qzlYRD8sQrFtjnwfyGQBXJG+Qu7EeC5ttxMuDL2m/XZWHvjRbx5ESW0nmbL
lUAfx30mjL0HZrfc0lV5P8t/CogQhBoe4Rcs5BIB9ZTRaTOQILHcvdwcJJ2q9VZ2
lG7wfBDf2tWkwJqp73RqSzJrb2IIbiZxwGxSXTqKtjB0rAPiH1bzk0aq2iZFVDey
gMOzWxjcSmFv61GlYRQAEMHJN+ngxnyPpBEhYV6ty0BJRfKPSfzFucuCM5HISNzu
ujQEq3a9yZTgFhxuUwmzpNv1wiXhWwO1MerPBJA/BOOVLWs6NOGvABEBAAHCxBIE
GAEIACYCGwIWIQQ1sX31dSV3ygxUHOuUv99EhK0ULwUCYFkNQgUJBIRxvQKgCRCU
v99EhK0UL8HUIAQZAQgAfRYhBNnZXnL3FVPP04bkP4ySYMb216MQBQJb1e0FXxSA
AAAAAC4AKGlzc3Vlci1mcHJAbm90YXRpb25zLm9wZW5wZ3AuZmlmdGhob3JzZW1h
bi5uZXREOUQ5NUU3MkY3MTU1M0NGRDM4NkU0M0Y4QzkyNjBDNkY2RDdBMzEwAAoJ
EIySYMb216MQb2cP/R+e12DtA7t/Xezv6e9xn3cDagXC6/V3MmTR1uENgNJQdNin
QmSdJEkxL4gPpP2Tmq5QMGyW5ZZFg+fAIbbDl7PHQmVpHPYGQvhKId36kwnd0hES
bwCFowVSEUeOd+7O6IwwZmrVOUBq29g5AT9wTzyeBIojtNseMX9Pd0Rmyoxr4dL+
fcGC7hdigF18+3OHjozys7NVq9RhI3+mlEinKkkVY+sUsA2V9D05s9lS5JyAbkU2
4GNuEwntn+ya1WL5bvqDhQfcV9VfNkIngB+8ArpQU6OX3jzYHKL1PiaVYjzk6z6N
fek48SQAqviHA8FPB7s7aa+6ZUUk7HlqmacV1wHroSd3dO3BCAb+ueEWz4MXcGuk
GICaP/9ZKfE0N71+/L5H56jyNBrCZSC3EmUD3VTlRXF/8MJNwI5qiy2czzk0Dw+c
E+Q9Lx19pGZfmXSz7lODcPmCEG7FNTRsoLDkYbP0KVUx/DjifbUDW+bKBT2AHoFi
4ps2yqsX4pf6Sf4kaxLj0K+hq1N9VIt+/PHnbHvIVaIXIMzRPoslwm114D4XbbQv
QTNh2aUzVdbLboHN9hw7AgmqkFC9CISPnxM9Q7Beud/4AfVzxaBYDuPU3/v3FFkr
0YxyB9FSdinVl+CoYM6+8Z2D3VfayA9PmSHJYmuX0mP2hUM0NpnafLGiFoCRVE4P
/38BXXHDt6Cr2PrbkRRpaqZ3K1oFyKVdIfxTVsOxgDXLxF5gcR2YKsif99/ISLW0
fWkkRKKr6OPm3c8X+EKd148Ikq8KhFops7qSwHB4vhNxBampuwSVfSc73tbu91Zs
133qJA/h/IUvzBVNC8s+Oxc3zdi3oS4L29xgHEopKoFOoBPf72nvvhCyF5LdL2a+
K9mT5rv09+eQVNnoLmU3K5NmIuln+tfFsDLVNC1BFpnAHOb/hcSx62XiB6XwJdgO
8AZaXxGWe4GTyAF3U7KgzmQqk19pJSVZA96FrHTfybCwxCA8Fb97jf8PMCX69sFv
BfSS7KOXOeDb/hvGSlXcnuozOUIjCyj+UaGVt6JQDFkYSdEK4O2+/jrAH7ngyh+U
7TrVBpcHOQ/dVB3O+D3t6SggLqz+q/c27cmxTT2se2OJR2EheKIqjczw7wlZ+/8l
jNYC/JoHjQi1XALJmXInEvWYM8vK0wj2muzJvrwskAVW81xrD6cpICVHmhwBV0kt
zM+edb9pExV+sz+Te1OW/O+PjkjNj7th2zT4+xZAXpzYckeNB8HRa8xg6oPs6WeL
h2tqf7WWnDw9s0zSdWwGYPKV8SLR9DQ0V2zQic/88cwe7JpCPAIeC0j7i4yiGhJl
BU2ffp7APhmnDJvl/nqChhZICMq0QPlz7TqqGdGvwrckwsQSBBgBCAAmAhsCFiEE
NbF99XUld8oMVBzrlL/fRIStFC8FAl77XC8FCQY8cyoCoAkQlL/fRIStFC/B1CAE
GQEIAH0WIQTZ2V5y9xVTz9OG5D+MkmDG9tejEAUCW9XtBV8UgAAAAAAuAChpc3N1
ZXItZnByQG5vdGF0aW9ucy5vcGVucGdwLmZpZnRoaG9yc2VtYW4ubmV0RDlEOTVF
NzJGNzE1NTNDRkQzODZFNDNGOEM5MjYwQzZGNkQ3QTMxMAAKCRCMkmDG9tejEG9n
D/0fntdg7QO7f13s7+nvcZ93A2oFwuv1dzJk0dbhDYDSUHTYp0JknSRJMS+ID6T9
k5quUDBsluWWRYPnwCG2w5ezx0JlaRz2BkL4SiHd+pMJ3dIREm8AhaMFUhFHjnfu
zuiMMGZq1TlAatvYOQE/cE88ngSKI7TbHjF/T3dEZsqMa+HS/n3Bgu4XYoBdfPtz
h46M8rOzVavUYSN/ppRIpypJFWPrFLANlfQ9ObPZUuScgG5FNuBjbhMJ7Z/smtVi
+W76g4UH3FfVXzZCJ4AfvAK6UFOjl9482Byi9T4mlWI85Os+jX3pOPEkAKr4hwPB
Twe7O2mvumVFJOx5apmnFdcB66End3TtwQgG/rnhFs+DF3BrpBiAmj//WSnxNDe9
fvy+R+eo8jQawmUgtxJlA91U5UVxf/DCTcCOaostnM85NA8PnBPkPS8dfaRmX5l0
s+5Tg3D5ghBuxTU0bKCw5GGz9ClVMfw44n21A1vmygU9gB6BYuKbNsqrF+KX+kn+
JGsS49CvoatTfVSLfvzx52x7yFWiFyDM0T6LJcJtdeA+F220L0EzYdmlM1XWy26B
zfYcOwIJqpBQvQiEj58TPUOwXrnf+AH1c8WgWA7j1N/79xRZK9GMcgfRUnYp1Zfg
qGDOvvGdg91X2sgPT5khyWJrl9Jj9oVDNDaZ2nyxohaAkSFhD/0WWNU2bcERbY/4
yt8bZMoEbYRWHcBtUhghnaoPSNtNQ9VPP3e3mD8d0ychjAr4HF7iN6DIPg6pYWlQ
d1N66TjH4VmVRl2eGNVOHRm214nrDgvsbZTLhr/KbciwWcbpUNvxj43/3zdcsdhx
/DTXt/Imf53IyPp+nel/X2Hst8b/ZJi7mSStCWvQok/Ce2lovDdoymR+7e+dRk4i
Z/NV4+m3WCZe1RlzwIOwnv0GrcCtd0Nyjh7+26xq+cz3Ly5Da/+JsKEuYbKVhLTS
izf5HE3YuiAsQxOngugwBeUR0AsajAfUHUdLqgyNrX7DbwKCZ7khKU93CqhoqASS
LbmXpfv67S9UF/FmbY7zd8h3G//6eDnzHX5SqHxg3xf14OQttWnAJjErfEOG5GmL
LVi4xRfX0Ox/ZndNTCLedFRP6+CI6beRNHYe8aY7spLpudHcLL68yRixV8nGLmYb
kckTh7Fc2qrLBNG1hIY9jHJtu91LP3HYdgktwgeQ9R6toP4awpOkehKNTnDqR6to
bNfhd9qAWcNzvqhks/Jqf02RrtiJg2EZl8jAhAOABC6kxFMIeTA11fVujrD1iHQb
RDcfvPpC+INqUAlW5D0Ut2+xNsU+jWVJFHVPq9hFuvocIVt2k1cVR+iTY3dpcB3f
RDxodS1wNTPTHLJkgp9A+ckVlqPiIMLEEgQYAQgAJhYhBDWxffV1JXfKDFQc65S/
30SErRQvBQJb1e0FAhsCBQkDwmcAAqAJEJS/30SErRQvwdQgBBkBCAB9FiEE2dle
cvcVU8/ThuQ/jJJgxvbXoxAFAlvV7QVfFIAAAAAALgAoaXNzdWVyLWZwckBub3Rh
dGlvbnMub3BlbnBncC5maWZ0aGhvcnNlbWFuLm5ldEQ5RDk1RTcyRjcxNTUzQ0ZE
Mzg2RTQzRjhDOTI2MEM2RjZEN0EzMTAACgkQjJJgxvbXoxBvZw/9H57XYO0Du39d
7O/p73GfdwNqBcLr9XcyZNHW4Q2A0lB02KdCZJ0kSTEviA+k/ZOarlAwbJbllkWD
58AhtsOXs8dCZWkc9gZC+Eoh3fqTCd3SERJvAIWjBVIRR4537s7ojDBmatU5QGrb
2DkBP3BPPJ4EiiO02x4xf093RGbKjGvh0v59wYLuF2KAXXz7c4eOjPKzs1Wr1GEj
f6aUSKcqSRVj6xSwDZX0PTmz2VLknIBuRTbgY24TCe2f7JrVYvlu+oOFB9xX1V82
QieAH7wCulBTo5fePNgcovU+JpViPOTrPo196TjxJACq+IcDwU8Huztpr7plRSTs
eWqZpxXXAeuhJ3d07cEIBv654RbPgxdwa6QYgJo//1kp8TQ3vX78vkfnqPI0GsJl
ILcSZQPdVOVFcX/wwk3AjmqLLZzPOTQPD5wT5D0vHX2kZl+ZdLPuU4Nw+YIQbsU1
NGygsORhs/QpVTH8OOJ9tQNb5soFPYAegWLimzbKqxfil/pJ/iRrEuPQr6GrU31U
i3788edse8hVohcgzNE+iyXCbXXgPhdttC9BM2HZpTNV1stugc32HDsCCaqQUL0I
hI+fEz1DsF653/gB9XPFoFgO49Tf+/cUWSvRjHIH0VJ2KdWX4Khgzr7xnYPdV9rI
D0+ZIclia5fSY/aFQzQ2mdp8saIWgJG7ig//Tw1R5uOnPAWBHkt3/1Nz1Q537GzR
TnJc2biV+9Si/M6WffAWZpGF7mHMHSYI35KMnLqa6T1obTUBOMUNBd+r6/jWTm+U
YfoN/Vfp9BYcd2yBdW5ZMlRCDzbCB86tSpz7mZERso0saIYqJSP3FOxHjFHiWEr2
MvVmyIKT3IySZHyFJ90cswyqv3drCMbRXMWY8a04B6tU/0Vrnu9os4pUjBAves0V
60V8sM7DM2wirtoUMWvZIUokKMvr1NG3Tctq/DC5NFC3Ys8I+bc0JF3T8HRrUw4a
1ngEa1q4Hn4A1cn4sLmstVfuz86aUrgJloPeAj1dTfj4thrfL4+PQuQrgv+UhM6N
W3aKGo9NQHdDzd6xL+MoVGadSZD7yNQFO9+I4Ytov2K+KuEHGX4C5KvUkW33fGp6
22u8XB/ojaoo/ynOK1SWNl4vxEOz0edkncsApWFwOP8mJXHt7bOUYV9EwFGaAzy/
jQ7TpU6ouBa7j1jd6BDvXdNsu9aFN9NQZds5jwbbxCkY1s7lOp7I0mcVFXu2HjiJ
oc/UsVeO+xfBIu1Lqy4s+AtbVy+fCKbEUC6pxptbspLp7K4QSU3gbQGaQhbFkHe6
S2iLPIJSxnbxSBaKaOTtxhtmsdA/9mBhsY5F3bvcbNiCVjf9Jeygl2ubQpREy9W/
13IGQbOpiVuTmsXOwU0EYn6xJgEQAOMLvrEyMRK7vGVxLxdBQFHt4X19dlPPFlkC
fd6uPRWwjyM5fApjlGMUdCa4Wm1lLynKdpuY4Jh1BYIY20yHWj+nFKw4mRpc5Qws
vMDNB3aGk6PNV4LQHsWN0q8Zen06mxfpwHWcla++ACSQS/n6mtu+xBN/MnI+3ITH
7aErNt1LZ/Ltyukory9Q9VkUYoWAKbLi938ig9G0QLYMAe5VuLEplPuJFR5LqRYM
AmZ97yz9I+aRfZPtZvxpFdF9HDM8PSwfZc5/DQy3kt2rFYE0VZlr++cegMvVnPH7
vHamgmRViUZkV8Pw+NCUv60b5nMsRkjJ1gZsgXZaNEbIkl1GWgGRJpZy3OlHLQ5D
f4kKv/z4EjibOPhxWEn5KdSF4UW1gpfeqYyPcgxYryGRD6Ym7FTY0ZDaqGI5Boi2
7miz1roPMQhKzvvMbCzVB3reHnpaHjgHKBcgHBa1aY2/28Lhu9ofwKTGJE65qpAk
B0lc5LxjRUliA2zlDPLbHk5hUHbWUaM8IqvtqjZhw6x41hb4V4MQTGKFU1MP3HfY
8HpNP9YQZIdEgVeVMlfdnRFDi2ksyDRq4ovPnhx8AbNTFSy7GvkR6XkWPUpwcPgA
Uai7Xi2YFzy4naKp1PDqU5od2BOcCv2WWp1nL+wOB0AR3BHavFJXu5kONHk5jtXJ
u+Brve9BABEBAAHCxBIEGAEKACYCGwIWIQQ1sX31dSV3ygxUHOuUv99EhK0ULwUC
Yxzc6gUJAO1FvQKgCRCUv99EhK0UL8HUIAQZAQoAfRYhBA2HwC49q/BLVkVaCywb
Wie1zXuVBQJifrEmXxSAAAAAAC4AKGlzc3Vlci1mcHJAbm90YXRpb25zLm9wZW5w
Z3AuZmlmdGhob3JzZW1hbi5uZXQwRDg3QzAyRTNEQUJGMDRCNTY0NTVBMEIyQzFC
NUEyN0I1Q0Q3Qjk1AAoJECwbWie1zXuVT2MP/Rt3hdg+FX2jzl96ceM4ZALxD86j
Os5sQJp25VTmdJktC8CWFtbRBQA0cS3dbxPcY3QVBENOgV6zHJCKRmoAj9G+C/CS
7r7GIV11hDb8iSYzcXG2tJ9s4FGcXzzBAs7hqOqJFyhVTU/RFZey8xLf/s5N/Hrp
Kx4korJl+E30yANjnM7tY1hcHIDysPV74a/Oh2Bw1IHn9QC9a6MEt4KdP/2wsOGE
7LaYsbhVZb8AksVj6bPa/SeTZXb4QoJB0G9qJYRyWBZMfrGud/32vkedeEOSsaMT
qeAEvDfkjMkFnnoCeEsCiwy3hpHPEu+akI8lq0CkCUOmFmsxp7h6yZcZ5eqk298r
F0BWxJR9aDgsnHTZgqLIkecA29sgATHpbsxT6VP9A42G1ORTDN+KzzhltVBOa6AR
e3O130bMNN2SF3FQa1iaxmxSHUQBzgCDWmeH7RLyOW0pBN1NrOIQYzihG2pStgKm
IJduN0210nfRedu7J/xSG9OeZ2YqV7LbvnXJE8BS5SG1Dv/7e8C/SAtN1vV+IsyD
0qFj460Ne7YXOLzEyRkETs0TAXfOG6HDVHC4WWOtkykSP5czEumXuIdJfINupN6C
qJWA4lkKq4Qgg4mV6hTkPVR5jNmFPcqNb/3cMeaiPH4jar5fLgcXrgMSIG4CSRcI
qvs3JVdqv6+ZM30BE8MQAJStN1GlvLvVwevBShUxmKXT+iGYXItooDyS9AI0tCN7
Na/kQH5wMCG0sLFb8fD3BjY6U/46oSg4G+aYoajl/hGfWYDqwFoP/bKMGU4EHVOv
e0XbH1ozirqaL02y5Sr/k2UWvo75ZhVBkwHMkEQ9fdwLB9oCfeKjQTAxVIWc1M7A
bI7A9DaldpYwefGFjUa6jEPywJD4OpIIf/xIKrUSKEJvdSRQPuhiN6zFQMrpeO/X
KD9wNl3iFP+QP/hvkXNzXD2uxw6pPxJd1T922XRGAQSZJsnZR9AyiVkOuCv86baw
urWTTpvhR//rJd0xNOAlIxU3OUjHzcQAd3zv+ZWHf7aciMKyFthBokbEy7MLzjix
brLYe/E0+StWJM8jHgouLiEp6TIBInayHAaS8D6WX7tGUUpkL3j8EIg9/cmGLZ5J
EVv6KrFwlQS1YlDrw6ZGNzbqiicrsz441st//1/xk/HvvlVjc/rF7bWlwRus/dS6
FkBLK9VrIfWmKhSS2LT0u33WXhMdrMipaGx3XE61Qq8N7qTYmoekQ3uhwMCHjiHk
pB+EXbyKJKX0TN+rEjBqAF2mTC1oIiIw7VeetJGxOhc8YmbTg2JMjK8Fi97dJ/OK
V2WlPG3l3Svlrq4t4Gg2jcgkHhILyMSVe43zEYppZovoRAl7HlTp/9lQ2eNhsox5
wsQSBBgBCgAmFiEENbF99XUld8oMVBzrlL/fRIStFC8FAmJ+sSYCGwIFCQHhM4AC
oAkQlL/fRIStFC/B1CAEGQEKAH0WIQQNh8AuPavwS1ZFWgssG1ontc17lQUCYn6x
Jl8UgAAAAAAuAChpc3N1ZXItZnByQG5vdGF0aW9ucy5vcGVucGdwLmZpZnRoaG9y
c2VtYW4ubmV0MEQ4N0MwMkUzREFCRjA0QjU2NDU1QTBCMkMxQjVBMjdCNUNEN0I5
NQAKCRAsG1ontc17lU9jD/0bd4XYPhV9o85fenHjOGQC8Q/OozrObECaduVU5nSZ
LQvAlhbW0QUANHEt3W8T3GN0FQRDToFesxyQikZqAI/Rvgvwku6+xiFddYQ2/Ikm
M3FxtrSfbOBRnF88wQLO4ajqiRcoVU1P0RWXsvMS3/7OTfx66SseJKKyZfhN9MgD
Y5zO7WNYXByA8rD1e+GvzodgcNSB5/UAvWujBLeCnT/9sLDhhOy2mLG4VWW/AJLF
Y+mz2v0nk2V2+EKCQdBvaiWEclgWTH6xrnf99r5HnXhDkrGjE6ngBLw35IzJBZ56
AnhLAosMt4aRzxLvmpCPJatApAlDphZrMae4esmXGeXqpNvfKxdAVsSUfWg4LJx0
2YKiyJHnANvbIAEx6W7MU+lT/QONhtTkUwzfis84ZbVQTmugEXtztd9GzDTdkhdx
UGtYmsZsUh1EAc4Ag1pnh+0S8jltKQTdTaziEGM4oRtqUrYCpiCXbjdNtdJ30Xnb
uyf8UhvTnmdmKley2751yRPAUuUhtQ7/+3vAv0gLTdb1fiLMg9KhY+OtDXu2Fzi8
xMkZBE7NEwF3zhuhw1RwuFljrZMpEj+XMxLpl7iHSXyDbqTegqiVgOJZCquEIIOJ
leoU5D1UeYzZhT3KjW/93DHmojx+I2q+Xy4HF64DEiBuAkkXCKr7NyVXar+vmTN9
AYVUD/96/Wh6JOFbmajJpRHSK+w4Qk0cel4kedU2MWgrRJP2ajR1TyfdrU4qLuRX
253p1rVKSba4AGuoqR6xS0rA/WThRq9fkTx7jAE3fx+6UApPGIwK9Ef2cHhmplEh
eAHtAfgU+ou0vuLAHy0wFldufofe6f9eQjvmwMIjSul70IesuB6FpCX1maBLxiry
z3KB+2/jvzgz7Grsd/i59JIgP8Ox5rrooNVqTZyBPUCQir3l/K1GZkakXEq97p2u
MxE6q1fYUl60eRRcSO0VGIXQPJRMPWTN0hhB7LrLk27Ko4YFj7l2mbmoBfQUJLtF
EDRH+HKrQUh+U21YR7uF5Eo7C+lGa/fzHg8FGgL/kbOzd6KWZyYw2dR0f9+lOeBo
+MgrD9f1bkOcwjZVu+2cJaWC/8wZ+OM+igKtyQgTGNKtCfKSzg08QbeT0iQ74B7+
aQVWe6cKGyIP5rxQp8UWUSeXM0MpYQoXtxLDITXEGrZFWfUGN5D7WZKWVmKJFzMU
DHfDoZTPPEiSm5C3/4xDqgJe12jJZxNIVaV4UIal1pdqIRPjQePrZj4zwJ/jSlsV
Cl25KO6UiJrgPy6jRme85Ad+FfED8cD7FnE8Hs38YNtLhc7W2iR7RdwdZsyy3nMK
x/UlVh/pJq+JaMLwvybQQO8MDly+pWwjbGFwif68eHaULUt3Yw==
=wyoK
-----END PGP PUBLIC KEY BLOCK-----
